%
(Header)
(Generated by gcodetools from Inkscape.)
(Using default header. To add your own header create file "header" in the output dir.)
M3
(Header end.)
G21 (All units in mm)
(Tool diameter should be at least 3.15 mm)
(Depth, as a function of radius w, must be 5*w)
(Rapid feeds use safe Z=3.0 mm)
(Material surface at Z=0.0 mm)
(Change tool to Eigth Inch Cone)

G00 Z2.0
G00 X54.599529 Y-84.070077

G01 Z-3.600450 F200.0(Penetrate)
G01 X54.507722 Y-84.291875 Z-2.491599 F100.000000
G01 X54.507722 Y-84.291875 Z-2.491599
G01 X54.599473 Y-84.070077 Z-3.600450
G01 X54.377759 Y-84.161997 Z-2.491599
G01 X54.377759 Y-84.161997 Z-2.491599
G01 X54.599473 Y-84.070077 Z-3.600450
G01 X54.377703 Y-83.978213 Z-2.491740
G01 X54.377703 Y-83.978213 Z-2.491740
G01 X54.599473 Y-84.070020 Z-3.600450
G01 X54.507666 Y-83.848250 Z-2.491740
G01 X54.507666 Y-83.848250 Z-2.491740
G01 X54.599473 Y-84.070020 Z-3.600450
G01 X54.691449 Y-83.848307 Z-2.491599
G01 X54.691449 Y-83.848307 Z-2.491599
G01 X54.599529 Y-84.070020 Z-3.600450
G01 X54.821328 Y-83.978242 Z-2.491599
G01 X54.821328 Y-83.978242 Z-2.491599
G01 X54.599529 Y-84.070020 Z-3.600450
G01 X54.769258 Y-84.239805 Z-2.751526
G01 X54.769258 Y-84.239805 Z-2.751526
G01 X54.599529 Y-84.070077 Z-3.600450
G00 Z2.0

G00 Z2.0
G00 X57.135296 Y-84.070077

G01 Z-3.600450 F200.0(Penetrate)
G01 X57.043489 Y-84.291875 Z-2.491599 F100.000000
G01 X57.043489 Y-84.291875 Z-2.491599
G01 X57.135240 Y-84.070077 Z-3.600450
G01 X56.913526 Y-84.161997 Z-2.491599
G01 X56.913526 Y-84.161997 Z-2.491599
G01 X57.135240 Y-84.070077 Z-3.600450
G01 X56.913469 Y-83.978213 Z-2.491740
G01 X56.913469 Y-83.978213 Z-2.491740
G01 X57.135240 Y-84.070020 Z-3.600450
G01 X57.043433 Y-83.848250 Z-2.491740
G01 X57.043433 Y-83.848250 Z-2.491740
G01 X57.135240 Y-84.070020 Z-3.600450
G01 X57.227216 Y-83.848307 Z-2.491599
G01 X57.227216 Y-83.848307 Z-2.491599
G01 X57.135296 Y-84.070020 Z-3.600450
G01 X57.357094 Y-83.978242 Z-2.491599
G01 X57.357094 Y-83.978242 Z-2.491599
G01 X57.135296 Y-84.070020 Z-3.600450
G01 X57.305024 Y-84.239805 Z-2.751526
G01 X57.305024 Y-84.239805 Z-2.751526
G01 X57.135296 Y-84.070077 Z-3.600450
G00 Z2.0

G00 Z2.0
G00 X57.095728 Y-81.533012

G01 Z-3.402894 F200.0(Penetrate)
G01 X57.095728 Y-81.533012 Z-3.402894 F100.000000
G01 X57.095672 Y-81.742675 Z-2.354580
G01 X57.008860 Y-81.742675 Z-2.354580
G01 X57.008860 Y-81.742675 Z-2.354580
G01 X57.095644 Y-81.533097 Z-3.402471
G01 X56.886066 Y-81.619908 Z-2.354580
G01 X56.886066 Y-81.619908 Z-2.354580
G01 X57.095728 Y-81.533012 Z-3.402894
G01 X57.095728 Y-81.533012 Z-3.402894
G01 X56.886094 Y-81.532955 Z-2.354580
G01 X56.886066 Y-81.446116 Z-2.354580
G01 X56.886066 Y-81.446116 Z-2.354580
G01 X57.095644 Y-81.532927 Z-3.402471
G01 X57.008860 Y-81.323349 Z-2.354580
G01 X57.008860 Y-81.323349 Z-2.354580
G01 X57.095728 Y-81.533012 Z-3.402894
G01 X57.095728 Y-81.533012 Z-3.402894
G01 X57.095813 Y-81.323349 Z-2.354580
G01 X57.182625 Y-81.323349 Z-2.354580
G01 X57.182625 Y-81.323349 Z-2.354580
G01 X57.095841 Y-81.532927 Z-3.402471
G01 X57.305391 Y-81.446116 Z-2.354580
G01 X57.305391 Y-81.446116 Z-2.354580
G01 X57.095728 Y-81.533012 Z-3.402894
G01 X57.095728 Y-81.533012 Z-3.402894
G01 X57.305391 Y-81.533068 Z-2.354580
G01 X57.305391 Y-81.619908 Z-2.354580
G01 X57.305391 Y-81.619908 Z-2.354580
G01 X57.095841 Y-81.533097 Z-3.402471
G01 X57.182625 Y-81.742675 Z-2.354580
G01 X57.182625 Y-81.742675 Z-2.354580
G01 X57.095728 Y-81.533012 Z-3.402894
G00 Z2.0

G00 Z2.0
G00 X54.559990 Y-81.533012

G01 Z-3.402894 F200.0(Penetrate)
G01 X54.559990 Y-81.533012 Z-3.402894 F100.000000
G01 X54.559905 Y-81.742675 Z-2.354580
G01 X54.473094 Y-81.742675 Z-2.354580
G01 X54.473094 Y-81.742675 Z-2.354580
G01 X54.559877 Y-81.533097 Z-3.402471
G01 X54.350327 Y-81.619908 Z-2.354580
G01 X54.350327 Y-81.619908 Z-2.354580
G01 X54.559990 Y-81.533012 Z-3.402894
G01 X54.559990 Y-81.533012 Z-3.402894
G01 X54.350327 Y-81.532955 Z-2.354580
G01 X54.350327 Y-81.446116 Z-2.354580
G01 X54.350327 Y-81.446116 Z-2.354580
G01 X54.559877 Y-81.532927 Z-3.402471
G01 X54.473094 Y-81.323349 Z-2.354580
G01 X54.473094 Y-81.323349 Z-2.354580
G01 X54.559990 Y-81.533012 Z-3.402894
G01 X54.559990 Y-81.533012 Z-3.402894
G01 X54.560046 Y-81.323349 Z-2.354580
G01 X54.646858 Y-81.323349 Z-2.354580
G01 X54.646858 Y-81.323349 Z-2.354580
G01 X54.560075 Y-81.532927 Z-3.402471
G01 X54.769625 Y-81.446116 Z-2.354580
G01 X54.769625 Y-81.446116 Z-2.354580
G01 X54.559990 Y-81.533012 Z-3.402894
G01 X54.559990 Y-81.533012 Z-3.402894
G01 X54.769625 Y-81.533068 Z-2.354580
G01 X54.769625 Y-81.619908 Z-2.354580
G01 X54.769625 Y-81.619908 Z-2.354580
G01 X54.560075 Y-81.533097 Z-3.402471
G01 X54.646858 Y-81.742675 Z-2.354580
G01 X54.646858 Y-81.742675 Z-2.354580
G01 X54.559990 Y-81.533012 Z-3.402894
G00 Z2.0

G00 Z2.0
G00 X54.559990 Y-78.995693

G01 Z-3.402894 F200.0(Penetrate)
G01 X54.559990 Y-78.995693 Z-3.402894 F100.000000
G01 X54.559905 Y-79.205356 Z-2.354580
G01 X54.473094 Y-79.205356 Z-2.354580
G01 X54.473094 Y-79.205356 Z-2.354580
G01 X54.559877 Y-78.995778 Z-3.402471
G01 X54.350327 Y-79.082589 Z-2.354580
G01 X54.350327 Y-79.082589 Z-2.354580
G01 X54.559990 Y-78.995693 Z-3.402894
G01 X54.559990 Y-78.995693 Z-3.402894
G01 X54.350327 Y-78.995637 Z-2.354580
G01 X54.350327 Y-78.908797 Z-2.354580
G01 X54.350327 Y-78.908797 Z-2.354580
G01 X54.559877 Y-78.995608 Z-3.402471
G01 X54.473094 Y-78.786030 Z-2.354580
G01 X54.473094 Y-78.786030 Z-2.354580
G01 X54.559990 Y-78.995693 Z-3.402894
G01 X54.559990 Y-78.995693 Z-3.402894
G01 X54.560046 Y-78.786030 Z-2.354580
G01 X54.646858 Y-78.786030 Z-2.354580
G01 X54.646858 Y-78.786030 Z-2.354580
G01 X54.560075 Y-78.995608 Z-3.402471
G01 X54.769625 Y-78.908797 Z-2.354580
G01 X54.769625 Y-78.908797 Z-2.354580
G01 X54.559990 Y-78.995693 Z-3.402894
G01 X54.559990 Y-78.995693 Z-3.402894
G01 X54.769625 Y-78.995749 Z-2.354580
G01 X54.769625 Y-79.082589 Z-2.354580
G01 X54.769625 Y-79.082589 Z-2.354580
G01 X54.560075 Y-78.995778 Z-3.402471
G01 X54.646858 Y-79.205356 Z-2.354580
G01 X54.646858 Y-79.205356 Z-2.354580
G01 X54.559990 Y-78.995693 Z-3.402894
G00 Z2.0

G00 Z2.0
G00 X57.095728 Y-78.995693

G01 Z-3.402894 F200.0(Penetrate)
G01 X57.095728 Y-78.995693 Z-3.402894 F100.000000
G01 X57.095672 Y-79.205356 Z-2.354580
G01 X57.008860 Y-79.205356 Z-2.354580
G01 X57.008860 Y-79.205356 Z-2.354580
G01 X57.095644 Y-78.995778 Z-3.402471
G01 X56.886066 Y-79.082589 Z-2.354580
G01 X56.886066 Y-79.082589 Z-2.354580
G01 X57.095728 Y-78.995693 Z-3.402894
G01 X57.095728 Y-78.995693 Z-3.402894
G01 X56.886094 Y-78.995637 Z-2.354580
G01 X56.886066 Y-78.908797 Z-2.354580
G01 X56.886066 Y-78.908797 Z-2.354580
G01 X57.095644 Y-78.995608 Z-3.402471
G01 X57.008860 Y-78.786030 Z-2.354580
G01 X57.008860 Y-78.786030 Z-2.354580
G01 X57.095728 Y-78.995693 Z-3.402894
G01 X57.095728 Y-78.995693 Z-3.402894
G01 X57.095813 Y-78.786030 Z-2.354580
G01 X57.182625 Y-78.786030 Z-2.354580
G01 X57.182625 Y-78.786030 Z-2.354580
G01 X57.095841 Y-78.995608 Z-3.402471
G01 X57.305391 Y-78.908797 Z-2.354580
G01 X57.305391 Y-78.908797 Z-2.354580
G01 X57.095728 Y-78.995693 Z-3.402894
G01 X57.095728 Y-78.995693 Z-3.402894
G01 X57.305391 Y-78.995749 Z-2.354580
G01 X57.305391 Y-79.082589 Z-2.354580
G01 X57.305391 Y-79.082589 Z-2.354580
G01 X57.095841 Y-78.995778 Z-3.402471
G01 X57.182625 Y-79.205356 Z-2.354580
G01 X57.182625 Y-79.205356 Z-2.354580
G01 X57.095728 Y-78.995693 Z-3.402894
G00 Z2.0

G00 Z2.0
G00 X57.095728 Y-76.458628

G01 Z-3.401624 F200.0(Penetrate)
G01 X57.095728 Y-76.458628 Z-3.401624 F100.000000
G01 X57.095672 Y-76.668037 Z-2.354580
G01 X57.008860 Y-76.668037 Z-2.354580
G01 X57.008860 Y-76.668037 Z-2.354580
G01 X57.095503 Y-76.458600 Z-3.401483
G01 X56.886066 Y-76.545270 Z-2.354580
G01 X56.886066 Y-76.545270 Z-2.354580
G01 X57.095249 Y-76.458628 Z-3.400496
G01 X56.935313 Y-76.298326 Z-2.600254
G01 X56.935313 Y-76.298326 Z-2.600254
G01 X57.095728 Y-76.458628 Z-3.401624
G01 X57.095728 Y-76.458628 Z-3.401624
G01 X57.095813 Y-76.298354 Z-2.600254
G01 X57.256172 Y-76.298326 Z-2.600254
G01 X57.256172 Y-76.298326 Z-2.600254
G01 X57.096208 Y-76.458628 Z-3.400496
G01 X57.305391 Y-76.545270 Z-2.354580
G01 X57.305391 Y-76.545270 Z-2.354580
G01 X57.095954 Y-76.458600 Z-3.401483
G01 X57.182625 Y-76.668037 Z-2.354580
G01 X57.182625 Y-76.668037 Z-2.354580
G01 X57.095728 Y-76.458628 Z-3.401624
G00 Z2.0

G00 Z2.0
G00 X54.559990 Y-76.458628

G01 Z-3.401624 F200.0(Penetrate)
G01 X54.559990 Y-76.458628 Z-3.401624 F100.000000
G01 X54.559905 Y-76.668037 Z-2.354580
G01 X54.473094 Y-76.668037 Z-2.354580
G01 X54.473094 Y-76.668037 Z-2.354580
G01 X54.559736 Y-76.458600 Z-3.401483
G01 X54.350327 Y-76.545270 Z-2.354580
G01 X54.350327 Y-76.545270 Z-2.354580
G01 X54.559482 Y-76.458628 Z-3.400496
G01 X54.399547 Y-76.298326 Z-2.600254
G01 X54.399547 Y-76.298326 Z-2.600254
G01 X54.559990 Y-76.458628 Z-3.401624
G01 X54.559990 Y-76.458628 Z-3.401624
G01 X54.560046 Y-76.298354 Z-2.600254
G01 X54.720405 Y-76.298326 Z-2.600254
G01 X54.720405 Y-76.298326 Z-2.600254
G01 X54.560470 Y-76.458628 Z-3.400496
G01 X54.769625 Y-76.545270 Z-2.354580
G01 X54.769625 Y-76.545270 Z-2.354580
G01 X54.560216 Y-76.458600 Z-3.401483
G01 X54.646858 Y-76.668037 Z-2.354580
G01 X54.646858 Y-76.668037 Z-2.354580
G01 X54.559990 Y-76.458628 Z-3.401624
G00 Z2.0

G00 Z2.0
G00 X54.559990 Y-73.921337

G01 Z-3.401483 F200.0(Penetrate)
G01 X54.559990 Y-73.921337 Z-3.401483 F100.000000
G01 X54.559905 Y-74.081583 Z-2.600254
G01 X54.399547 Y-74.081611 Z-2.600254
G01 X54.399547 Y-74.081611 Z-2.600254
G01 X54.559454 Y-73.921337 Z-3.400354
G01 X54.350327 Y-73.834695 Z-2.354580
G01 X54.350327 Y-73.834695 Z-2.354580
G01 X54.559736 Y-73.921366 Z-3.401342
G01 X54.473094 Y-73.711929 Z-2.354580
G01 X54.473094 Y-73.711929 Z-2.354580
G01 X54.559990 Y-73.921309 Z-3.401483
G01 X54.559990 Y-73.921309 Z-3.401483
G01 X54.560046 Y-73.711929 Z-2.354580
G01 X54.646858 Y-73.711929 Z-2.354580
G01 X54.646858 Y-73.711929 Z-2.354580
G01 X54.560216 Y-73.921366 Z-3.401342
G01 X54.769625 Y-73.834695 Z-2.354580
G01 X54.769625 Y-73.834695 Z-2.354580
G01 X54.560498 Y-73.921337 Z-3.400354
G01 X54.720405 Y-74.081611 Z-2.600254
G01 X54.720405 Y-74.081611 Z-2.600254
G01 X54.559990 Y-73.921337 Z-3.401483
G00 Z2.0

G00 Z2.0
G00 X57.095728 Y-73.921309

G01 Z-3.401483 F200.0(Penetrate)
G01 X57.095728 Y-73.921309 Z-3.401483 F100.000000
G01 X57.095672 Y-74.081583 Z-2.600254
G01 X56.935313 Y-74.081611 Z-2.600254
G01 X56.935313 Y-74.081611 Z-2.600254
G01 X57.095220 Y-73.921337 Z-3.400354
G01 X56.886094 Y-73.834695 Z-2.354580
G01 X56.886094 Y-73.834695 Z-2.354580
G01 X57.095503 Y-73.921366 Z-3.401342
G01 X57.008860 Y-73.711929 Z-2.354580
G01 X57.008860 Y-73.711929 Z-2.354580
G01 X57.095728 Y-73.921309 Z-3.401483
G01 X57.095728 Y-73.921309 Z-3.401483
G01 X57.095813 Y-73.711929 Z-2.354580
G01 X57.182625 Y-73.711929 Z-2.354580
G01 X57.182625 Y-73.711929 Z-2.354580
G01 X57.095982 Y-73.921366 Z-3.401342
G01 X57.305391 Y-73.834695 Z-2.354580
G01 X57.305391 Y-73.834695 Z-2.354580
G01 X57.096265 Y-73.921337 Z-3.400354
G01 X57.256172 Y-74.081611 Z-2.600254
G01 X57.256172 Y-74.081611 Z-2.600254
G01 X57.095728 Y-73.921309 Z-3.401483
G00 Z2.0

G00 Z2.0
G00 X45.229046 Y-67.533633

G01 Z-7.749963 F200.0(Penetrate)
G01 X45.031180 Y-68.010927 Z-5.363351 F100.000000
G01 X45.031180 Y-68.010927 Z-5.363351
G01 X45.228990 Y-67.533633 Z-7.749963
G01 X44.751611 Y-67.731245 Z-5.363351
G01 X44.751611 Y-67.731245 Z-5.363351
G01 X45.228990 Y-67.533633 Z-7.749963
G01 X44.745994 Y-67.333452 Z-5.334847
G01 X44.745994 Y-67.333452 Z-5.334847
G01 X45.028894 Y-67.050581 Z-5.334847
G01 X45.028894 Y-67.050581 Z-5.334847
G01 X45.228990 Y-67.533548 Z-7.749963
G01 X45.426686 Y-67.056169 Z-5.363351
G01 X45.426686 Y-67.056169 Z-5.363351
G01 X45.229046 Y-67.533548 Z-7.749963
G01 X45.706368 Y-67.335767 Z-5.363351
G01 X45.706368 Y-67.335767 Z-5.363351
G01 X45.229046 Y-67.533548 Z-7.749963
G01 X45.706425 Y-67.731301 Z-5.363351
G01 X45.706425 Y-67.731301 Z-5.363351
G01 X45.229046 Y-67.533633 Z-7.749963
G01 X45.426743 Y-68.010983 Z-5.363351
G01 X45.426743 Y-68.010983 Z-5.363351
G01 X45.229046 Y-67.533633 Z-7.749963
G00 Z2.0

G00 Z2.0
G00 X36.628267 Y-66.749394

G01 Z-3.402894 F200.0(Penetrate)
G01 X36.628267 Y-66.749394 Z-3.402894 F100.000000
G01 X36.628183 Y-66.959056 Z-2.354580
G01 X36.541371 Y-66.959056 Z-2.354580
G01 X36.541371 Y-66.959056 Z-2.354580
G01 X36.628155 Y-66.749478 Z-3.402471
G01 X36.418605 Y-66.836290 Z-2.354580
G01 X36.418605 Y-66.836290 Z-2.354580
G01 X36.628239 Y-66.749394 Z-3.402894
G01 X36.628239 Y-66.749394 Z-3.402894
G01 X36.418605 Y-66.749337 Z-2.354580
G01 X36.418605 Y-66.662497 Z-2.354580
G01 X36.418605 Y-66.662497 Z-2.354580
G01 X36.628155 Y-66.749309 Z-3.402471
G01 X36.541371 Y-66.539731 Z-2.354580
G01 X36.541371 Y-66.539731 Z-2.354580
G01 X36.628267 Y-66.749394 Z-3.402894
G01 X36.628267 Y-66.749394 Z-3.402894
G01 X36.628324 Y-66.539731 Z-2.354580
G01 X36.715135 Y-66.539731 Z-2.354580
G01 X36.715135 Y-66.539731 Z-2.354580
G01 X36.628352 Y-66.749309 Z-3.402471
G01 X36.837930 Y-66.662497 Z-2.354580
G01 X36.837930 Y-66.662497 Z-2.354580
G01 X36.628267 Y-66.749394 Z-3.402894
G01 X36.628267 Y-66.749394 Z-3.402894
G01 X36.837902 Y-66.749450 Z-2.354580
G01 X36.837930 Y-66.836290 Z-2.354580
G01 X36.837930 Y-66.836290 Z-2.354580
G01 X36.628352 Y-66.749478 Z-3.402471
G01 X36.715135 Y-66.959056 Z-2.354580
G01 X36.715135 Y-66.959056 Z-2.354580
G01 X36.628267 Y-66.749394 Z-3.402894
G00 Z2.0

G00 Z2.0
G00 X36.628267 Y-64.212103

G01 Z-3.402894 F200.0(Penetrate)
G01 X36.628267 Y-64.212103 Z-3.402894 F100.000000
G01 X36.628183 Y-64.421766 Z-2.354580
G01 X36.541371 Y-64.421766 Z-2.354580
G01 X36.541371 Y-64.421766 Z-2.354580
G01 X36.628155 Y-64.212188 Z-3.402471
G01 X36.418605 Y-64.298999 Z-2.354580
G01 X36.418605 Y-64.298999 Z-2.354580
G01 X36.628239 Y-64.212103 Z-3.402894
G01 X36.628239 Y-64.212103 Z-3.402894
G01 X36.418605 Y-64.212046 Z-2.354580
G01 X36.418605 Y-64.125207 Z-2.354580
G01 X36.418605 Y-64.125207 Z-2.354580
G01 X36.628155 Y-64.212018 Z-3.402471
G01 X36.541371 Y-64.002440 Z-2.354580
G01 X36.541371 Y-64.002440 Z-2.354580
G01 X36.628267 Y-64.212103 Z-3.402894
G01 X36.628267 Y-64.212103 Z-3.402894
G01 X36.628324 Y-64.002440 Z-2.354580
G01 X36.715135 Y-64.002440 Z-2.354580
G01 X36.715135 Y-64.002440 Z-2.354580
G01 X36.628352 Y-64.212018 Z-3.402471
G01 X36.837930 Y-64.125207 Z-2.354580
G01 X36.837930 Y-64.125207 Z-2.354580
G01 X36.628267 Y-64.212103 Z-3.402894
G01 X36.628267 Y-64.212103 Z-3.402894
G01 X36.837902 Y-64.212159 Z-2.354580
G01 X36.837930 Y-64.298999 Z-2.354580
G01 X36.837930 Y-64.298999 Z-2.354580
G01 X36.628352 Y-64.212188 Z-3.402471
G01 X36.715135 Y-64.421766 Z-2.354580
G01 X36.715135 Y-64.421766 Z-2.354580
G01 X36.628267 Y-64.212103 Z-3.402894
G00 Z2.0

G00 Z2.0
G00 X36.628267 Y-61.675066

G01 Z-3.401483 F200.0(Penetrate)
G01 X36.628267 Y-61.675066 Z-3.401483 F100.000000
G01 X36.628183 Y-61.884447 Z-2.354580
G01 X36.541371 Y-61.884447 Z-2.354580
G01 X36.541371 Y-61.884447 Z-2.354580
G01 X36.628013 Y-61.675010 Z-3.401342
G01 X36.418605 Y-61.761680 Z-2.354580
G01 X36.418605 Y-61.761680 Z-2.354580
G01 X36.627731 Y-61.675038 Z-3.400354
G01 X36.467824 Y-61.514764 Z-2.600254
G01 X36.467824 Y-61.514764 Z-2.600254
G01 X36.628267 Y-61.675066 Z-3.401483
G01 X36.628267 Y-61.675066 Z-3.401483
G01 X36.628324 Y-61.514792 Z-2.600254
G01 X36.788683 Y-61.514764 Z-2.600254
G01 X36.788683 Y-61.514764 Z-2.600254
G01 X36.628775 Y-61.675038 Z-3.400354
G01 X36.837930 Y-61.761680 Z-2.354580
G01 X36.837930 Y-61.761680 Z-2.354580
G01 X36.628493 Y-61.675010 Z-3.401342
G01 X36.715135 Y-61.884447 Z-2.354580
G01 X36.715135 Y-61.884447 Z-2.354580
G01 X36.628267 Y-61.675066 Z-3.401483
G00 Z2.0

G00 Z2.0
G00 X36.628267 Y-59.138001

G01 Z-3.402894 F200.0(Penetrate)
G01 X36.628267 Y-59.138001 Z-3.402894 F100.000000
G01 X36.628183 Y-59.347664 Z-2.354580
G01 X36.541371 Y-59.347664 Z-2.354580
G01 X36.541371 Y-59.347664 Z-2.354580
G01 X36.628155 Y-59.138086 Z-3.402471
G01 X36.418605 Y-59.224898 Z-2.354580
G01 X36.418605 Y-59.224898 Z-2.354580
G01 X36.628239 Y-59.138001 Z-3.402894
G01 X36.628239 Y-59.138001 Z-3.402894
G01 X36.418605 Y-59.137945 Z-2.354580
G01 X36.418605 Y-59.051105 Z-2.354580
G01 X36.418605 Y-59.051105 Z-2.354580
G01 X36.628155 Y-59.137917 Z-3.402471
G01 X36.541371 Y-58.928338 Z-2.354580
G01 X36.541371 Y-58.928338 Z-2.354580
G01 X36.628267 Y-59.138001 Z-3.402894
G01 X36.628267 Y-59.138001 Z-3.402894
G01 X36.628324 Y-58.928338 Z-2.354580
G01 X36.715135 Y-58.928338 Z-2.354580
G01 X36.715135 Y-58.928338 Z-2.354580
G01 X36.628352 Y-59.137917 Z-3.402471
G01 X36.837930 Y-59.051105 Z-2.354580
G01 X36.837930 Y-59.051105 Z-2.354580
G01 X36.628267 Y-59.138001 Z-3.402894
G01 X36.628267 Y-59.138001 Z-3.402894
G01 X36.837902 Y-59.138058 Z-2.354580
G01 X36.837930 Y-59.224898 Z-2.354580
G01 X36.837930 Y-59.224898 Z-2.354580
G01 X36.628352 Y-59.138086 Z-3.402471
G01 X36.715135 Y-59.347664 Z-2.354580
G01 X36.715135 Y-59.347664 Z-2.354580
G01 X36.628267 Y-59.138001 Z-3.402894
G00 Z2.0

G00 Z2.0
G00 X36.628267 Y-56.600682

G01 Z-3.402894 F200.0(Penetrate)
G01 X36.628267 Y-56.600682 Z-3.402894 F100.000000
G01 X36.628183 Y-56.810345 Z-2.354580
G01 X36.541371 Y-56.810345 Z-2.354580
G01 X36.541371 Y-56.810345 Z-2.354580
G01 X36.628155 Y-56.600767 Z-3.402471
G01 X36.418605 Y-56.687579 Z-2.354580
G01 X36.418605 Y-56.687579 Z-2.354580
G01 X36.628239 Y-56.600682 Z-3.402894
G01 X36.628239 Y-56.600682 Z-3.402894
G01 X36.418605 Y-56.600626 Z-2.354580
G01 X36.418605 Y-56.513786 Z-2.354580
G01 X36.418605 Y-56.513786 Z-2.354580
G01 X36.628155 Y-56.600598 Z-3.402471
G01 X36.541371 Y-56.391020 Z-2.354580
G01 X36.541371 Y-56.391020 Z-2.354580
G01 X36.628267 Y-56.600682 Z-3.402894
G01 X36.628267 Y-56.600682 Z-3.402894
G01 X36.628324 Y-56.391020 Z-2.354580
G01 X36.715135 Y-56.391020 Z-2.354580
G01 X36.715135 Y-56.391020 Z-2.354580
G01 X36.628352 Y-56.600598 Z-3.402471
G01 X36.837930 Y-56.513786 Z-2.354580
G01 X36.837930 Y-56.513786 Z-2.354580
G01 X36.628267 Y-56.600682 Z-3.402894
G01 X36.628267 Y-56.600682 Z-3.402894
G01 X36.837902 Y-56.600739 Z-2.354580
G01 X36.837930 Y-56.687579 Z-2.354580
G01 X36.837930 Y-56.687579 Z-2.354580
G01 X36.628352 Y-56.600767 Z-3.402471
G01 X36.715135 Y-56.810345 Z-2.354580
G01 X36.715135 Y-56.810345 Z-2.354580
G01 X36.628267 Y-56.600682 Z-3.402894
G00 Z2.0

G00 Z2.0
G00 X36.628267 Y-54.063364

G01 Z-3.402894 F200.0(Penetrate)
G01 X36.628267 Y-54.063364 Z-3.402894 F100.000000
G01 X36.628183 Y-54.273026 Z-2.354580
G01 X36.541371 Y-54.273026 Z-2.354580
G01 X36.541371 Y-54.273026 Z-2.354580
G01 X36.628155 Y-54.063448 Z-3.402471
G01 X36.418605 Y-54.150260 Z-2.354580
G01 X36.418605 Y-54.150260 Z-2.354580
G01 X36.628239 Y-54.063364 Z-3.402894
G01 X36.628239 Y-54.063364 Z-3.402894
G01 X36.418605 Y-54.063307 Z-2.354580
G01 X36.418605 Y-53.976467 Z-2.354580
G01 X36.418605 Y-53.976467 Z-2.354580
G01 X36.628155 Y-54.063279 Z-3.402471
G01 X36.541371 Y-53.853701 Z-2.354580
G01 X36.541371 Y-53.853701 Z-2.354580
G01 X36.628267 Y-54.063364 Z-3.402894
G01 X36.628267 Y-54.063364 Z-3.402894
G01 X36.628324 Y-53.853701 Z-2.354580
G01 X36.715135 Y-53.853701 Z-2.354580
G01 X36.715135 Y-53.853701 Z-2.354580
G01 X36.628352 Y-54.063279 Z-3.402471
G01 X36.837930 Y-53.976467 Z-2.354580
G01 X36.837930 Y-53.976467 Z-2.354580
G01 X36.628267 Y-54.063364 Z-3.402894
G01 X36.628267 Y-54.063364 Z-3.402894
G01 X36.837902 Y-54.063420 Z-2.354580
G01 X36.837930 Y-54.150260 Z-2.354580
G01 X36.837930 Y-54.150260 Z-2.354580
G01 X36.628352 Y-54.063448 Z-3.402471
G01 X36.715135 Y-54.273026 Z-2.354580
G01 X36.715135 Y-54.273026 Z-2.354580
G01 X36.628267 Y-54.063364 Z-3.402894
G00 Z2.0

G00 Z2.0
G00 X36.667807 Y-51.526327

G01 Z-3.600450 F200.0(Penetrate)
G01 X36.576000 Y-51.748125 Z-2.491599 F100.000000
G01 X36.576000 Y-51.748125 Z-2.491599
G01 X36.667750 Y-51.526327 Z-3.600450
G01 X36.446037 Y-51.618275 Z-2.491599
G01 X36.446037 Y-51.618275 Z-2.491599
G01 X36.667750 Y-51.526327 Z-3.600450
G01 X36.445980 Y-51.434492 Z-2.491740
G01 X36.445980 Y-51.434492 Z-2.491740
G01 X36.667750 Y-51.526299 Z-3.600450
G01 X36.575943 Y-51.304528 Z-2.491740
G01 X36.575943 Y-51.304528 Z-2.491740
G01 X36.667750 Y-51.526299 Z-3.600450
G01 X36.759727 Y-51.304585 Z-2.491599
G01 X36.759727 Y-51.304585 Z-2.491599
G01 X36.667807 Y-51.526299 Z-3.600450
G01 X36.889605 Y-51.434520 Z-2.491599
G01 X36.889605 Y-51.434520 Z-2.491599
G01 X36.667807 Y-51.526299 Z-3.600450
G01 X36.837535 Y-51.696055 Z-2.751526
G01 X36.837535 Y-51.696055 Z-2.751526
G01 X36.667807 Y-51.526327 Z-3.600450
G00 Z2.0

G00 Z2.0
G00 X36.628267 Y-48.989262

G01 Z-3.402894 F200.0(Penetrate)
G01 X36.628267 Y-48.989262 Z-3.402894 F100.000000
G01 X36.628183 Y-49.198925 Z-2.354580
G01 X36.541371 Y-49.198925 Z-2.354580
G01 X36.541371 Y-49.198925 Z-2.354580
G01 X36.628155 Y-48.989347 Z-3.402471
G01 X36.418605 Y-49.076158 Z-2.354580
G01 X36.418605 Y-49.076158 Z-2.354580
G01 X36.628239 Y-48.989262 Z-3.402894
G01 X36.628239 Y-48.989262 Z-3.402894
G01 X36.418605 Y-48.989206 Z-2.354580
G01 X36.418605 Y-48.902366 Z-2.354580
G01 X36.418605 Y-48.902366 Z-2.354580
G01 X36.628155 Y-48.989177 Z-3.402471
G01 X36.541371 Y-48.779599 Z-2.354580
G01 X36.541371 Y-48.779599 Z-2.354580
G01 X36.628267 Y-48.989262 Z-3.402894
G01 X36.628267 Y-48.989262 Z-3.402894
G01 X36.628324 Y-48.779599 Z-2.354580
G01 X36.715135 Y-48.779599 Z-2.354580
G01 X36.715135 Y-48.779599 Z-2.354580
G01 X36.628352 Y-48.989177 Z-3.402471
G01 X36.837930 Y-48.902366 Z-2.354580
G01 X36.837930 Y-48.902366 Z-2.354580
G01 X36.628267 Y-48.989262 Z-3.402894
G01 X36.628267 Y-48.989262 Z-3.402894
G01 X36.837902 Y-48.989318 Z-2.354580
G01 X36.837930 Y-49.076158 Z-2.354580
G01 X36.837930 Y-49.076158 Z-2.354580
G01 X36.628352 Y-48.989347 Z-3.402471
G01 X36.715135 Y-49.198925 Z-2.354580
G01 X36.715135 Y-49.198925 Z-2.354580
G01 X36.628267 Y-48.989262 Z-3.402894
G00 Z2.0

G00 Z2.0
G00 X36.628267 Y-46.451943

G01 Z-3.402894 F200.0(Penetrate)
G01 X36.628267 Y-46.451943 Z-3.402894 F100.000000
G01 X36.628183 Y-46.661606 Z-2.354580
G01 X36.541371 Y-46.661606 Z-2.354580
G01 X36.541371 Y-46.661606 Z-2.354580
G01 X36.628155 Y-46.452028 Z-3.402471
G01 X36.418605 Y-46.538839 Z-2.354580
G01 X36.418605 Y-46.538839 Z-2.354580
G01 X36.628239 Y-46.451943 Z-3.402894
G01 X36.628239 Y-46.451943 Z-3.402894
G01 X36.418605 Y-46.451887 Z-2.354580
G01 X36.418605 Y-46.365047 Z-2.354580
G01 X36.418605 Y-46.365047 Z-2.354580
G01 X36.628155 Y-46.451858 Z-3.402471
G01 X36.541371 Y-46.242280 Z-2.354580
G01 X36.541371 Y-46.242280 Z-2.354580
G01 X36.628267 Y-46.451943 Z-3.402894
G01 X36.628267 Y-46.451943 Z-3.402894
G01 X36.628324 Y-46.242280 Z-2.354580
G01 X36.715135 Y-46.242280 Z-2.354580
G01 X36.715135 Y-46.242280 Z-2.354580
G01 X36.628352 Y-46.451858 Z-3.402471
G01 X36.837930 Y-46.365047 Z-2.354580
G01 X36.837930 Y-46.365047 Z-2.354580
G01 X36.628267 Y-46.451943 Z-3.402894
G01 X36.628267 Y-46.451943 Z-3.402894
G01 X36.837902 Y-46.452000 Z-2.354580
G01 X36.837930 Y-46.538839 Z-2.354580
G01 X36.837930 Y-46.538839 Z-2.354580
G01 X36.628352 Y-46.452028 Z-3.402471
G01 X36.715135 Y-46.661606 Z-2.354580
G01 X36.715135 Y-46.661606 Z-2.354580
G01 X36.628267 Y-46.451943 Z-3.402894
G00 Z2.0

G00 Z2.0
G00 X36.628267 Y-43.914878

G01 Z-3.401624 F200.0(Penetrate)
G01 X36.628267 Y-43.914878 Z-3.401624 F100.000000
G01 X36.628183 Y-44.124287 Z-2.354580
G01 X36.541371 Y-44.124287 Z-2.354580
G01 X36.541371 Y-44.124287 Z-2.354580
G01 X36.628013 Y-43.914850 Z-3.401483
G01 X36.418605 Y-44.001521 Z-2.354580
G01 X36.418605 Y-44.001521 Z-2.354580
G01 X36.627759 Y-43.914878 Z-3.400496
G01 X36.467824 Y-43.754576 Z-2.600254
G01 X36.467824 Y-43.754576 Z-2.600254
G01 X36.628267 Y-43.914878 Z-3.401624
G01 X36.628267 Y-43.914878 Z-3.401624
G01 X36.628324 Y-43.754604 Z-2.600254
G01 X36.788683 Y-43.754576 Z-2.600254
G01 X36.788683 Y-43.754576 Z-2.600254
G01 X36.628747 Y-43.914878 Z-3.400496
G01 X36.837930 Y-44.001521 Z-2.354580
G01 X36.837930 Y-44.001521 Z-2.354580
G01 X36.628493 Y-43.914850 Z-3.401483
G01 X36.715135 Y-44.124287 Z-2.354580
G01 X36.715135 Y-44.124287 Z-2.354580
G01 X36.628267 Y-43.914878 Z-3.401624
G00 Z2.0

G00 Z2.0
G00 X36.628267 Y-41.377588

G01 Z-3.401483 F200.0(Penetrate)
G01 X36.628267 Y-41.377588 Z-3.401483 F100.000000
G01 X36.628183 Y-41.537833 Z-2.600254
G01 X36.467824 Y-41.537862 Z-2.600254
G01 X36.467824 Y-41.537862 Z-2.600254
G01 X36.627731 Y-41.377588 Z-3.400354
G01 X36.418605 Y-41.290945 Z-2.354580
G01 X36.418605 Y-41.290945 Z-2.354580
G01 X36.628013 Y-41.377616 Z-3.401342
G01 X36.541371 Y-41.168179 Z-2.354580
G01 X36.541371 Y-41.168179 Z-2.354580
G01 X36.628267 Y-41.377559 Z-3.401483
G01 X36.628267 Y-41.377559 Z-3.401483
G01 X36.628324 Y-41.168179 Z-2.354580
G01 X36.715135 Y-41.168179 Z-2.354580
G01 X36.715135 Y-41.168179 Z-2.354580
G01 X36.628493 Y-41.377616 Z-3.401342
G01 X36.837930 Y-41.290945 Z-2.354580
G01 X36.837930 Y-41.290945 Z-2.354580
G01 X36.628775 Y-41.377588 Z-3.400354
G01 X36.788683 Y-41.537862 Z-2.600254
G01 X36.788683 Y-41.537862 Z-2.600254
G01 X36.628267 Y-41.377588 Z-3.401483
G00 Z2.0

G00 Z2.0
G00 X36.628267 Y-38.840523

G01 Z-3.402894 F200.0(Penetrate)
G01 X36.628267 Y-38.840523 Z-3.402894 F100.000000
G01 X36.628183 Y-39.050186 Z-2.354580
G01 X36.541371 Y-39.050186 Z-2.354580
G01 X36.541371 Y-39.050186 Z-2.354580
G01 X36.628155 Y-38.840607 Z-3.402471
G01 X36.418605 Y-38.927419 Z-2.354580
G01 X36.418605 Y-38.927419 Z-2.354580
G01 X36.628239 Y-38.840523 Z-3.402894
G01 X36.628239 Y-38.840523 Z-3.402894
G01 X36.418605 Y-38.840466 Z-2.354580
G01 X36.418605 Y-38.753627 Z-2.354580
G01 X36.418605 Y-38.753627 Z-2.354580
G01 X36.628155 Y-38.840438 Z-3.402471
G01 X36.541371 Y-38.630860 Z-2.354580
G01 X36.541371 Y-38.630860 Z-2.354580
G01 X36.628267 Y-38.840523 Z-3.402894
G01 X36.628267 Y-38.840523 Z-3.402894
G01 X36.628324 Y-38.630860 Z-2.354580
G01 X36.715135 Y-38.630860 Z-2.354580
G01 X36.715135 Y-38.630860 Z-2.354580
G01 X36.628352 Y-38.840438 Z-3.402471
G01 X36.837930 Y-38.753627 Z-2.354580
G01 X36.837930 Y-38.753627 Z-2.354580
G01 X36.628267 Y-38.840523 Z-3.402894
G01 X36.628267 Y-38.840523 Z-3.402894
G01 X36.837902 Y-38.840579 Z-2.354580
G01 X36.837930 Y-38.927419 Z-2.354580
G01 X36.837930 Y-38.927419 Z-2.354580
G01 X36.628352 Y-38.840607 Z-3.402471
G01 X36.715135 Y-39.050186 Z-2.354580
G01 X36.715135 Y-39.050186 Z-2.354580
G01 X36.628267 Y-38.840523 Z-3.402894
G00 Z2.0

G00 Z2.0
G00 X36.628267 Y-36.303204

G01 Z-3.402894 F200.0(Penetrate)
G01 X36.628267 Y-36.303204 Z-3.402894 F100.000000
G01 X36.628183 Y-36.512867 Z-2.354580
G01 X36.541371 Y-36.512867 Z-2.354580
G01 X36.541371 Y-36.512867 Z-2.354580
G01 X36.628155 Y-36.303289 Z-3.402471
G01 X36.418605 Y-36.390100 Z-2.354580
G01 X36.418605 Y-36.390100 Z-2.354580
G01 X36.628239 Y-36.303204 Z-3.402894
G01 X36.628239 Y-36.303204 Z-3.402894
G01 X36.418605 Y-36.303147 Z-2.354580
G01 X36.418605 Y-36.216308 Z-2.354580
G01 X36.418605 Y-36.216308 Z-2.354580
G01 X36.628155 Y-36.303119 Z-3.402471
G01 X36.541371 Y-36.093541 Z-2.354580
G01 X36.541371 Y-36.093541 Z-2.354580
G01 X36.628267 Y-36.303204 Z-3.402894
G01 X36.628267 Y-36.303204 Z-3.402894
G01 X36.628324 Y-36.093541 Z-2.354580
G01 X36.715135 Y-36.093541 Z-2.354580
G01 X36.715135 Y-36.093541 Z-2.354580
G01 X36.628352 Y-36.303119 Z-3.402471
G01 X36.837930 Y-36.216308 Z-2.354580
G01 X36.837930 Y-36.216308 Z-2.354580
G01 X36.628267 Y-36.303204 Z-3.402894
G01 X36.628267 Y-36.303204 Z-3.402894
G01 X36.837902 Y-36.303260 Z-2.354580
G01 X36.837930 Y-36.390100 Z-2.354580
G01 X36.837930 Y-36.390100 Z-2.354580
G01 X36.628352 Y-36.303289 Z-3.402471
G01 X36.715135 Y-36.512867 Z-2.354580
G01 X36.715135 Y-36.512867 Z-2.354580
G01 X36.628267 Y-36.303204 Z-3.402894
G00 Z2.0

G00 Z2.0
G00 X36.628267 Y-33.766167

G01 Z-3.401483 F200.0(Penetrate)
G01 X36.628267 Y-33.766167 Z-3.401483 F100.000000
G01 X36.628183 Y-33.975548 Z-2.354580
G01 X36.541371 Y-33.975548 Z-2.354580
G01 X36.541371 Y-33.975548 Z-2.354580
G01 X36.628013 Y-33.766111 Z-3.401342
G01 X36.418605 Y-33.852781 Z-2.354580
G01 X36.418605 Y-33.852781 Z-2.354580
G01 X36.627731 Y-33.766139 Z-3.400354
G01 X36.467824 Y-33.605865 Z-2.600254
G01 X36.467824 Y-33.605865 Z-2.600254
G01 X36.628267 Y-33.766167 Z-3.401483
G01 X36.628267 Y-33.766167 Z-3.401483
G01 X36.628324 Y-33.605893 Z-2.600254
G01 X36.788683 Y-33.605865 Z-2.600254
G01 X36.788683 Y-33.605865 Z-2.600254
G01 X36.628775 Y-33.766139 Z-3.400354
G01 X36.837930 Y-33.852781 Z-2.354580
G01 X36.837930 Y-33.852781 Z-2.354580
G01 X36.628493 Y-33.766111 Z-3.401342
G01 X36.715135 Y-33.975548 Z-2.354580
G01 X36.715135 Y-33.975548 Z-2.354580
G01 X36.628267 Y-33.766167 Z-3.401483
G00 Z2.0

G00 Z2.0
G00 X36.667807 Y-31.228848

G01 Z-3.600450 F200.0(Penetrate)
G01 X36.576000 Y-31.450647 Z-2.491599 F100.000000
G01 X36.576000 Y-31.450647 Z-2.491599
G01 X36.667750 Y-31.228848 Z-3.600450
G01 X36.446037 Y-31.320796 Z-2.491599
G01 X36.446037 Y-31.320796 Z-2.491599
G01 X36.667750 Y-31.228848 Z-3.600450
G01 X36.445980 Y-31.137013 Z-2.491740
G01 X36.445980 Y-31.137013 Z-2.491740
G01 X36.667750 Y-31.228820 Z-3.600450
G01 X36.575943 Y-31.007050 Z-2.491740
G01 X36.575943 Y-31.007050 Z-2.491740
G01 X36.667750 Y-31.228820 Z-3.600450
G01 X36.759727 Y-31.007106 Z-2.491599
G01 X36.759727 Y-31.007106 Z-2.491599
G01 X36.667807 Y-31.228820 Z-3.600450
G01 X36.889605 Y-31.137041 Z-2.491599
G01 X36.889605 Y-31.137041 Z-2.491599
G01 X36.667807 Y-31.228820 Z-3.600450
G01 X36.837535 Y-31.398577 Z-2.751526
G01 X36.837535 Y-31.398577 Z-2.751526
G01 X36.667807 Y-31.228848 Z-3.600450
G00 Z2.0

G00 Z2.0
G00 X40.038895 Y-35.563189

G01 Z-3.402894 F200.0(Penetrate)
G01 X40.038895 Y-35.563189 Z-3.402894 F100.000000
G01 X40.038838 Y-35.772852 Z-2.354580
G01 X39.952027 Y-35.772852 Z-2.354580
G01 X39.952027 Y-35.772852 Z-2.354580
G01 X40.038810 Y-35.563274 Z-3.402471
G01 X39.829232 Y-35.650085 Z-2.354580
G01 X39.829232 Y-35.650085 Z-2.354580
G01 X40.038895 Y-35.563189 Z-3.402894
G01 X40.038895 Y-35.563189 Z-3.402894
G01 X39.829260 Y-35.563133 Z-2.354580
G01 X39.829232 Y-35.476293 Z-2.354580
G01 X39.829232 Y-35.476293 Z-2.354580
G01 X40.038810 Y-35.563104 Z-3.402471
G01 X39.952027 Y-35.353526 Z-2.354580
G01 X39.952027 Y-35.353526 Z-2.354580
G01 X40.038895 Y-35.563189 Z-3.402894
G01 X40.038895 Y-35.563189 Z-3.402894
G01 X40.038951 Y-35.353526 Z-2.354580
G01 X40.125791 Y-35.353526 Z-2.354580
G01 X40.125791 Y-35.353526 Z-2.354580
G01 X40.039008 Y-35.563104 Z-3.402471
G01 X40.248558 Y-35.476293 Z-2.354580
G01 X40.248558 Y-35.476293 Z-2.354580
G01 X40.038895 Y-35.563189 Z-3.402894
G01 X40.038895 Y-35.563189 Z-3.402894
G01 X40.248558 Y-35.563245 Z-2.354580
G01 X40.248558 Y-35.650085 Z-2.354580
G01 X40.248558 Y-35.650085 Z-2.354580
G01 X40.039008 Y-35.563274 Z-3.402471
G01 X40.125791 Y-35.772852 Z-2.354580
G01 X40.125791 Y-35.772852 Z-2.354580
G01 X40.038895 Y-35.563189 Z-3.402894
G00 Z2.0

G00 Z2.0
G00 X41.279149 Y-38.715470

G01 Z-3.402894 F200.0(Penetrate)
G01 X41.279149 Y-38.715470 Z-3.402894 F100.000000
G01 X41.279064 Y-38.925133 Z-2.354580
G01 X41.192252 Y-38.925133 Z-2.354580
G01 X41.192252 Y-38.925133 Z-2.354580
G01 X41.279036 Y-38.715555 Z-3.402471
G01 X41.069486 Y-38.802366 Z-2.354580
G01 X41.069486 Y-38.802366 Z-2.354580
G01 X41.279120 Y-38.715470 Z-3.402894
G01 X41.279120 Y-38.715470 Z-3.402894
G01 X41.069486 Y-38.715414 Z-2.354580
G01 X41.069486 Y-38.628574 Z-2.354580
G01 X41.069486 Y-38.628574 Z-2.354580
G01 X41.279036 Y-38.715385 Z-3.402471
G01 X41.192252 Y-38.505807 Z-2.354580
G01 X41.192252 Y-38.505807 Z-2.354580
G01 X41.279149 Y-38.715470 Z-3.402894
G01 X41.279149 Y-38.715470 Z-3.402894
G01 X41.279205 Y-38.505807 Z-2.354580
G01 X41.366017 Y-38.505807 Z-2.354580
G01 X41.366017 Y-38.505807 Z-2.354580
G01 X41.279233 Y-38.715385 Z-3.402471
G01 X41.488783 Y-38.628574 Z-2.354580
G01 X41.488783 Y-38.628574 Z-2.354580
G01 X41.279149 Y-38.715470 Z-3.402894
G01 X41.279149 Y-38.715470 Z-3.402894
G01 X41.488783 Y-38.715527 Z-2.354580
G01 X41.488783 Y-38.802366 Z-2.354580
G01 X41.488783 Y-38.802366 Z-2.354580
G01 X41.279233 Y-38.715555 Z-3.402471
G01 X41.366017 Y-38.925133 Z-2.354580
G01 X41.366017 Y-38.925133 Z-2.354580
G01 X41.279149 Y-38.715470 Z-3.402894
G00 Z2.0

G00 Z2.0
G00 X40.038895 Y-43.779750

G01 Z-3.402894 F200.0(Penetrate)
G01 X40.038895 Y-43.779750 Z-3.402894 F100.000000
G01 X40.038838 Y-43.989413 Z-2.354580
G01 X39.952027 Y-43.989413 Z-2.354580
G01 X39.952027 Y-43.989413 Z-2.354580
G01 X40.038810 Y-43.779835 Z-3.402471
G01 X39.829232 Y-43.866647 Z-2.354580
G01 X39.829232 Y-43.866647 Z-2.354580
G01 X40.038895 Y-43.779750 Z-3.402894
G01 X40.038895 Y-43.779750 Z-3.402894
G01 X39.829260 Y-43.779694 Z-2.354580
G01 X39.829232 Y-43.692854 Z-2.354580
G01 X39.829232 Y-43.692854 Z-2.354580
G01 X40.038810 Y-43.779666 Z-3.402471
G01 X39.952027 Y-43.570087 Z-2.354580
G01 X39.952027 Y-43.570087 Z-2.354580
G01 X40.038895 Y-43.779750 Z-3.402894
G01 X40.038895 Y-43.779750 Z-3.402894
G01 X40.038951 Y-43.570087 Z-2.354580
G01 X40.125791 Y-43.570087 Z-2.354580
G01 X40.125791 Y-43.570087 Z-2.354580
G01 X40.039008 Y-43.779666 Z-3.402471
G01 X40.248558 Y-43.692854 Z-2.354580
G01 X40.248558 Y-43.692854 Z-2.354580
G01 X40.038895 Y-43.779750 Z-3.402894
G01 X40.038895 Y-43.779750 Z-3.402894
G01 X40.248558 Y-43.779807 Z-2.354580
G01 X40.248558 Y-43.866647 Z-2.354580
G01 X40.248558 Y-43.866647 Z-2.354580
G01 X40.039008 Y-43.779835 Z-3.402471
G01 X40.125791 Y-43.989413 Z-2.354580
G01 X40.125791 Y-43.989413 Z-2.354580
G01 X40.038895 Y-43.779750 Z-3.402894
G00 Z2.0

G00 Z2.0
G00 X47.906121 Y-38.715470

G01 Z-3.402894 F200.0(Penetrate)
G01 X47.906121 Y-38.715470 Z-3.402894 F100.000000
G01 X47.906065 Y-38.925133 Z-2.354580
G01 X47.819225 Y-38.925133 Z-2.354580
G01 X47.819225 Y-38.925133 Z-2.354580
G01 X47.906037 Y-38.715555 Z-3.402471
G01 X47.696458 Y-38.802366 Z-2.354580
G01 X47.696458 Y-38.802366 Z-2.354580
G01 X47.906121 Y-38.715470 Z-3.402894
G01 X47.906121 Y-38.715470 Z-3.402894
G01 X47.696458 Y-38.715414 Z-2.354580
G01 X47.696458 Y-38.628574 Z-2.354580
G01 X47.696458 Y-38.628574 Z-2.354580
G01 X47.906037 Y-38.715385 Z-3.402471
G01 X47.819225 Y-38.505807 Z-2.354580
G01 X47.819225 Y-38.505807 Z-2.354580
G01 X47.906121 Y-38.715470 Z-3.402894
G01 X47.906121 Y-38.715470 Z-3.402894
G01 X47.906178 Y-38.505807 Z-2.354580
G01 X47.993018 Y-38.505807 Z-2.354580
G01 X47.993018 Y-38.505807 Z-2.354580
G01 X47.906206 Y-38.715385 Z-3.402471
G01 X48.115784 Y-38.628574 Z-2.354580
G01 X48.115784 Y-38.628574 Z-2.354580
G01 X47.906121 Y-38.715470 Z-3.402894
G01 X47.906121 Y-38.715470 Z-3.402894
G01 X48.115784 Y-38.715527 Z-2.354580
G01 X48.115784 Y-38.802366 Z-2.354580
G01 X48.115784 Y-38.802366 Z-2.354580
G01 X47.906206 Y-38.715555 Z-3.402471
G01 X47.993018 Y-38.925133 Z-2.354580
G01 X47.993018 Y-38.925133 Z-2.354580
G01 X47.906121 Y-38.715470 Z-3.402894
G00 Z2.0

G00 Z2.0
G00 X58.054861 Y-31.138142

G01 Z-3.402894 F200.0(Penetrate)
G01 X58.054861 Y-31.138142 Z-3.402894 F100.000000
G01 X58.054776 Y-31.347805 Z-2.354580
G01 X57.967964 Y-31.347805 Z-2.354580
G01 X57.967964 Y-31.347805 Z-2.354580
G01 X58.054748 Y-31.138227 Z-3.402471
G01 X57.845198 Y-31.225038 Z-2.354580
G01 X57.845198 Y-31.225038 Z-2.354580
G01 X58.054861 Y-31.138142 Z-3.402894
G01 X58.054861 Y-31.138142 Z-3.402894
G01 X57.845198 Y-31.138086 Z-2.354580
G01 X57.845198 Y-31.051246 Z-2.354580
G01 X57.845198 Y-31.051246 Z-2.354580
G01 X58.054748 Y-31.138057 Z-3.402471
G01 X57.967964 Y-30.928479 Z-2.354580
G01 X57.967964 Y-30.928479 Z-2.354580
G01 X58.054861 Y-31.138142 Z-3.402894
G01 X58.054861 Y-31.138142 Z-3.402894
G01 X58.054917 Y-30.928479 Z-2.354580
G01 X58.141729 Y-30.928479 Z-2.354580
G01 X58.141729 Y-30.928479 Z-2.354580
G01 X58.054945 Y-31.138057 Z-3.402471
G01 X58.264524 Y-31.051246 Z-2.354580
G01 X58.264524 Y-31.051246 Z-2.354580
G01 X58.054861 Y-31.138142 Z-3.402894
G01 X58.054861 Y-31.138142 Z-3.402894
G01 X58.264495 Y-31.138199 Z-2.354580
G01 X58.264524 Y-31.225038 Z-2.354580
G01 X58.264524 Y-31.225038 Z-2.354580
G01 X58.054945 Y-31.138227 Z-3.402471
G01 X58.141729 Y-31.347805 Z-2.354580
G01 X58.141729 Y-31.347805 Z-2.354580
G01 X58.054861 Y-31.138142 Z-3.402894
G00 Z2.0

G00 Z2.0
G00 X58.054861 Y-47.176972

G01 Z-3.402894 F200.0(Penetrate)
G01 X58.054861 Y-47.176972 Z-3.402894 F100.000000
G01 X58.054776 Y-47.386635 Z-2.354580
G01 X57.967964 Y-47.386635 Z-2.354580
G01 X57.967964 Y-47.386635 Z-2.354580
G01 X58.054748 Y-47.177057 Z-3.402471
G01 X57.845198 Y-47.263868 Z-2.354580
G01 X57.845198 Y-47.263868 Z-2.354580
G01 X58.054861 Y-47.176972 Z-3.402894
G01 X58.054861 Y-47.176972 Z-3.402894
G01 X57.845198 Y-47.176916 Z-2.354580
G01 X57.845198 Y-47.090076 Z-2.354580
G01 X57.845198 Y-47.090076 Z-2.354580
G01 X58.054748 Y-47.176887 Z-3.402471
G01 X57.967964 Y-46.967309 Z-2.354580
G01 X57.967964 Y-46.967309 Z-2.354580
G01 X58.054861 Y-47.176972 Z-3.402894
G01 X58.054861 Y-47.176972 Z-3.402894
G01 X58.054917 Y-46.967309 Z-2.354580
G01 X58.141729 Y-46.967309 Z-2.354580
G01 X58.141729 Y-46.967309 Z-2.354580
G01 X58.054945 Y-47.176887 Z-3.402471
G01 X58.264524 Y-47.090076 Z-2.354580
G01 X58.264524 Y-47.090076 Z-2.354580
G01 X58.054861 Y-47.176972 Z-3.402894
G01 X58.054861 Y-47.176972 Z-3.402894
G01 X58.264495 Y-47.177028 Z-2.354580
G01 X58.264524 Y-47.263868 Z-2.354580
G01 X58.264524 Y-47.263868 Z-2.354580
G01 X58.054945 Y-47.177057 Z-3.402471
G01 X58.141729 Y-47.386635 Z-2.354580
G01 X58.141729 Y-47.386635 Z-2.354580
G01 X58.054861 Y-47.176972 Z-3.402894
G00 Z2.0

G00 Z2.0
G00 X57.135296 Y-13.647505

G01 Z-3.600450 F200.0(Penetrate)
G01 X57.043489 Y-13.869303 Z-2.491599 F100.000000
G01 X57.043489 Y-13.869303 Z-2.491599
G01 X57.135240 Y-13.647505 Z-3.600450
G01 X56.913526 Y-13.739424 Z-2.491599
G01 X56.913526 Y-13.739424 Z-2.491599
G01 X57.135240 Y-13.647505 Z-3.600450
G01 X56.913469 Y-13.555670 Z-2.491740
G01 X56.913469 Y-13.555670 Z-2.491740
G01 X57.135240 Y-13.647476 Z-3.600450
G01 X57.043433 Y-13.425706 Z-2.491740
G01 X57.043433 Y-13.425706 Z-2.491740
G01 X57.135240 Y-13.647476 Z-3.600450
G01 X57.227216 Y-13.425734 Z-2.491599
G01 X57.227216 Y-13.425734 Z-2.491599
G01 X57.135296 Y-13.647476 Z-3.600450
G01 X57.357094 Y-13.555698 Z-2.491599
G01 X57.357094 Y-13.555698 Z-2.491599
G01 X57.135296 Y-13.647476 Z-3.600450
G01 X57.305024 Y-13.817233 Z-2.751526
G01 X57.305024 Y-13.817233 Z-2.751526
G01 X57.135296 Y-13.647505 Z-3.600450
G00 Z2.0

G00 Z2.0
G00 X54.599529 Y-13.647505

G01 Z-3.600450 F200.0(Penetrate)
G01 X54.507722 Y-13.869303 Z-2.491599 F100.000000
G01 X54.507722 Y-13.869303 Z-2.491599
G01 X54.599473 Y-13.647505 Z-3.600450
G01 X54.377759 Y-13.739424 Z-2.491599
G01 X54.377759 Y-13.739424 Z-2.491599
G01 X54.599473 Y-13.647505 Z-3.600450
G01 X54.377703 Y-13.555670 Z-2.491740
G01 X54.377703 Y-13.555670 Z-2.491740
G01 X54.599473 Y-13.647476 Z-3.600450
G01 X54.507666 Y-13.425706 Z-2.491740
G01 X54.507666 Y-13.425706 Z-2.491740
G01 X54.599473 Y-13.647476 Z-3.600450
G01 X54.691449 Y-13.425763 Z-2.491599
G01 X54.691449 Y-13.425763 Z-2.491599
G01 X54.599529 Y-13.647476 Z-3.600450
G01 X54.821328 Y-13.555698 Z-2.491599
G01 X54.821328 Y-13.555698 Z-2.491599
G01 X54.599529 Y-13.647476 Z-3.600450
G01 X54.769258 Y-13.817233 Z-2.751526
G01 X54.769258 Y-13.817233 Z-2.751526
G01 X54.599529 Y-13.647505 Z-3.600450
G00 Z2.0

G00 Z2.0
G00 X54.559990 Y-11.110412

G01 Z-3.402894 F200.0(Penetrate)
G01 X54.559990 Y-11.110412 Z-3.402894 F100.000000
G01 X54.559905 Y-11.320074 Z-2.354580
G01 X54.473094 Y-11.320074 Z-2.354580
G01 X54.473094 Y-11.320074 Z-2.354580
G01 X54.559877 Y-11.110496 Z-3.402471
G01 X54.350327 Y-11.197308 Z-2.354580
G01 X54.350327 Y-11.197308 Z-2.354580
G01 X54.559962 Y-11.110412 Z-3.402894
G01 X54.559962 Y-11.110412 Z-3.402894
G01 X54.350327 Y-11.110355 Z-2.354580
G01 X54.350299 Y-11.023544 Z-2.354580
G01 X54.350299 Y-11.023544 Z-2.354580
G01 X54.559877 Y-11.110327 Z-3.402471
G01 X54.473094 Y-10.900749 Z-2.354580
G01 X54.473094 Y-10.900749 Z-2.354580
G01 X54.559990 Y-11.110412 Z-3.402894
G01 X54.559990 Y-11.110412 Z-3.402894
G01 X54.560046 Y-10.900749 Z-2.354580
G01 X54.646858 Y-10.900749 Z-2.354580
G01 X54.646858 Y-10.900749 Z-2.354580
G01 X54.560075 Y-11.110327 Z-3.402471
G01 X54.769653 Y-11.023544 Z-2.354580
G01 X54.769653 Y-11.023544 Z-2.354580
G01 X54.559990 Y-11.110412 Z-3.402894
G01 X54.559990 Y-11.110412 Z-3.402894
G01 X54.769625 Y-11.110496 Z-2.354580
G01 X54.769625 Y-11.197308 Z-2.354580
G01 X54.769625 Y-11.197308 Z-2.354580
G01 X54.560075 Y-11.110496 Z-3.402471
G01 X54.646858 Y-11.320074 Z-2.354580
G01 X54.646858 Y-11.320074 Z-2.354580
G01 X54.559990 Y-11.110412 Z-3.402894
G00 Z2.0

G00 Z2.0
G00 X57.095728 Y-11.110412

G01 Z-3.402894 F200.0(Penetrate)
G01 X57.095728 Y-11.110412 Z-3.402894 F100.000000
G01 X57.095672 Y-11.320074 Z-2.354580
G01 X57.008860 Y-11.320074 Z-2.354580
G01 X57.008860 Y-11.320074 Z-2.354580
G01 X57.095644 Y-11.110496 Z-3.402471
G01 X56.886094 Y-11.197308 Z-2.354580
G01 X56.886094 Y-11.197308 Z-2.354580
G01 X57.095728 Y-11.110412 Z-3.402894
G01 X57.095728 Y-11.110412 Z-3.402894
G01 X56.886094 Y-11.110355 Z-2.354580
G01 X56.886066 Y-11.023544 Z-2.354580
G01 X56.886066 Y-11.023544 Z-2.354580
G01 X57.095644 Y-11.110327 Z-3.402471
G01 X57.008860 Y-10.900749 Z-2.354580
G01 X57.008860 Y-10.900749 Z-2.354580
G01 X57.095728 Y-11.110412 Z-3.402894
G01 X57.095728 Y-11.110412 Z-3.402894
G01 X57.095813 Y-10.900749 Z-2.354580
G01 X57.182625 Y-10.900749 Z-2.354580
G01 X57.182625 Y-10.900749 Z-2.354580
G01 X57.095841 Y-11.110327 Z-3.402471
G01 X57.305391 Y-11.023544 Z-2.354580
G01 X57.305391 Y-11.023544 Z-2.354580
G01 X57.095728 Y-11.110412 Z-3.402894
G01 X57.095728 Y-11.110412 Z-3.402894
G01 X57.305391 Y-11.110496 Z-2.354580
G01 X57.305391 Y-11.197308 Z-2.354580
G01 X57.305391 Y-11.197308 Z-2.354580
G01 X57.095841 Y-11.110496 Z-3.402471
G01 X57.182625 Y-11.320074 Z-2.354580
G01 X57.182625 Y-11.320074 Z-2.354580
G01 X57.095728 Y-11.110412 Z-3.402894
G00 Z2.0

G00 Z2.0
G00 X57.095728 Y-8.573121

G01 Z-3.402894 F200.0(Penetrate)
G01 X57.095728 Y-8.573121 Z-3.402894 F100.000000
G01 X57.095672 Y-8.782784 Z-2.354580
G01 X57.008860 Y-8.782784 Z-2.354580
G01 X57.008860 Y-8.782784 Z-2.354580
G01 X57.095644 Y-8.573206 Z-3.402471
G01 X56.886066 Y-8.659989 Z-2.354580
G01 X56.886066 Y-8.659989 Z-2.354580
G01 X57.095728 Y-8.573121 Z-3.402894
G01 X57.095728 Y-8.573121 Z-3.402894
G01 X56.886094 Y-8.573036 Z-2.354580
G01 X56.886094 Y-8.486225 Z-2.354580
G01 X56.886094 Y-8.486225 Z-2.354580
G01 X57.095644 Y-8.573036 Z-3.402471
G01 X57.008860 Y-8.363458 Z-2.354580
G01 X57.008860 Y-8.363458 Z-2.354580
G01 X57.095728 Y-8.573121 Z-3.402894
G01 X57.095728 Y-8.573121 Z-3.402894
G01 X57.095813 Y-8.363458 Z-2.354580
G01 X57.182625 Y-8.363458 Z-2.354580
G01 X57.182625 Y-8.363458 Z-2.354580
G01 X57.095841 Y-8.573036 Z-3.402471
G01 X57.305391 Y-8.486225 Z-2.354580
G01 X57.305391 Y-8.486225 Z-2.354580
G01 X57.095728 Y-8.573121 Z-3.402894
G01 X57.095728 Y-8.573121 Z-3.402894
G01 X57.305391 Y-8.573177 Z-2.354580
G01 X57.305391 Y-8.659989 Z-2.354580
G01 X57.305391 Y-8.659989 Z-2.354580
G01 X57.095841 Y-8.573206 Z-3.402471
G01 X57.182625 Y-8.782784 Z-2.354580
G01 X57.182625 Y-8.782784 Z-2.354580
G01 X57.095728 Y-8.573121 Z-3.402894
G00 Z2.0

G00 Z2.0
G00 X54.559990 Y-8.573121

G01 Z-3.402894 F200.0(Penetrate)
G01 X54.559990 Y-8.573121 Z-3.402894 F100.000000
G01 X54.559905 Y-8.782784 Z-2.354580
G01 X54.473094 Y-8.782784 Z-2.354580
G01 X54.473094 Y-8.782784 Z-2.354580
G01 X54.559877 Y-8.573206 Z-3.402471
G01 X54.350299 Y-8.659989 Z-2.354580
G01 X54.350299 Y-8.659989 Z-2.354580
G01 X54.559962 Y-8.573121 Z-3.402894
G01 X54.559962 Y-8.573121 Z-3.402894
G01 X54.350327 Y-8.573036 Z-2.354580
G01 X54.350327 Y-8.486225 Z-2.354580
G01 X54.350327 Y-8.486225 Z-2.354580
G01 X54.559877 Y-8.573036 Z-3.402471
G01 X54.473094 Y-8.363458 Z-2.354580
G01 X54.473094 Y-8.363458 Z-2.354580
G01 X54.559990 Y-8.573121 Z-3.402894
G01 X54.559990 Y-8.573121 Z-3.402894
G01 X54.560046 Y-8.363458 Z-2.354580
G01 X54.646858 Y-8.363458 Z-2.354580
G01 X54.646858 Y-8.363458 Z-2.354580
G01 X54.560075 Y-8.573036 Z-3.402471
G01 X54.769625 Y-8.486225 Z-2.354580
G01 X54.769625 Y-8.486225 Z-2.354580
G01 X54.559990 Y-8.573121 Z-3.402894
G01 X54.559990 Y-8.573121 Z-3.402894
G01 X54.769625 Y-8.573177 Z-2.354580
G01 X54.769653 Y-8.659989 Z-2.354580
G01 X54.769653 Y-8.659989 Z-2.354580
G01 X54.560075 Y-8.573206 Z-3.402471
G01 X54.646858 Y-8.782784 Z-2.354580
G01 X54.646858 Y-8.782784 Z-2.354580
G01 X54.559990 Y-8.573121 Z-3.402894
G00 Z2.0

G00 Z2.0
G00 X54.559990 Y-6.036056

G01 Z-3.401483 F200.0(Penetrate)
G01 X54.559990 Y-6.036056 Z-3.401483 F100.000000
G01 X54.559905 Y-6.245437 Z-2.354580
G01 X54.473094 Y-6.245437 Z-2.354580
G01 X54.473094 Y-6.245437 Z-2.354580
G01 X54.559736 Y-6.036000 Z-3.401342
G01 X54.350327 Y-6.122670 Z-2.354580
G01 X54.350327 Y-6.122670 Z-2.354580
G01 X54.559454 Y-6.036028 Z-3.400354
G01 X54.399547 Y-5.875754 Z-2.600254
G01 X54.399547 Y-5.875754 Z-2.600254
G01 X54.559990 Y-6.036028 Z-3.401483
G01 X54.559990 Y-6.036028 Z-3.401483
G01 X54.560046 Y-5.875782 Z-2.600254
G01 X54.720405 Y-5.875754 Z-2.600254
G01 X54.720405 Y-5.875754 Z-2.600254
G01 X54.560498 Y-6.036028 Z-3.400354
G01 X54.769625 Y-6.122670 Z-2.354580
G01 X54.769625 Y-6.122670 Z-2.354580
G01 X54.560216 Y-6.036000 Z-3.401342
G01 X54.646858 Y-6.245437 Z-2.354580
G01 X54.646858 Y-6.245437 Z-2.354580
G01 X54.559990 Y-6.036056 Z-3.401483
G00 Z2.0

G00 Z2.0
G00 X57.095728 Y-6.036056

G01 Z-3.401483 F200.0(Penetrate)
G01 X57.095728 Y-6.036056 Z-3.401483 F100.000000
G01 X57.095672 Y-6.245437 Z-2.354580
G01 X57.008860 Y-6.245437 Z-2.354580
G01 X57.008860 Y-6.245437 Z-2.354580
G01 X57.095503 Y-6.036000 Z-3.401342
G01 X56.886094 Y-6.122670 Z-2.354580
G01 X56.886094 Y-6.122670 Z-2.354580
G01 X57.095220 Y-6.036028 Z-3.400354
G01 X56.935313 Y-5.875754 Z-2.600254
G01 X56.935313 Y-5.875754 Z-2.600254
G01 X57.095728 Y-6.036028 Z-3.401483
G01 X57.095728 Y-6.036028 Z-3.401483
G01 X57.095813 Y-5.875782 Z-2.600254
G01 X57.256172 Y-5.875754 Z-2.600254
G01 X57.256172 Y-5.875754 Z-2.600254
G01 X57.096265 Y-6.036028 Z-3.400354
G01 X57.305391 Y-6.122670 Z-2.354580
G01 X57.305391 Y-6.122670 Z-2.354580
G01 X57.095982 Y-6.036000 Z-3.401342
G01 X57.182625 Y-6.245437 Z-2.354580
G01 X57.182625 Y-6.245437 Z-2.354580
G01 X57.095728 Y-6.036056 Z-3.401483
G00 Z2.0

G00 Z2.0
G00 X57.095728 Y-3.498737

G01 Z-3.401624 F200.0(Penetrate)
G01 X57.095728 Y-3.498737 Z-3.401624 F100.000000
G01 X57.095672 Y-3.659011 Z-2.600254
G01 X56.935313 Y-3.659039 Z-2.600254
G01 X56.935313 Y-3.659039 Z-2.600254
G01 X57.095249 Y-3.498737 Z-3.400496
G01 X56.886066 Y-3.412123 Z-2.354580
G01 X56.886066 Y-3.412123 Z-2.354580
G01 X57.095503 Y-3.498765 Z-3.401483
G01 X57.008860 Y-3.289328 Z-2.354580
G01 X57.008860 Y-3.289328 Z-2.354580
G01 X57.095728 Y-3.498737 Z-3.401624
G01 X57.095728 Y-3.498737 Z-3.401624
G01 X57.095813 Y-3.289356 Z-2.354580
G01 X57.182625 Y-3.289328 Z-2.354580
G01 X57.182625 Y-3.289328 Z-2.354580
G01 X57.095982 Y-3.498765 Z-3.401483
G01 X57.305391 Y-3.412123 Z-2.354580
G01 X57.305391 Y-3.412123 Z-2.354580
G01 X57.096236 Y-3.498737 Z-3.400496
G01 X57.256172 Y-3.659039 Z-2.600254
G01 X57.256172 Y-3.659039 Z-2.600254
G01 X57.095728 Y-3.498737 Z-3.401624
G00 Z2.0

G00 Z2.0
G00 X54.559990 Y-3.498737

G01 Z-3.401624 F200.0(Penetrate)
G01 X54.559990 Y-3.498737 Z-3.401624 F100.000000
G01 X54.559905 Y-3.659011 Z-2.600254
G01 X54.399547 Y-3.659039 Z-2.600254
G01 X54.399547 Y-3.659039 Z-2.600254
G01 X54.559482 Y-3.498737 Z-3.400496
G01 X54.350327 Y-3.412123 Z-2.354580
G01 X54.350327 Y-3.412123 Z-2.354580
G01 X54.559736 Y-3.498765 Z-3.401483
G01 X54.473094 Y-3.289328 Z-2.354580
G01 X54.473094 Y-3.289328 Z-2.354580
G01 X54.559990 Y-3.498737 Z-3.401624
G01 X54.559990 Y-3.498737 Z-3.401624
G01 X54.560046 Y-3.289356 Z-2.354580
G01 X54.646858 Y-3.289328 Z-2.354580
G01 X54.646858 Y-3.289328 Z-2.354580
G01 X54.560216 Y-3.498765 Z-3.401483
G01 X54.769625 Y-3.412123 Z-2.354580
G01 X54.769625 Y-3.412123 Z-2.354580
G01 X54.560470 Y-3.498737 Z-3.400496
G01 X54.720405 Y-3.659039 Z-2.600254
G01 X54.720405 Y-3.659039 Z-2.600254
G01 X54.559990 Y-3.498737 Z-3.401624
G00 Z2.0

G00 Z2.0
G00 X41.043267 Y-7.072207

G01 Z-7.749963 F200.0(Penetrate)
G01 X40.845401 Y-7.549501 Z-5.363351 F100.000000
G01 X40.845401 Y-7.549501 Z-5.363351
G01 X41.043183 Y-7.072207 Z-7.749963
G01 X40.565832 Y-7.269847 Z-5.363351
G01 X40.565832 Y-7.269847 Z-5.363351
G01 X41.043183 Y-7.072207 Z-7.749963
G01 X40.560216 Y-6.872026 Z-5.334988
G01 X40.560216 Y-6.872026 Z-5.334988
G01 X40.843087 Y-6.589155 Z-5.334988
G01 X40.843087 Y-6.589155 Z-5.334988
G01 X41.043183 Y-7.072122 Z-7.749963
G01 X41.240907 Y-6.594743 Z-5.363351
G01 X41.240907 Y-6.594743 Z-5.363351
G01 X41.043267 Y-7.072122 Z-7.749963
G01 X41.520561 Y-6.874341 Z-5.363351
G01 X41.520561 Y-6.874341 Z-5.363351
G01 X41.043267 Y-7.072122 Z-7.749963
G01 X41.520618 Y-7.269875 Z-5.363351
G01 X41.520618 Y-7.269875 Z-5.363351
G01 X41.043267 Y-7.072207 Z-7.749963
G01 X41.240936 Y-7.549557 Z-5.363351
G01 X41.240936 Y-7.549557 Z-5.363351
G01 X41.043267 Y-7.072207 Z-7.749963
G00 Z2.0

G00 Z2.0
G00 X33.588141 Y-13.428218

G01 Z-7.874988 F200.0(Penetrate)
G01 X33.376588 Y-13.855136 Z-5.740259 F100.000000
G01 X33.376588 Y-13.855136 Z-5.740259
G01 X33.528903 Y-13.403608 Z-7.874988
G01 X33.077319 Y-13.555782 Z-5.740259
G01 X33.077319 Y-13.555782 Z-5.740259
G01 X33.504321 Y-13.344116 Z-7.874988
G01 X33.504321 Y-13.344116 Z-7.874988
G01 X33.071308 Y-13.343946 Z-5.709920
G01 X33.071308 Y-13.129853 Z-5.709920
G01 X33.071308 Y-13.129853 Z-5.709920
G01 X33.374104 Y-12.827028 Z-5.709920
G01 X33.374104 Y-12.827028 Z-5.709920
G01 X33.588141 Y-13.260042 Z-7.874988
G01 X33.802151 Y-12.827056 Z-5.709920
G01 X33.802151 Y-12.827056 Z-5.709920
G01 X34.104947 Y-13.129853 Z-5.709920
G01 X34.104947 Y-13.129853 Z-5.709920
G01 X33.671933 Y-13.344116 Z-7.874988
G01 X33.671933 Y-13.344116 Z-7.874988
G01 X34.098879 Y-13.344144 Z-5.740259
G01 X34.098935 Y-13.555782 Z-5.740259
G01 X34.098935 Y-13.555782 Z-5.740259
G01 X33.647380 Y-13.403608 Z-7.874988
G01 X33.799667 Y-13.855136 Z-5.740259
G01 X33.799667 Y-13.855136 Z-5.740259
G01 X33.588141 Y-13.428218 Z-7.874988
G00 Z2.0

G00 Z2.0
G00 X29.949591 Y-16.028980

G01 Z-3.136759 F200.0(Penetrate)
G01 X29.801820 Y-16.176752 Z-2.397760 F100.000000
G01 X29.801820 Y-16.176752 Z-2.397760
G01 X29.949591 Y-16.028980 Z-3.136759
G01 X29.801820 Y-15.881209 Z-2.397760
G01 X29.801820 Y-15.881209 Z-2.397760
G01 X29.949591 Y-16.028980 Z-3.136759
G01 X30.097363 Y-15.881209 Z-2.397760
G01 X30.097363 Y-15.881209 Z-2.397760
G01 X29.949591 Y-16.028980 Z-3.136759
G01 X30.097363 Y-16.176752 Z-2.397760
G01 X30.097363 Y-16.176752 Z-2.397760
G01 X29.949591 Y-16.028980 Z-3.136759
G00 Z2.0

G00 Z2.0
G00 X30.936607 Y-17.688306

G01 Z-3.136759 F200.0(Penetrate)
G01 X30.788836 Y-17.836077 Z-2.397760 F100.000000
G01 X30.788836 Y-17.836077 Z-2.397760
G01 X30.936607 Y-17.688306 Z-3.136759
G01 X30.788836 Y-17.540534 Z-2.397760
G01 X30.788836 Y-17.540534 Z-2.397760
G01 X30.936607 Y-17.688306 Z-3.136759
G01 X31.084379 Y-17.540534 Z-2.397760
G01 X31.084379 Y-17.540534 Z-2.397760
G01 X30.936607 Y-17.688306 Z-3.136759
G01 X31.084379 Y-17.836077 Z-2.397760
G01 X31.084379 Y-17.836077 Z-2.397760
G01 X30.936607 Y-17.688306 Z-3.136759
G00 Z2.0

G00 Z2.0
G00 X28.899273 Y-17.688306

G01 Z-3.136759 F200.0(Penetrate)
G01 X28.899273 Y-17.688306 Z-3.136759 F100.000000
G01 X28.899104 Y-17.836106 Z-2.397760
G01 X28.751248 Y-17.836077 Z-2.397760
G01 X28.751248 Y-17.836077 Z-2.397760
G01 X28.899019 Y-17.688306 Z-3.136759
G01 X28.751248 Y-17.540534 Z-2.397760
G01 X28.751248 Y-17.540534 Z-2.397760
G01 X28.899273 Y-17.688306 Z-3.136759
G01 X28.899273 Y-17.688306 Z-3.136759
G01 X28.899273 Y-17.495209 Z-2.171277
G01 X28.979340 Y-17.495153 Z-2.171277
G01 X28.979340 Y-17.495153 Z-2.171277
G01 X28.899527 Y-17.688306 Z-3.136477
G01 X29.092624 Y-17.608324 Z-2.171277
G01 X29.092624 Y-17.608324 Z-2.171277
G01 X28.899697 Y-17.688306 Z-3.135912
G01 X29.092624 Y-17.768288 Z-2.171277
G01 X29.092624 Y-17.768288 Z-2.171277
G01 X28.899527 Y-17.688306 Z-3.136477
G01 X28.979340 Y-17.881459 Z-2.171277
G01 X28.979340 Y-17.881459 Z-2.171277
G01 X28.899273 Y-17.688306 Z-3.136759
G00 Z2.0

G00 Z2.0
G00 X27.912003 Y-16.028980

G01 Z-3.136759 F200.0(Penetrate)
G01 X27.764232 Y-16.176752 Z-2.397760 F100.000000
G01 X27.764232 Y-16.176752 Z-2.397760
G01 X27.912003 Y-16.028980 Z-3.136759
G01 X27.764232 Y-15.881209 Z-2.397760
G01 X27.764232 Y-15.881209 Z-2.397760
G01 X27.912003 Y-16.028980 Z-3.136759
G01 X28.059775 Y-15.881209 Z-2.397760
G01 X28.059775 Y-15.881209 Z-2.397760
G01 X27.912003 Y-16.028980 Z-3.136759
G01 X28.059775 Y-16.176752 Z-2.397760
G01 X28.059775 Y-16.176752 Z-2.397760
G01 X27.912003 Y-16.028980 Z-3.136759
G00 Z2.0

G00 Z2.0
G00 X26.836596 Y-17.688306

G01 Z-3.136759 F200.0(Penetrate)
G01 X26.688824 Y-17.836077 Z-2.397760 F100.000000
G01 X26.688824 Y-17.836077 Z-2.397760
G01 X26.836596 Y-17.688306 Z-3.136759
G01 X26.688824 Y-17.540534 Z-2.397760
G01 X26.688824 Y-17.540534 Z-2.397760
G01 X26.836596 Y-17.688306 Z-3.136759
G01 X26.984367 Y-17.540534 Z-2.397760
G01 X26.984367 Y-17.540534 Z-2.397760
G01 X26.836596 Y-17.688306 Z-3.136759
G01 X26.984367 Y-17.836077 Z-2.397760
G01 X26.984367 Y-17.836077 Z-2.397760
G01 X26.836596 Y-17.688306 Z-3.136759
G00 Z2.0

G00 Z2.0
G00 X25.774650 Y-16.028980

G01 Z-3.136759 F200.0(Penetrate)
G01 X25.626878 Y-16.176752 Z-2.397760 F100.000000
G01 X25.626878 Y-16.176752 Z-2.397760
G01 X25.774650 Y-16.028980 Z-3.136759
G01 X25.626878 Y-15.881209 Z-2.397760
G01 X25.626878 Y-15.881209 Z-2.397760
G01 X25.774650 Y-16.028980 Z-3.136759
G01 X25.922421 Y-15.881209 Z-2.397760
G01 X25.922421 Y-15.881209 Z-2.397760
G01 X25.774650 Y-16.028980 Z-3.136759
G01 X25.922421 Y-16.176752 Z-2.397760
G01 X25.922421 Y-16.176752 Z-2.397760
G01 X25.774650 Y-16.028980 Z-3.136759
G00 Z2.0

G00 Z2.0
G00 X24.773156 Y-17.688306

G01 Z-3.136759 F200.0(Penetrate)
G01 X24.625385 Y-17.836077 Z-2.397760 F100.000000
G01 X24.625385 Y-17.836077 Z-2.397760
G01 X24.773156 Y-17.688306 Z-3.136759
G01 X24.625385 Y-17.540534 Z-2.397760
G01 X24.625385 Y-17.540534 Z-2.397760
G01 X24.773156 Y-17.688306 Z-3.136759
G01 X24.920928 Y-17.540534 Z-2.397760
G01 X24.920928 Y-17.540534 Z-2.397760
G01 X24.773156 Y-17.688306 Z-3.136759
G01 X24.920928 Y-17.836077 Z-2.397760
G01 X24.920928 Y-17.836077 Z-2.397760
G01 X24.773156 Y-17.688306 Z-3.136759
G00 Z2.0

G00 Z2.0
G00 X23.736272 Y-16.028980

G01 Z-3.136759 F200.0(Penetrate)
G01 X23.736272 Y-16.028980 Z-3.136759 F100.000000
G01 X23.736102 Y-16.176780 Z-2.397760
G01 X23.588246 Y-16.176752 Z-2.397760
G01 X23.588246 Y-16.176752 Z-2.397760
G01 X23.736018 Y-16.028980 Z-3.136759
G01 X23.588246 Y-15.881209 Z-2.397760
G01 X23.588246 Y-15.881209 Z-2.397760
G01 X23.736272 Y-16.028980 Z-3.136759
G01 X23.736272 Y-16.028980 Z-3.136759
G01 X23.736300 Y-15.835884 Z-2.171277
G01 X23.816338 Y-15.835827 Z-2.171277
G01 X23.816338 Y-15.835827 Z-2.171277
G01 X23.736526 Y-16.028980 Z-3.136477
G01 X23.929622 Y-15.948999 Z-2.171277
G01 X23.929622 Y-15.948999 Z-2.171277
G01 X23.736723 Y-16.028980 Z-3.135912
G01 X23.929622 Y-16.108962 Z-2.171277
G01 X23.929622 Y-16.108962 Z-2.171277
G01 X23.736526 Y-16.028980 Z-3.136477
G01 X23.816338 Y-16.222133 Z-2.171277
G01 X23.816338 Y-16.222133 Z-2.171277
G01 X23.736272 Y-16.028980 Z-3.136759
G00 Z2.0

G00 Z2.0
G00 X14.991588 Y-17.688560

G01 Z-3.135489 F200.0(Penetrate)
G01 X14.911013 Y-17.881459 Z-2.171277 F100.000000
G01 X14.911013 Y-17.881459 Z-2.171277
G01 X14.990826 Y-17.688306 Z-3.136477
G01 X14.797729 Y-17.768288 Z-2.171277
G01 X14.797729 Y-17.768288 Z-2.171277
G01 X14.990628 Y-17.688306 Z-3.135912
G01 X14.797729 Y-17.608324 Z-2.171277
G01 X14.797729 Y-17.608324 Z-2.171277
G01 X14.990826 Y-17.688306 Z-3.136477
G01 X14.911013 Y-17.495153 Z-2.171277
G01 X14.911013 Y-17.495153 Z-2.171277
G01 X14.991588 Y-17.688052 Z-3.135489
G01 X14.991588 Y-17.688052 Z-3.135489
G01 X14.991249 Y-17.540506 Z-2.397760
G01 X15.139105 Y-17.540534 Z-2.397760
G01 X15.139105 Y-17.540534 Z-2.397760
G01 X14.991334 Y-17.688306 Z-3.136759
G01 X15.139105 Y-17.836077 Z-2.397760
G01 X15.139105 Y-17.836077 Z-2.397760
G01 X14.991588 Y-17.688560 Z-3.135489
G00 Z2.0

G00 Z2.0
G00 X14.004064 Y-16.028980

G01 Z-3.136759 F200.0(Penetrate)
G01 X14.004064 Y-16.028980 Z-3.136759 F100.000000
G01 X14.003895 Y-16.176780 Z-2.397760
G01 X13.856010 Y-16.176752 Z-2.397760
G01 X13.856010 Y-16.176752 Z-2.397760
G01 X14.003810 Y-16.028980 Z-3.136759
G01 X13.856010 Y-15.881209 Z-2.397760
G01 X13.856010 Y-15.881209 Z-2.397760
G01 X14.004064 Y-16.028980 Z-3.136759
G01 X14.004064 Y-16.028980 Z-3.136759
G01 X14.004064 Y-15.835884 Z-2.171277
G01 X14.084131 Y-15.835827 Z-2.171277
G01 X14.084131 Y-15.835827 Z-2.171277
G01 X14.004318 Y-16.028980 Z-3.136477
G01 X14.197415 Y-15.948999 Z-2.171277
G01 X14.197415 Y-15.948999 Z-2.171277
G01 X14.004488 Y-16.028980 Z-3.135912
G01 X14.197415 Y-16.108962 Z-2.171277
G01 X14.197415 Y-16.108962 Z-2.171277
G01 X14.004318 Y-16.028980 Z-3.136477
G01 X14.084131 Y-16.222133 Z-2.171277
G01 X14.084131 Y-16.222133 Z-2.171277
G01 X14.004064 Y-16.028980 Z-3.136759
G00 Z2.0

G00 Z2.0
G00 X12.953718 Y-17.688306

G01 Z-3.136759 F200.0(Penetrate)
G01 X12.805946 Y-17.836077 Z-2.397760 F100.000000
G01 X12.805946 Y-17.836077 Z-2.397760
G01 X12.953718 Y-17.688306 Z-3.136759
G01 X12.805946 Y-17.540534 Z-2.397760
G01 X12.805946 Y-17.540534 Z-2.397760
G01 X12.953718 Y-17.688306 Z-3.136759
G01 X13.101518 Y-17.540534 Z-2.397760
G01 X13.101518 Y-17.540534 Z-2.397760
G01 X12.953718 Y-17.688306 Z-3.136759
G01 X13.101518 Y-17.836077 Z-2.397760
G01 X13.101518 Y-17.836077 Z-2.397760
G01 X12.953718 Y-17.688306 Z-3.136759
G00 Z2.0

G00 Z2.0
G00 X11.966956 Y-16.029234

G01 Z-3.135489 F200.0(Penetrate)
G01 X11.886382 Y-16.222133 Z-2.171277 F100.000000
G01 X11.886382 Y-16.222133 Z-2.171277
G01 X11.966194 Y-16.028980 Z-3.136477
G01 X11.773098 Y-16.108962 Z-2.171277
G01 X11.773098 Y-16.108962 Z-2.171277
G01 X11.966025 Y-16.028980 Z-3.135912
G01 X11.773098 Y-15.948999 Z-2.171277
G01 X11.773098 Y-15.948999 Z-2.171277
G01 X11.966194 Y-16.028980 Z-3.136477
G01 X11.886382 Y-15.835827 Z-2.171277
G01 X11.886382 Y-15.835827 Z-2.171277
G01 X11.966956 Y-16.028726 Z-3.135489
G01 X11.966956 Y-16.028726 Z-3.135489
G01 X11.966617 Y-15.881181 Z-2.397760
G01 X12.114474 Y-15.881209 Z-2.397760
G01 X12.114474 Y-15.881209 Z-2.397760
G01 X11.966702 Y-16.028980 Z-3.136759
G01 X12.114474 Y-16.176752 Z-2.397760
G01 X12.114474 Y-16.176752 Z-2.397760
G01 X11.966956 Y-16.029234 Z-3.135489
G00 Z2.0

G00 Z2.0
G00 X10.891576 Y-17.688560

G01 Z-3.135489 F200.0(Penetrate)
G01 X10.811002 Y-17.881459 Z-2.171277 F100.000000
G01 X10.811002 Y-17.881459 Z-2.171277
G01 X10.890814 Y-17.688306 Z-3.136477
G01 X10.697718 Y-17.768288 Z-2.171277
G01 X10.697718 Y-17.768288 Z-2.171277
G01 X10.890645 Y-17.688306 Z-3.135912
G01 X10.697718 Y-17.608324 Z-2.171277
G01 X10.697718 Y-17.608324 Z-2.171277
G01 X10.890814 Y-17.688306 Z-3.136477
G01 X10.811002 Y-17.495153 Z-2.171277
G01 X10.811002 Y-17.495153 Z-2.171277
G01 X10.891576 Y-17.688052 Z-3.135489
G01 X10.891576 Y-17.688052 Z-3.135489
G01 X10.891238 Y-17.540506 Z-2.397760
G01 X11.039094 Y-17.540534 Z-2.397760
G01 X11.039094 Y-17.540534 Z-2.397760
G01 X10.891322 Y-17.688306 Z-3.136759
G01 X11.039094 Y-17.836077 Z-2.397760
G01 X11.039094 Y-17.836077 Z-2.397760
G01 X10.891576 Y-17.688560 Z-3.135489
G00 Z2.0

G00 Z2.0
G00 X9.829631 Y-16.029234

G01 Z-3.135489 F200.0(Penetrate)
G01 X9.749028 Y-16.222133 Z-2.171277 F100.000000
G01 X9.749028 Y-16.222133 Z-2.171277
G01 X9.828869 Y-16.028980 Z-3.136477
G01 X9.635772 Y-16.108962 Z-2.171277
G01 X9.635772 Y-16.108962 Z-2.171277
G01 X9.828671 Y-16.028980 Z-3.135912
G01 X9.635772 Y-15.948999 Z-2.171277
G01 X9.635772 Y-15.948999 Z-2.171277
G01 X9.828869 Y-16.028980 Z-3.136477
G01 X9.749028 Y-15.835827 Z-2.171277
G01 X9.749028 Y-15.835827 Z-2.171277
G01 X9.829631 Y-16.028726 Z-3.135489
G01 X9.829631 Y-16.028726 Z-3.135489
G01 X9.829292 Y-15.881181 Z-2.397760
G01 X9.977148 Y-15.881209 Z-2.397760
G01 X9.977148 Y-15.881209 Z-2.397760
G01 X9.829377 Y-16.028980 Z-3.136759
G01 X9.977148 Y-16.176752 Z-2.397760
G01 X9.977148 Y-16.176752 Z-2.397760
G01 X9.829631 Y-16.029234 Z-3.135489
G00 Z2.0

G00 Z2.0
G00 X8.827629 Y-17.688306

G01 Z-3.136759 F200.0(Penetrate)
G01 X8.827629 Y-17.688306 Z-3.136759 F100.000000
G01 X8.827460 Y-17.836106 Z-2.397760
G01 X8.679603 Y-17.836077 Z-2.397760
G01 X8.679603 Y-17.836077 Z-2.397760
G01 X8.827375 Y-17.688306 Z-3.136759
G01 X8.679603 Y-17.540534 Z-2.397760
G01 X8.679603 Y-17.540534 Z-2.397760
G01 X8.827629 Y-17.688306 Z-3.136759
G01 X8.827629 Y-17.688306 Z-3.136759
G01 X8.827629 Y-17.495209 Z-2.171277
G01 X8.907695 Y-17.495153 Z-2.171277
G01 X8.907695 Y-17.495153 Z-2.171277
G01 X8.827883 Y-17.688306 Z-3.136477
G01 X9.020979 Y-17.608324 Z-2.171277
G01 X9.020979 Y-17.608324 Z-2.171277
G01 X8.828052 Y-17.688306 Z-3.135912
G01 X9.020979 Y-17.768288 Z-2.171277
G01 X9.020979 Y-17.768288 Z-2.171277
G01 X8.827883 Y-17.688306 Z-3.136477
G01 X8.907695 Y-17.881459 Z-2.171277
G01 X8.907695 Y-17.881459 Z-2.171277
G01 X8.827629 Y-17.688306 Z-3.136759
G00 Z2.0

G00 Z2.0
G00 X7.790744 Y-16.028980

G01 Z-3.136759 F200.0(Penetrate)
G01 X7.642973 Y-16.176752 Z-2.397760 F100.000000
G01 X7.642973 Y-16.176752 Z-2.397760
G01 X7.790744 Y-16.028980 Z-3.136759
G01 X7.642973 Y-15.881209 Z-2.397760
G01 X7.642973 Y-15.881209 Z-2.397760
G01 X7.790744 Y-16.028980 Z-3.136759
G01 X7.938516 Y-15.881209 Z-2.397760
G01 X7.938516 Y-15.881209 Z-2.397760
G01 X7.790744 Y-16.028980 Z-3.136759
G01 X7.938516 Y-16.176752 Z-2.397760
G01 X7.938516 Y-16.176752 Z-2.397760
G01 X7.790744 Y-16.028980 Z-3.136759
G00 Z2.0

G00 Z2.0
G00 X5.224724 Y-13.428218

G01 Z-7.874988 F200.0(Penetrate)
G01 X5.224724 Y-13.428218 Z-7.874988 F100.000000
G01 X5.224582 Y-13.855164 Z-5.740259
G01 X5.012944 Y-13.855136 Z-5.740259
G01 X5.012944 Y-13.855136 Z-5.740259
G01 X5.165259 Y-13.403608 Z-7.874988
G01 X4.713676 Y-13.555782 Z-5.740259
G01 X4.713676 Y-13.555782 Z-5.740259
G01 X5.140678 Y-13.344116 Z-7.874988
G01 X5.140678 Y-13.344116 Z-7.874988
G01 X4.707664 Y-13.343946 Z-5.709920
G01 X4.707664 Y-13.129853 Z-5.709920
G01 X4.707664 Y-13.129853 Z-5.709920
G01 X5.010460 Y-12.827028 Z-5.709920
G01 X5.010460 Y-12.827028 Z-5.709920
G01 X5.224724 Y-13.260042 Z-7.874988
G01 X5.224724 Y-13.260042 Z-7.874988
G01 X5.224752 Y-12.833096 Z-5.740259
G01 X5.436390 Y-12.833068 Z-5.740259
G01 X5.436390 Y-12.833068 Z-5.740259
G01 X5.284216 Y-13.284623 Z-7.874988
G01 X5.735743 Y-13.132308 Z-5.740259
G01 X5.735743 Y-13.132308 Z-5.740259
G01 X5.308826 Y-13.344116 Z-7.874988
G01 X5.308826 Y-13.344116 Z-7.874988
G01 X5.735743 Y-13.344144 Z-5.740400
G01 X5.735800 Y-13.555839 Z-5.740400
G01 X5.735800 Y-13.555839 Z-5.740400
G01 X5.284244 Y-13.403636 Z-7.874988
G01 X5.436418 Y-13.855192 Z-5.740400
G01 X5.436418 Y-13.855192 Z-5.740400
G01 X5.224724 Y-13.428218 Z-7.874988
G00 Z2.0

G00 Z2.0
G00 X0.000000 Y-0.069229

G01 Z-2.787932 F200.0(Penetrate)
G01 X-0.131233 Y-0.200491 Z-2.131483 F100.000000
G01 X-0.131233 Y-0.200491 Z-2.131483
G01 X0.000000 Y-0.069229 Z-2.787932
G01 X-0.131233 Y0.062004 Z-2.131483
G01 X-0.131233 Y0.062004 Z-2.131483
G01 X0.000000 Y-0.069229 Z-2.787932
G01 X0.131233 Y0.062004 Z-2.131483
G01 X0.131233 Y0.062004 Z-2.131483
G01 X0.000000 Y-0.069229 Z-2.787932
G01 X0.131233 Y-0.200491 Z-2.131483
G01 X0.131233 Y-0.200491 Z-2.131483
G01 X0.000000 Y-0.069229 Z-2.787932
G00 Z2.0

G00 Z2.0
G00 X21.427920 Y-31.228848

G01 Z-3.600450 F200.0(Penetrate)
G01 X21.336085 Y-31.450647 Z-2.491599 F100.000000
G01 X21.336085 Y-31.450647 Z-2.491599
G01 X21.427863 Y-31.228848 Z-3.600450
G01 X21.206149 Y-31.320796 Z-2.491599
G01 X21.206149 Y-31.320796 Z-2.491599
G01 X21.427863 Y-31.228848 Z-3.600450
G01 X21.206093 Y-31.137013 Z-2.491740
G01 X21.206093 Y-31.137013 Z-2.491740
G01 X21.427863 Y-31.228820 Z-3.600450
G01 X21.336056 Y-31.007050 Z-2.491740
G01 X21.336056 Y-31.007050 Z-2.491740
G01 X21.427863 Y-31.228820 Z-3.600450
G01 X21.519839 Y-31.007106 Z-2.491599
G01 X21.519839 Y-31.007106 Z-2.491599
G01 X21.427920 Y-31.228820 Z-3.600450
G01 X21.649718 Y-31.137041 Z-2.491599
G01 X21.649718 Y-31.137041 Z-2.491599
G01 X21.427920 Y-31.228820 Z-3.600450
G01 X21.597648 Y-31.398577 Z-2.751526
G01 X21.597648 Y-31.398577 Z-2.751526
G01 X21.427920 Y-31.228848 Z-3.600450
G00 Z2.0

G00 Z2.0
G00 X21.388352 Y-33.766167

G01 Z-3.401483 F200.0(Penetrate)
G01 X21.388352 Y-33.766167 Z-3.401483 F100.000000
G01 X21.388296 Y-33.975548 Z-2.354580
G01 X21.301484 Y-33.975548 Z-2.354580
G01 X21.301484 Y-33.975548 Z-2.354580
G01 X21.388126 Y-33.766111 Z-3.401342
G01 X21.178689 Y-33.852781 Z-2.354580
G01 X21.178689 Y-33.852781 Z-2.354580
G01 X21.387844 Y-33.766139 Z-3.400354
G01 X21.227937 Y-33.605865 Z-2.600254
G01 X21.227937 Y-33.605865 Z-2.600254
G01 X21.388352 Y-33.766167 Z-3.401483
G01 X21.388352 Y-33.766167 Z-3.401483
G01 X21.388437 Y-33.605893 Z-2.600254
G01 X21.548767 Y-33.605865 Z-2.600254
G01 X21.548767 Y-33.605865 Z-2.600254
G01 X21.388860 Y-33.766139 Z-3.400354
G01 X21.598015 Y-33.852781 Z-2.354580
G01 X21.598015 Y-33.852781 Z-2.354580
G01 X21.388606 Y-33.766111 Z-3.401342
G01 X21.475248 Y-33.975548 Z-2.354580
G01 X21.475248 Y-33.975548 Z-2.354580
G01 X21.388352 Y-33.766167 Z-3.401483
G00 Z2.0

G00 Z2.0
G00 X21.388352 Y-36.303204

G01 Z-3.402894 F200.0(Penetrate)
G01 X21.388352 Y-36.303204 Z-3.402894 F100.000000
G01 X21.388296 Y-36.512867 Z-2.354580
G01 X21.301484 Y-36.512867 Z-2.354580
G01 X21.301484 Y-36.512867 Z-2.354580
G01 X21.388267 Y-36.303289 Z-3.402471
G01 X21.178689 Y-36.390100 Z-2.354580
G01 X21.178689 Y-36.390100 Z-2.354580
G01 X21.388352 Y-36.303204 Z-3.402894
G01 X21.388352 Y-36.303204 Z-3.402894
G01 X21.178717 Y-36.303147 Z-2.354580
G01 X21.178689 Y-36.216308 Z-2.354580
G01 X21.178689 Y-36.216308 Z-2.354580
G01 X21.388267 Y-36.303119 Z-3.402471
G01 X21.301484 Y-36.093541 Z-2.354580
G01 X21.301484 Y-36.093541 Z-2.354580
G01 X21.388352 Y-36.303204 Z-3.402894
G01 X21.388352 Y-36.303204 Z-3.402894
G01 X21.388437 Y-36.093541 Z-2.354580
G01 X21.475248 Y-36.093541 Z-2.354580
G01 X21.475248 Y-36.093541 Z-2.354580
G01 X21.388465 Y-36.303119 Z-3.402471
G01 X21.598015 Y-36.216308 Z-2.354580
G01 X21.598015 Y-36.216308 Z-2.354580
G01 X21.388352 Y-36.303204 Z-3.402894
G01 X21.388352 Y-36.303204 Z-3.402894
G01 X21.598015 Y-36.303260 Z-2.354580
G01 X21.598015 Y-36.390100 Z-2.354580
G01 X21.598015 Y-36.390100 Z-2.354580
G01 X21.388465 Y-36.303289 Z-3.402471
G01 X21.475248 Y-36.512867 Z-2.354580
G01 X21.475248 Y-36.512867 Z-2.354580
G01 X21.388352 Y-36.303204 Z-3.402894
G00 Z2.0

G00 Z2.0
G00 X21.388352 Y-38.840523

G01 Z-3.402894 F200.0(Penetrate)
G01 X21.388352 Y-38.840523 Z-3.402894 F100.000000
G01 X21.388296 Y-39.050186 Z-2.354580
G01 X21.301484 Y-39.050186 Z-2.354580
G01 X21.301484 Y-39.050186 Z-2.354580
G01 X21.388267 Y-38.840607 Z-3.402471
G01 X21.178689 Y-38.927419 Z-2.354580
G01 X21.178689 Y-38.927419 Z-2.354580
G01 X21.388352 Y-38.840523 Z-3.402894
G01 X21.388352 Y-38.840523 Z-3.402894
G01 X21.178717 Y-38.840466 Z-2.354580
G01 X21.178689 Y-38.753627 Z-2.354580
G01 X21.178689 Y-38.753627 Z-2.354580
G01 X21.388267 Y-38.840438 Z-3.402471
G01 X21.301484 Y-38.630860 Z-2.354580
G01 X21.301484 Y-38.630860 Z-2.354580
G01 X21.388352 Y-38.840523 Z-3.402894
G01 X21.388352 Y-38.840523 Z-3.402894
G01 X21.388437 Y-38.630860 Z-2.354580
G01 X21.475248 Y-38.630860 Z-2.354580
G01 X21.475248 Y-38.630860 Z-2.354580
G01 X21.388465 Y-38.840438 Z-3.402471
G01 X21.598015 Y-38.753627 Z-2.354580
G01 X21.598015 Y-38.753627 Z-2.354580
G01 X21.388352 Y-38.840523 Z-3.402894
G01 X21.388352 Y-38.840523 Z-3.402894
G01 X21.598015 Y-38.840579 Z-2.354580
G01 X21.598015 Y-38.927419 Z-2.354580
G01 X21.598015 Y-38.927419 Z-2.354580
G01 X21.388465 Y-38.840607 Z-3.402471
G01 X21.475248 Y-39.050186 Z-2.354580
G01 X21.475248 Y-39.050186 Z-2.354580
G01 X21.388352 Y-38.840523 Z-3.402894
G00 Z2.0

G00 Z2.0
G00 X21.388352 Y-41.377588

G01 Z-3.401483 F200.0(Penetrate)
G01 X21.388352 Y-41.377588 Z-3.401483 F100.000000
G01 X21.388296 Y-41.537833 Z-2.600254
G01 X21.227937 Y-41.537862 Z-2.600254
G01 X21.227937 Y-41.537862 Z-2.600254
G01 X21.387844 Y-41.377588 Z-3.400354
G01 X21.178689 Y-41.290945 Z-2.354580
G01 X21.178689 Y-41.290945 Z-2.354580
G01 X21.388126 Y-41.377616 Z-3.401342
G01 X21.301484 Y-41.168179 Z-2.354580
G01 X21.301484 Y-41.168179 Z-2.354580
G01 X21.388352 Y-41.377559 Z-3.401483
G01 X21.388352 Y-41.377559 Z-3.401483
G01 X21.388437 Y-41.168179 Z-2.354580
G01 X21.475248 Y-41.168179 Z-2.354580
G01 X21.475248 Y-41.168179 Z-2.354580
G01 X21.388606 Y-41.377616 Z-3.401342
G01 X21.598015 Y-41.290945 Z-2.354580
G01 X21.598015 Y-41.290945 Z-2.354580
G01 X21.388860 Y-41.377588 Z-3.400354
G01 X21.548767 Y-41.537862 Z-2.600254
G01 X21.548767 Y-41.537862 Z-2.600254
G01 X21.388352 Y-41.377588 Z-3.401483
G00 Z2.0

G00 Z2.0
G00 X21.237166 Y-44.447770

G01 Z-0.737306 F200.0(Penetrate)
G01 X21.388352 Y-44.595203 Z0.000000 F100.000000
G01 X21.237166 Y-44.447770 Z-0.737306
G01 X21.237166 Y-44.447770 Z-0.737306
G01 X21.300327 Y-44.125980 Z-2.344561
G01 X21.387534 Y-43.915443 Z-3.397391
G01 X21.178689 Y-44.001521 Z-2.354580
G01 X21.178689 Y-44.001521 Z-2.354580
G01 X21.256131 Y-43.913919 Z-2.741789
G01 X21.256131 Y-43.913919 Z-2.741789
G01 X21.161445 Y-43.913411 Z-2.268220
G01 X21.161445 Y-43.912790 Z-2.268220
G01 X21.161445 Y-43.912790 Z-2.268220
G01 X21.030974 Y-43.911068 Z-1.616004
G01 X20.881283 Y-43.910589 Z-0.867551
G01 X20.881283 Y-43.909827 Z-0.867551
G01 X20.810079 Y-43.909177 Z-0.511528
G01 X20.810079 Y-43.909177 Z-0.511528
G01 X21.161587 Y-43.909488 Z-2.268784
G01 X21.161587 Y-43.909488 Z-2.268784
G01 X21.388521 Y-43.914342 Z-3.401766
G01 X21.388521 Y-43.914342 Z-3.401766
G01 X21.224042 Y-43.897889 Z-2.575842
G01 X21.233553 Y-43.742864 Z-2.575842
G01 X21.233553 Y-43.742864 Z-2.575842
G01 X21.388747 Y-43.907315 Z-3.398802
G01 X21.475220 Y-43.698470 Z-2.354580
G01 X21.475220 Y-43.698470 Z-2.354580
G01 X21.388691 Y-43.907795 Z-3.400637
G01 X21.598015 Y-43.821237 Z-2.354580
G01 X21.598015 Y-43.821237 Z-2.354580
G01 X21.388691 Y-43.909629 Z-3.401201
G01 X21.388691 Y-43.909629 Z-3.401201
G01 X21.615287 Y-43.910193 Z-2.268361
G01 X21.615287 Y-43.911238 Z-2.268361
G01 X21.615287 Y-43.911238 Z-2.268361
G01 X21.388606 Y-43.912846 Z-3.401624
G01 X21.388606 Y-43.912846 Z-3.401624
G01 X21.598015 Y-43.914399 Z-2.354580
G01 X21.598015 Y-44.001238 Z-2.354580
G01 X21.598015 Y-44.001238 Z-2.354580
G01 X21.388521 Y-43.914511 Z-3.401907
G01 X21.475220 Y-44.124005 Z-2.354580
G01 X21.475220 Y-44.124005 Z-2.354580
G01 X21.236517 Y-44.446811 Z-0.740410
G01 X21.237166 Y-44.447770 Z-0.737306
G00 Z2.0

G00 Z2.0
G00 X21.388352 Y-46.451943

G01 Z-3.402894 F200.0(Penetrate)
G01 X21.388352 Y-46.451943 Z-3.402894 F100.000000
G01 X21.388296 Y-46.661606 Z-2.354580
G01 X21.301484 Y-46.661606 Z-2.354580
G01 X21.301484 Y-46.661606 Z-2.354580
G01 X21.388267 Y-46.452028 Z-3.402471
G01 X21.178689 Y-46.538839 Z-2.354580
G01 X21.178689 Y-46.538839 Z-2.354580
G01 X21.388352 Y-46.451943 Z-3.402894
G01 X21.388352 Y-46.451943 Z-3.402894
G01 X21.178717 Y-46.451887 Z-2.354580
G01 X21.178689 Y-46.365047 Z-2.354580
G01 X21.178689 Y-46.365047 Z-2.354580
G01 X21.388267 Y-46.451858 Z-3.402471
G01 X21.301484 Y-46.242280 Z-2.354580
G01 X21.301484 Y-46.242280 Z-2.354580
G01 X21.388352 Y-46.451943 Z-3.402894
G01 X21.388352 Y-46.451943 Z-3.402894
G01 X21.388437 Y-46.242280 Z-2.354580
G01 X21.475248 Y-46.242280 Z-2.354580
G01 X21.475248 Y-46.242280 Z-2.354580
G01 X21.388465 Y-46.451858 Z-3.402471
G01 X21.598015 Y-46.365047 Z-2.354580
G01 X21.598015 Y-46.365047 Z-2.354580
G01 X21.388352 Y-46.451943 Z-3.402894
G01 X21.388352 Y-46.451943 Z-3.402894
G01 X21.598015 Y-46.452000 Z-2.354580
G01 X21.598015 Y-46.538839 Z-2.354580
G01 X21.598015 Y-46.538839 Z-2.354580
G01 X21.388465 Y-46.452028 Z-3.402471
G01 X21.475248 Y-46.661606 Z-2.354580
G01 X21.475248 Y-46.661606 Z-2.354580
G01 X21.388352 Y-46.451943 Z-3.402894
G00 Z2.0

G00 Z2.0
G00 X21.388352 Y-48.989262

G01 Z-3.402894 F200.0(Penetrate)
G01 X21.388352 Y-48.989262 Z-3.402894 F100.000000
G01 X21.388296 Y-49.198925 Z-2.354580
G01 X21.301484 Y-49.198925 Z-2.354580
G01 X21.301484 Y-49.198925 Z-2.354580
G01 X21.388267 Y-48.989347 Z-3.402471
G01 X21.178689 Y-49.076158 Z-2.354580
G01 X21.178689 Y-49.076158 Z-2.354580
G01 X21.388352 Y-48.989262 Z-3.402894
G01 X21.388352 Y-48.989262 Z-3.402894
G01 X21.178717 Y-48.989206 Z-2.354580
G01 X21.178689 Y-48.902366 Z-2.354580
G01 X21.178689 Y-48.902366 Z-2.354580
G01 X21.388267 Y-48.989177 Z-3.402471
G01 X21.301484 Y-48.779599 Z-2.354580
G01 X21.301484 Y-48.779599 Z-2.354580
G01 X21.388352 Y-48.989262 Z-3.402894
G01 X21.388352 Y-48.989262 Z-3.402894
G01 X21.388437 Y-48.779599 Z-2.354580
G01 X21.475248 Y-48.779599 Z-2.354580
G01 X21.475248 Y-48.779599 Z-2.354580
G01 X21.388465 Y-48.989177 Z-3.402471
G01 X21.598015 Y-48.902366 Z-2.354580
G01 X21.598015 Y-48.902366 Z-2.354580
G01 X21.388352 Y-48.989262 Z-3.402894
G01 X21.388352 Y-48.989262 Z-3.402894
G01 X21.598015 Y-48.989318 Z-2.354580
G01 X21.598015 Y-49.076158 Z-2.354580
G01 X21.598015 Y-49.076158 Z-2.354580
G01 X21.388465 Y-48.989347 Z-3.402471
G01 X21.475248 Y-49.198925 Z-2.354580
G01 X21.475248 Y-49.198925 Z-2.354580
G01 X21.388352 Y-48.989262 Z-3.402894
G00 Z2.0

G00 Z2.0
G00 X21.427920 Y-51.526327

G01 Z-3.600450 F200.0(Penetrate)
G01 X21.336085 Y-51.748125 Z-2.491599 F100.000000
G01 X21.336085 Y-51.748125 Z-2.491599
G01 X21.427863 Y-51.526327 Z-3.600450
G01 X21.206149 Y-51.618275 Z-2.491599
G01 X21.206149 Y-51.618275 Z-2.491599
G01 X21.427863 Y-51.526327 Z-3.600450
G01 X21.206093 Y-51.434492 Z-2.491740
G01 X21.206093 Y-51.434492 Z-2.491740
G01 X21.427863 Y-51.526299 Z-3.600450
G01 X21.336056 Y-51.304528 Z-2.491740
G01 X21.336056 Y-51.304528 Z-2.491740
G01 X21.427863 Y-51.526299 Z-3.600450
G01 X21.519839 Y-51.304585 Z-2.491599
G01 X21.519839 Y-51.304585 Z-2.491599
G01 X21.427920 Y-51.526299 Z-3.600450
G01 X21.649718 Y-51.434520 Z-2.491599
G01 X21.649718 Y-51.434520 Z-2.491599
G01 X21.427920 Y-51.526299 Z-3.600450
G01 X21.597648 Y-51.696055 Z-2.751526
G01 X21.597648 Y-51.696055 Z-2.751526
G01 X21.427920 Y-51.526327 Z-3.600450
G00 Z2.0

G00 Z2.0
G00 X21.388352 Y-54.063364

G01 Z-3.402894 F200.0(Penetrate)
G01 X21.388352 Y-54.063364 Z-3.402894 F100.000000
G01 X21.388296 Y-54.273026 Z-2.354580
G01 X21.301484 Y-54.273026 Z-2.354580
G01 X21.301484 Y-54.273026 Z-2.354580
G01 X21.388267 Y-54.063448 Z-3.402471
G01 X21.178689 Y-54.150260 Z-2.354580
G01 X21.178689 Y-54.150260 Z-2.354580
G01 X21.388352 Y-54.063364 Z-3.402894
G01 X21.388352 Y-54.063364 Z-3.402894
G01 X21.178717 Y-54.063307 Z-2.354580
G01 X21.178689 Y-53.976467 Z-2.354580
G01 X21.178689 Y-53.976467 Z-2.354580
G01 X21.388267 Y-54.063279 Z-3.402471
G01 X21.301484 Y-53.853701 Z-2.354580
G01 X21.301484 Y-53.853701 Z-2.354580
G01 X21.388352 Y-54.063364 Z-3.402894
G01 X21.388352 Y-54.063364 Z-3.402894
G01 X21.388437 Y-53.853701 Z-2.354580
G01 X21.475248 Y-53.853701 Z-2.354580
G01 X21.475248 Y-53.853701 Z-2.354580
G01 X21.388465 Y-54.063279 Z-3.402471
G01 X21.598015 Y-53.976467 Z-2.354580
G01 X21.598015 Y-53.976467 Z-2.354580
G01 X21.388352 Y-54.063364 Z-3.402894
G01 X21.388352 Y-54.063364 Z-3.402894
G01 X21.598015 Y-54.063420 Z-2.354580
G01 X21.598015 Y-54.150260 Z-2.354580
G01 X21.598015 Y-54.150260 Z-2.354580
G01 X21.388465 Y-54.063448 Z-3.402471
G01 X21.475248 Y-54.273026 Z-2.354580
G01 X21.475248 Y-54.273026 Z-2.354580
G01 X21.388352 Y-54.063364 Z-3.402894
G00 Z2.0

G00 Z2.0
G00 X21.388352 Y-56.600682

G01 Z-3.402894 F200.0(Penetrate)
G01 X21.388352 Y-56.600682 Z-3.402894 F100.000000
G01 X21.388296 Y-56.810345 Z-2.354580
G01 X21.301484 Y-56.810345 Z-2.354580
G01 X21.301484 Y-56.810345 Z-2.354580
G01 X21.388267 Y-56.600767 Z-3.402471
G01 X21.178689 Y-56.687579 Z-2.354580
G01 X21.178689 Y-56.687579 Z-2.354580
G01 X21.388352 Y-56.600682 Z-3.402894
G01 X21.388352 Y-56.600682 Z-3.402894
G01 X21.178717 Y-56.600626 Z-2.354580
G01 X21.178689 Y-56.513786 Z-2.354580
G01 X21.178689 Y-56.513786 Z-2.354580
G01 X21.388267 Y-56.600598 Z-3.402471
G01 X21.301484 Y-56.391020 Z-2.354580
G01 X21.301484 Y-56.391020 Z-2.354580
G01 X21.388352 Y-56.600682 Z-3.402894
G01 X21.388352 Y-56.600682 Z-3.402894
G01 X21.388437 Y-56.391020 Z-2.354580
G01 X21.475248 Y-56.391020 Z-2.354580
G01 X21.475248 Y-56.391020 Z-2.354580
G01 X21.388465 Y-56.600598 Z-3.402471
G01 X21.598015 Y-56.513786 Z-2.354580
G01 X21.598015 Y-56.513786 Z-2.354580
G01 X21.388352 Y-56.600682 Z-3.402894
G01 X21.388352 Y-56.600682 Z-3.402894
G01 X21.598015 Y-56.600739 Z-2.354580
G01 X21.598015 Y-56.687579 Z-2.354580
G01 X21.598015 Y-56.687579 Z-2.354580
G01 X21.388465 Y-56.600767 Z-3.402471
G01 X21.475248 Y-56.810345 Z-2.354580
G01 X21.475248 Y-56.810345 Z-2.354580
G01 X21.388352 Y-56.600682 Z-3.402894
G00 Z2.0

G00 Z2.0
G00 X21.388352 Y-59.138001

G01 Z-3.402894 F200.0(Penetrate)
G01 X21.388352 Y-59.138001 Z-3.402894 F100.000000
G01 X21.388296 Y-59.347664 Z-2.354580
G01 X21.301484 Y-59.347664 Z-2.354580
G01 X21.301484 Y-59.347664 Z-2.354580
G01 X21.388267 Y-59.138086 Z-3.402471
G01 X21.178689 Y-59.224898 Z-2.354580
G01 X21.178689 Y-59.224898 Z-2.354580
G01 X21.388352 Y-59.138001 Z-3.402894
G01 X21.388352 Y-59.138001 Z-3.402894
G01 X21.178717 Y-59.137945 Z-2.354580
G01 X21.178689 Y-59.051105 Z-2.354580
G01 X21.178689 Y-59.051105 Z-2.354580
G01 X21.388267 Y-59.137917 Z-3.402471
G01 X21.301484 Y-58.928338 Z-2.354580
G01 X21.301484 Y-58.928338 Z-2.354580
G01 X21.388352 Y-59.138001 Z-3.402894
G01 X21.388352 Y-59.138001 Z-3.402894
G01 X21.388437 Y-58.928338 Z-2.354580
G01 X21.475248 Y-58.928338 Z-2.354580
G01 X21.475248 Y-58.928338 Z-2.354580
G01 X21.388465 Y-59.137917 Z-3.402471
G01 X21.598015 Y-59.051105 Z-2.354580
G01 X21.598015 Y-59.051105 Z-2.354580
G01 X21.388352 Y-59.138001 Z-3.402894
G01 X21.388352 Y-59.138001 Z-3.402894
G01 X21.598015 Y-59.138058 Z-2.354580
G01 X21.598015 Y-59.224898 Z-2.354580
G01 X21.598015 Y-59.224898 Z-2.354580
G01 X21.388465 Y-59.138086 Z-3.402471
G01 X21.475248 Y-59.347664 Z-2.354580
G01 X21.475248 Y-59.347664 Z-2.354580
G01 X21.388352 Y-59.138001 Z-3.402894
G00 Z2.0

G00 Z2.0
G00 X21.388352 Y-61.675066

G01 Z-3.401483 F200.0(Penetrate)
G01 X21.388352 Y-61.675066 Z-3.401483 F100.000000
G01 X21.388296 Y-61.884447 Z-2.354580
G01 X21.301484 Y-61.884447 Z-2.354580
G01 X21.301484 Y-61.884447 Z-2.354580
G01 X21.388126 Y-61.675010 Z-3.401342
G01 X21.178689 Y-61.761680 Z-2.354580
G01 X21.178689 Y-61.761680 Z-2.354580
G01 X21.387844 Y-61.675038 Z-3.400354
G01 X21.227937 Y-61.514764 Z-2.600254
G01 X21.227937 Y-61.514764 Z-2.600254
G01 X21.388352 Y-61.675038 Z-3.401483
G01 X21.388352 Y-61.675038 Z-3.401483
G01 X21.388437 Y-61.514792 Z-2.600254
G01 X21.548767 Y-61.514764 Z-2.600254
G01 X21.548767 Y-61.514764 Z-2.600254
G01 X21.388860 Y-61.675038 Z-3.400354
G01 X21.598015 Y-61.761680 Z-2.354580
G01 X21.598015 Y-61.761680 Z-2.354580
G01 X21.388606 Y-61.675010 Z-3.401342
G01 X21.475248 Y-61.884447 Z-2.354580
G01 X21.475248 Y-61.884447 Z-2.354580
G01 X21.388352 Y-61.675066 Z-3.401483
G00 Z2.0

G00 Z2.0
G00 X21.388352 Y-64.212103

G01 Z-3.402894 F200.0(Penetrate)
G01 X21.388352 Y-64.212103 Z-3.402894 F100.000000
G01 X21.388296 Y-64.421766 Z-2.354580
G01 X21.301484 Y-64.421766 Z-2.354580
G01 X21.301484 Y-64.421766 Z-2.354580
G01 X21.388267 Y-64.212188 Z-3.402471
G01 X21.178689 Y-64.298999 Z-2.354580
G01 X21.178689 Y-64.298999 Z-2.354580
G01 X21.388352 Y-64.212103 Z-3.402894
G01 X21.388352 Y-64.212103 Z-3.402894
G01 X21.178717 Y-64.212046 Z-2.354580
G01 X21.178689 Y-64.125207 Z-2.354580
G01 X21.178689 Y-64.125207 Z-2.354580
G01 X21.388267 Y-64.212018 Z-3.402471
G01 X21.301484 Y-64.002440 Z-2.354580
G01 X21.301484 Y-64.002440 Z-2.354580
G01 X21.388352 Y-64.212103 Z-3.402894
G01 X21.388352 Y-64.212103 Z-3.402894
G01 X21.388437 Y-64.002440 Z-2.354580
G01 X21.475248 Y-64.002440 Z-2.354580
G01 X21.475248 Y-64.002440 Z-2.354580
G01 X21.388465 Y-64.212018 Z-3.402471
G01 X21.598015 Y-64.125207 Z-2.354580
G01 X21.598015 Y-64.125207 Z-2.354580
G01 X21.388352 Y-64.212103 Z-3.402894
G01 X21.388352 Y-64.212103 Z-3.402894
G01 X21.598015 Y-64.212159 Z-2.354580
G01 X21.598015 Y-64.298999 Z-2.354580
G01 X21.598015 Y-64.298999 Z-2.354580
G01 X21.388465 Y-64.212188 Z-3.402471
G01 X21.475248 Y-64.421766 Z-2.354580
G01 X21.475248 Y-64.421766 Z-2.354580
G01 X21.388352 Y-64.212103 Z-3.402894
G00 Z2.0

G00 Z2.0
G00 X21.388352 Y-66.749394

G01 Z-3.402894 F200.0(Penetrate)
G01 X21.388352 Y-66.749394 Z-3.402894 F100.000000
G01 X21.388296 Y-66.959056 Z-2.354580
G01 X21.301484 Y-66.959056 Z-2.354580
G01 X21.301484 Y-66.959056 Z-2.354580
G01 X21.388267 Y-66.749478 Z-3.402471
G01 X21.178689 Y-66.836290 Z-2.354580
G01 X21.178689 Y-66.836290 Z-2.354580
G01 X21.388352 Y-66.749394 Z-3.402894
G01 X21.388352 Y-66.749394 Z-3.402894
G01 X21.178717 Y-66.749337 Z-2.354580
G01 X21.178689 Y-66.662497 Z-2.354580
G01 X21.178689 Y-66.662497 Z-2.354580
G01 X21.388267 Y-66.749309 Z-3.402471
G01 X21.301484 Y-66.539731 Z-2.354580
G01 X21.301484 Y-66.539731 Z-2.354580
G01 X21.388352 Y-66.749394 Z-3.402894
G01 X21.388352 Y-66.749394 Z-3.402894
G01 X21.388437 Y-66.539731 Z-2.354580
G01 X21.475248 Y-66.539731 Z-2.354580
G01 X21.475248 Y-66.539731 Z-2.354580
G01 X21.388465 Y-66.749309 Z-3.402471
G01 X21.598015 Y-66.662497 Z-2.354580
G01 X21.598015 Y-66.662497 Z-2.354580
G01 X21.388352 Y-66.749394 Z-3.402894
G01 X21.388352 Y-66.749394 Z-3.402894
G01 X21.598015 Y-66.749450 Z-2.354580
G01 X21.598015 Y-66.836290 Z-2.354580
G01 X21.598015 Y-66.836290 Z-2.354580
G01 X21.388465 Y-66.749478 Z-3.402471
G01 X21.475248 Y-66.959056 Z-2.354580
G01 X21.475248 Y-66.959056 Z-2.354580
G01 X21.388352 Y-66.749394 Z-3.402894
G00 Z2.0

G00 Z2.0
G00 X14.186521 Y-65.852604

G01 Z-7.749963 F200.0(Penetrate)
G01 X13.988796 Y-66.329983 Z-5.363351 F100.000000
G01 X13.988796 Y-66.329983 Z-5.363351
G01 X14.186436 Y-65.852604 Z-7.749963
G01 X13.709142 Y-66.050386 Z-5.363351
G01 X13.709142 Y-66.050386 Z-5.363351
G01 X14.186436 Y-65.852604 Z-7.749963
G01 X13.709086 Y-65.654851 Z-5.363351
G01 X13.709086 Y-65.654851 Z-5.363351
G01 X14.186436 Y-65.852520 Z-7.749963
G01 X13.988768 Y-65.375169 Z-5.363351
G01 X13.988768 Y-65.375169 Z-5.363351
G01 X14.186436 Y-65.852520 Z-7.749963
G01 X14.384302 Y-65.375225 Z-5.363351
G01 X14.384302 Y-65.375225 Z-5.363351
G01 X14.186521 Y-65.852520 Z-7.749963
G01 X14.663872 Y-65.654908 Z-5.363351
G01 X14.663872 Y-65.654908 Z-5.363351
G01 X14.186521 Y-65.852520 Z-7.749963
G01 X14.669488 Y-66.052700 Z-5.334847
G01 X14.669488 Y-66.052700 Z-5.334847
G01 X14.386616 Y-66.335571 Z-5.334847
G01 X14.386616 Y-66.335571 Z-5.334847
G01 X14.186521 Y-65.852604 Z-7.749963
G00 Z2.0

G00 Z2.0
G00 X14.239438 Y-56.514040

G01 Z-3.110089 F200.0(Penetrate)
G01 X14.160105 Y-56.705387 Z-2.153356 F100.000000
G01 X14.160105 Y-56.705387 Z-2.153356
G01 X14.239438 Y-56.513871 Z-3.110653
G01 X14.047865 Y-56.593034 Z-2.153356
G01 X14.047865 Y-56.593034 Z-2.153356
G01 X14.239438 Y-56.513617 Z-3.110936
G01 X14.239438 Y-56.513617 Z-3.110936
G01 X14.092851 Y-56.513448 Z-2.378004
G01 X14.092880 Y-56.366805 Z-2.378004
G01 X14.092880 Y-56.366805 Z-2.378004
G01 X14.239438 Y-56.513363 Z-3.110936
G01 X14.385996 Y-56.366805 Z-2.378004
G01 X14.385996 Y-56.366805 Z-2.378004
G01 X14.239438 Y-56.513617 Z-3.110936
G01 X14.239438 Y-56.513617 Z-3.110936
G01 X14.430954 Y-56.513645 Z-2.153356
G01 X14.431010 Y-56.593034 Z-2.153356
G01 X14.431010 Y-56.593034 Z-2.153356
G01 X14.239438 Y-56.513871 Z-3.110653
G01 X14.318770 Y-56.705387 Z-2.153356
G01 X14.318770 Y-56.705387 Z-2.153356
G01 X14.239438 Y-56.514040 Z-3.110089
G00 Z2.0

G00 Z2.0
G00 X14.239438 Y-54.033561

G01 Z-3.110089 F200.0(Penetrate)
G01 X14.160105 Y-54.224908 Z-2.153356 F100.000000
G01 X14.160105 Y-54.224908 Z-2.153356
G01 X14.239438 Y-54.033392 Z-3.110653
G01 X14.047865 Y-54.112555 Z-2.153356
G01 X14.047865 Y-54.112555 Z-2.153356
G01 X14.239438 Y-54.033138 Z-3.110936
G01 X14.239438 Y-54.033138 Z-3.110936
G01 X14.092851 Y-54.032968 Z-2.378004
G01 X14.092880 Y-53.886326 Z-2.378004
G01 X14.092880 Y-53.886326 Z-2.378004
G01 X14.239438 Y-54.032884 Z-3.110936
G01 X14.385996 Y-53.886326 Z-2.378004
G01 X14.385996 Y-53.886326 Z-2.378004
G01 X14.239438 Y-54.033138 Z-3.110936
G01 X14.239438 Y-54.033138 Z-3.110936
G01 X14.430954 Y-54.033166 Z-2.153356
G01 X14.431010 Y-54.112555 Z-2.153356
G01 X14.431010 Y-54.112555 Z-2.153356
G01 X14.239438 Y-54.033392 Z-3.110653
G01 X14.318770 Y-54.224908 Z-2.153356
G01 X14.318770 Y-54.224908 Z-2.153356
G01 X14.239438 Y-54.033561 Z-3.110089
G00 Z2.0

G00 Z2.0
G00 X14.239438 Y-51.497625

G01 Z-3.110936 F200.0(Penetrate)
G01 X14.092880 Y-51.644183 Z-2.378004 F100.000000
G01 X14.092880 Y-51.644183 Z-2.378004
G01 X14.239438 Y-51.497371 Z-3.110936
G01 X14.239438 Y-51.497371 Z-3.110936
G01 X14.047922 Y-51.497343 Z-2.153356
G01 X14.047865 Y-51.417954 Z-2.153356
G01 X14.047865 Y-51.417954 Z-2.153356
G01 X14.239438 Y-51.497117 Z-3.110653
G01 X14.160105 Y-51.305601 Z-2.153356
G01 X14.160105 Y-51.305601 Z-2.153356
G01 X14.239438 Y-51.496948 Z-3.110089
G01 X14.318770 Y-51.305601 Z-2.153356
G01 X14.318770 Y-51.305601 Z-2.153356
G01 X14.239438 Y-51.497117 Z-3.110653
G01 X14.431010 Y-51.417954 Z-2.153356
G01 X14.431010 Y-51.417954 Z-2.153356
G01 X14.239438 Y-51.497371 Z-3.110936
G01 X14.239438 Y-51.497371 Z-3.110936
G01 X14.386024 Y-51.497540 Z-2.378004
G01 X14.385996 Y-51.644183 Z-2.378004
G01 X14.385996 Y-51.644183 Z-2.378004
G01 X14.239438 Y-51.497625 Z-3.110936
G00 Z2.0

G00 Z2.0
G00 X14.239438 Y-48.961886

G01 Z-3.110794 F200.0(Penetrate)
G01 X14.092880 Y-49.108416 Z-2.378004 F100.000000
G01 X14.092880 Y-49.108416 Z-2.378004
G01 X14.239438 Y-48.961886 Z-3.110794
G01 X14.092880 Y-48.815328 Z-2.378004
G01 X14.092880 Y-48.815328 Z-2.378004
G01 X14.239438 Y-48.961858 Z-3.110794
G01 X14.385996 Y-48.815328 Z-2.378004
G01 X14.385996 Y-48.815328 Z-2.378004
G01 X14.239466 Y-48.961886 Z-3.110794
G01 X14.385996 Y-49.108416 Z-2.378004
G01 X14.385996 Y-49.108416 Z-2.378004
G01 X14.239438 Y-48.961886 Z-3.110794
G00 Z2.0

G00 Z2.0
G00 X11.699804 Y-48.962112

G01 Z-3.109666 F200.0(Penetrate)
G01 X11.619879 Y-49.153431 Z-2.153356 F100.000000
G01 X11.619879 Y-49.153431 Z-2.153356
G01 X11.699014 Y-48.961886 Z-3.110653
G01 X11.507526 Y-49.041191 Z-2.153356
G01 X11.507526 Y-49.041191 Z-2.153356
G01 X11.698845 Y-48.961886 Z-3.109948
G01 X11.507526 Y-48.882554 Z-2.153356
G01 X11.507526 Y-48.882554 Z-2.153356
G01 X11.699014 Y-48.961886 Z-3.110653
G01 X11.619851 Y-48.770314 Z-2.153356
G01 X11.619851 Y-48.770314 Z-2.153356
G01 X11.699804 Y-48.961632 Z-3.109666
G01 X11.699804 Y-48.961632 Z-3.109666
G01 X11.699466 Y-48.815300 Z-2.378004
G01 X11.846108 Y-48.815328 Z-2.378004
G01 X11.846108 Y-48.815328 Z-2.378004
G01 X11.699550 Y-48.961886 Z-3.110794
G01 X11.846108 Y-49.108416 Z-2.378004
G01 X11.846108 Y-49.108416 Z-2.378004
G01 X11.699804 Y-48.962112 Z-3.109666
G00 Z2.0

G00 Z2.0
G00 X11.699804 Y-51.497879

G01 Z-3.109666 F200.0(Penetrate)
G01 X11.619851 Y-51.689197 Z-2.153356 F100.000000
G01 X11.619851 Y-51.689197 Z-2.153356
G01 X11.699155 Y-51.497512 Z-3.111500
G01 X11.507526 Y-51.576958 Z-2.153356
G01 X11.507526 Y-51.576958 Z-2.153356
G01 X11.699296 Y-51.497371 Z-3.112206
G01 X11.699296 Y-51.497371 Z-3.112206
G01 X11.507526 Y-51.497343 Z-2.153356
G01 X11.507470 Y-51.417897 Z-2.153356
G01 X11.507470 Y-51.417897 Z-2.153356
G01 X11.699155 Y-51.497230 Z-3.111500
G01 X11.619823 Y-51.305573 Z-2.153356
G01 X11.619823 Y-51.305573 Z-2.153356
G01 X11.699804 Y-51.496327 Z-3.106984
G01 X11.699804 Y-51.496327 Z-3.106984
G01 X11.699466 Y-51.305601 Z-2.153356
G01 X11.778855 Y-51.305601 Z-2.153356
G01 X11.778855 Y-51.305601 Z-2.153356
G01 X11.699438 Y-51.497230 Z-3.111500
G01 X11.891123 Y-51.417954 Z-2.153356
G01 X11.891123 Y-51.417954 Z-2.153356
G01 X11.699296 Y-51.497371 Z-3.112206
G01 X11.699296 Y-51.497371 Z-3.112206
G01 X11.846137 Y-51.497540 Z-2.378004
G01 X11.846108 Y-51.644183 Z-2.378004
G01 X11.846108 Y-51.644183 Z-2.378004
G01 X11.699804 Y-51.497879 Z-3.109666
G00 Z2.0

G00 Z2.0
G00 X11.699804 Y-54.034182

G01 Z-3.106984 F200.0(Penetrate)
G01 X11.619823 Y-54.224936 Z-2.153356 F100.000000
G01 X11.619823 Y-54.224936 Z-2.153356
G01 X11.699155 Y-54.033279 Z-3.111500
G01 X11.507470 Y-54.112611 Z-2.153356
G01 X11.507470 Y-54.112611 Z-2.153356
G01 X11.699296 Y-54.033138 Z-3.112206
G01 X11.699296 Y-54.033138 Z-3.112206
G01 X11.507498 Y-54.032968 Z-2.153356
G01 X11.507526 Y-53.953551 Z-2.153356
G01 X11.507526 Y-53.953551 Z-2.153356
G01 X11.699155 Y-54.032996 Z-3.111500
G01 X11.619851 Y-53.841311 Z-2.153356
G01 X11.619851 Y-53.841311 Z-2.153356
G01 X11.699804 Y-54.032630 Z-3.109666
G01 X11.699804 Y-54.032630 Z-3.109666
G01 X11.699466 Y-53.886297 Z-2.378004
G01 X11.846108 Y-53.886326 Z-2.378004
G01 X11.846108 Y-53.886326 Z-2.378004
G01 X11.699296 Y-54.033138 Z-3.112206
G01 X11.699296 Y-54.033138 Z-3.112206
G01 X11.891066 Y-54.033166 Z-2.153356
G01 X11.891123 Y-54.112555 Z-2.153356
G01 X11.891123 Y-54.112555 Z-2.153356
G01 X11.699438 Y-54.033279 Z-3.111500
G01 X11.778855 Y-54.224908 Z-2.153356
G01 X11.778855 Y-54.224908 Z-2.153356
G01 X11.699804 Y-54.034182 Z-3.106984
G00 Z2.0

G00 Z2.0
G00 X11.699804 Y-56.514661

G01 Z-3.106984 F200.0(Penetrate)
G01 X11.619823 Y-56.705415 Z-2.153356 F100.000000
G01 X11.619823 Y-56.705415 Z-2.153356
G01 X11.699155 Y-56.513758 Z-3.111500
G01 X11.507470 Y-56.593091 Z-2.153356
G01 X11.507470 Y-56.593091 Z-2.153356
G01 X11.699296 Y-56.513617 Z-3.112206
G01 X11.699296 Y-56.513617 Z-3.112206
G01 X11.507498 Y-56.513448 Z-2.153356
G01 X11.507526 Y-56.434030 Z-2.153356
G01 X11.507526 Y-56.434030 Z-2.153356
G01 X11.699155 Y-56.513476 Z-3.111500
G01 X11.619851 Y-56.321790 Z-2.153356
G01 X11.619851 Y-56.321790 Z-2.153356
G01 X11.699804 Y-56.513109 Z-3.109666
G01 X11.699804 Y-56.513109 Z-3.109666
G01 X11.699466 Y-56.366777 Z-2.378004
G01 X11.846108 Y-56.366805 Z-2.378004
G01 X11.846108 Y-56.366805 Z-2.378004
G01 X11.699296 Y-56.513617 Z-3.112206
G01 X11.699296 Y-56.513617 Z-3.112206
G01 X11.891066 Y-56.513645 Z-2.153356
G01 X11.891123 Y-56.593034 Z-2.153356
G01 X11.891123 Y-56.593034 Z-2.153356
G01 X11.699438 Y-56.513758 Z-3.111500
G01 X11.778855 Y-56.705387 Z-2.153356
G01 X11.778855 Y-56.705387 Z-2.153356
G01 X11.699804 Y-56.514661 Z-3.106984
G00 Z2.0

G00 Z2.0
G00 X9.159917 Y-56.514661

G01 Z-3.106984 F200.0(Penetrate)
G01 X9.079936 Y-56.705415 Z-2.153356 F100.000000
G01 X9.079936 Y-56.705415 Z-2.153356
G01 X9.159240 Y-56.513758 Z-3.111500
G01 X8.967583 Y-56.593091 Z-2.153356
G01 X8.967583 Y-56.593091 Z-2.153356
G01 X9.159381 Y-56.513617 Z-3.112206
G01 X9.159381 Y-56.513617 Z-3.112206
G01 X8.967611 Y-56.513448 Z-2.153356
G01 X8.967639 Y-56.434030 Z-2.153356
G01 X8.967639 Y-56.434030 Z-2.153356
G01 X9.159240 Y-56.513476 Z-3.111500
G01 X9.079964 Y-56.321790 Z-2.153356
G01 X9.079964 Y-56.321790 Z-2.153356
G01 X9.159917 Y-56.513109 Z-3.109666
G01 X9.159917 Y-56.513109 Z-3.109666
G01 X9.159550 Y-56.366777 Z-2.378004
G01 X9.306221 Y-56.366805 Z-2.378004
G01 X9.306221 Y-56.366805 Z-2.378004
G01 X9.159381 Y-56.513617 Z-3.112206
G01 X9.159381 Y-56.513617 Z-3.112206
G01 X9.351179 Y-56.513645 Z-2.153356
G01 X9.351208 Y-56.593034 Z-2.153356
G01 X9.351208 Y-56.593034 Z-2.153356
G01 X9.159522 Y-56.513758 Z-3.111500
G01 X9.238968 Y-56.705387 Z-2.153356
G01 X9.238968 Y-56.705387 Z-2.153356
G01 X9.159917 Y-56.514661 Z-3.106984
G00 Z2.0

G00 Z2.0
G00 X9.159917 Y-54.034182

G01 Z-3.106984 F200.0(Penetrate)
G01 X9.079936 Y-54.224936 Z-2.153356 F100.000000
G01 X9.079936 Y-54.224936 Z-2.153356
G01 X9.159240 Y-54.033279 Z-3.111500
G01 X8.967583 Y-54.112611 Z-2.153356
G01 X8.967583 Y-54.112611 Z-2.153356
G01 X9.159381 Y-54.033138 Z-3.112206
G01 X9.159381 Y-54.033138 Z-3.112206
G01 X8.967611 Y-54.032968 Z-2.153356
G01 X8.967639 Y-53.953551 Z-2.153356
G01 X8.967639 Y-53.953551 Z-2.153356
G01 X9.159240 Y-54.032996 Z-3.111500
G01 X9.079964 Y-53.841311 Z-2.153356
G01 X9.079964 Y-53.841311 Z-2.153356
G01 X9.159917 Y-54.032630 Z-3.109666
G01 X9.159917 Y-54.032630 Z-3.109666
G01 X9.159550 Y-53.886297 Z-2.378004
G01 X9.306221 Y-53.886326 Z-2.378004
G01 X9.306221 Y-53.886326 Z-2.378004
G01 X9.159381 Y-54.033138 Z-3.112206
G01 X9.159381 Y-54.033138 Z-3.112206
G01 X9.351179 Y-54.033166 Z-2.153356
G01 X9.351208 Y-54.112555 Z-2.153356
G01 X9.351208 Y-54.112555 Z-2.153356
G01 X9.159522 Y-54.033279 Z-3.111500
G01 X9.238968 Y-54.224908 Z-2.153356
G01 X9.238968 Y-54.224908 Z-2.153356
G01 X9.159917 Y-54.034182 Z-3.106984
G00 Z2.0

G00 Z2.0
G00 X9.159917 Y-51.497879

G01 Z-3.109666 F200.0(Penetrate)
G01 X9.079964 Y-51.689197 Z-2.153356 F100.000000
G01 X9.079964 Y-51.689197 Z-2.153356
G01 X9.159240 Y-51.497512 Z-3.111500
G01 X8.967639 Y-51.576958 Z-2.153356
G01 X8.967639 Y-51.576958 Z-2.153356
G01 X9.159381 Y-51.497371 Z-3.112206
G01 X9.159381 Y-51.497371 Z-3.112206
G01 X8.967639 Y-51.497343 Z-2.153356
G01 X8.967583 Y-51.417897 Z-2.153356
G01 X8.967583 Y-51.417897 Z-2.153356
G01 X9.159240 Y-51.497230 Z-3.111500
G01 X9.079936 Y-51.305573 Z-2.153356
G01 X9.079936 Y-51.305573 Z-2.153356
G01 X9.159917 Y-51.496327 Z-3.106984
G01 X9.159917 Y-51.496327 Z-3.106984
G01 X9.159579 Y-51.305601 Z-2.153356
G01 X9.238968 Y-51.305601 Z-2.153356
G01 X9.238968 Y-51.305601 Z-2.153356
G01 X9.159522 Y-51.497230 Z-3.111500
G01 X9.351208 Y-51.417954 Z-2.153356
G01 X9.351208 Y-51.417954 Z-2.153356
G01 X9.159381 Y-51.497371 Z-3.112206
G01 X9.159381 Y-51.497371 Z-3.112206
G01 X9.306250 Y-51.497540 Z-2.378004
G01 X9.306221 Y-51.644183 Z-2.378004
G01 X9.306221 Y-51.644183 Z-2.378004
G01 X9.159917 Y-51.497879 Z-3.109666
G00 Z2.0

G00 Z2.0
G00 X9.159917 Y-48.962112

G01 Z-3.109666 F200.0(Penetrate)
G01 X9.079964 Y-49.153431 Z-2.153356 F100.000000
G01 X9.079964 Y-49.153431 Z-2.153356
G01 X9.159127 Y-48.961886 Z-3.110653
G01 X8.967639 Y-49.041191 Z-2.153356
G01 X8.967639 Y-49.041191 Z-2.153356
G01 X9.158930 Y-48.961886 Z-3.109948
G01 X8.967639 Y-48.882554 Z-2.153356
G01 X8.967639 Y-48.882554 Z-2.153356
G01 X9.159127 Y-48.961886 Z-3.110653
G01 X9.079964 Y-48.770314 Z-2.153356
G01 X9.079964 Y-48.770314 Z-2.153356
G01 X9.159917 Y-48.961632 Z-3.109666
G01 X9.159917 Y-48.961632 Z-3.109666
G01 X9.159550 Y-48.815300 Z-2.378004
G01 X9.306221 Y-48.815328 Z-2.378004
G01 X9.306221 Y-48.815328 Z-2.378004
G01 X9.159663 Y-48.961886 Z-3.110794
G01 X9.306193 Y-49.108416 Z-2.378004
G01 X9.306193 Y-49.108416 Z-2.378004
G01 X9.159917 Y-48.962112 Z-3.109666
G00 Z2.0

G00 Z2.0
G00 X9.159917 Y-46.371566

G01 Z-3.109666 F200.0(Penetrate)
G01 X9.079964 Y-46.562885 Z-2.153356 F100.000000
G01 X9.079964 Y-46.562885 Z-2.153356
G01 X9.159240 Y-46.371199 Z-3.111500
G01 X8.967639 Y-46.450645 Z-2.153356
G01 X8.967639 Y-46.450645 Z-2.153356
G01 X9.159381 Y-46.371058 Z-3.112206
G01 X9.159381 Y-46.371058 Z-3.112206
G01 X8.967639 Y-46.371030 Z-2.153356
G01 X8.967583 Y-46.291584 Z-2.153356
G01 X8.967583 Y-46.291584 Z-2.153356
G01 X9.159240 Y-46.370917 Z-3.111500
G01 X9.079936 Y-46.179260 Z-2.153356
G01 X9.079936 Y-46.179260 Z-2.153356
G01 X9.159917 Y-46.370014 Z-3.106984
G01 X9.159917 Y-46.370014 Z-3.106984
G01 X9.159579 Y-46.179288 Z-2.153356
G01 X9.238968 Y-46.179288 Z-2.153356
G01 X9.238968 Y-46.179288 Z-2.153356
G01 X9.159522 Y-46.370917 Z-3.111500
G01 X9.351208 Y-46.291641 Z-2.153356
G01 X9.351208 Y-46.291641 Z-2.153356
G01 X9.159381 Y-46.371058 Z-3.112206
G01 X9.159381 Y-46.371058 Z-3.112206
G01 X9.306250 Y-46.371228 Z-2.378004
G01 X9.306221 Y-46.517870 Z-2.378004
G01 X9.306221 Y-46.517870 Z-2.378004
G01 X9.159917 Y-46.371566 Z-3.109666
G00 Z2.0

G00 Z2.0
G00 X11.699804 Y-46.371566

G01 Z-3.109666 F200.0(Penetrate)
G01 X11.619851 Y-46.562885 Z-2.153356 F100.000000
G01 X11.619851 Y-46.562885 Z-2.153356
G01 X11.699155 Y-46.371199 Z-3.111500
G01 X11.507526 Y-46.450645 Z-2.153356
G01 X11.507526 Y-46.450645 Z-2.153356
G01 X11.699296 Y-46.371058 Z-3.112206
G01 X11.699296 Y-46.371058 Z-3.112206
G01 X11.507526 Y-46.371030 Z-2.153356
G01 X11.507470 Y-46.291584 Z-2.153356
G01 X11.507470 Y-46.291584 Z-2.153356
G01 X11.699155 Y-46.370917 Z-3.111500
G01 X11.619823 Y-46.179260 Z-2.153356
G01 X11.619823 Y-46.179260 Z-2.153356
G01 X11.699804 Y-46.370014 Z-3.106984
G01 X11.699804 Y-46.370014 Z-3.106984
G01 X11.699466 Y-46.179288 Z-2.153356
G01 X11.778855 Y-46.179288 Z-2.153356
G01 X11.778855 Y-46.179288 Z-2.153356
G01 X11.699438 Y-46.370917 Z-3.111500
G01 X11.891123 Y-46.291641 Z-2.153356
G01 X11.891123 Y-46.291641 Z-2.153356
G01 X11.699296 Y-46.371058 Z-3.112206
G01 X11.699296 Y-46.371058 Z-3.112206
G01 X11.846137 Y-46.371228 Z-2.378004
G01 X11.846108 Y-46.517870 Z-2.378004
G01 X11.846108 Y-46.517870 Z-2.378004
G01 X11.699804 Y-46.371566 Z-3.109666
G00 Z2.0

G00 Z2.0
G00 X14.239438 Y-46.371312

G01 Z-3.110936 F200.0(Penetrate)
G01 X14.092880 Y-46.517870 Z-2.378004 F100.000000
G01 X14.092880 Y-46.517870 Z-2.378004
G01 X14.239438 Y-46.371058 Z-3.110936
G01 X14.239438 Y-46.371058 Z-3.110936
G01 X14.047922 Y-46.371030 Z-2.153356
G01 X14.047865 Y-46.291641 Z-2.153356
G01 X14.047865 Y-46.291641 Z-2.153356
G01 X14.239438 Y-46.370804 Z-3.110653
G01 X14.160105 Y-46.179288 Z-2.153356
G01 X14.160105 Y-46.179288 Z-2.153356
G01 X14.239438 Y-46.370635 Z-3.110089
G01 X14.318770 Y-46.179288 Z-2.153356
G01 X14.318770 Y-46.179288 Z-2.153356
G01 X14.239438 Y-46.370804 Z-3.110653
G01 X14.431010 Y-46.291641 Z-2.153356
G01 X14.431010 Y-46.291641 Z-2.153356
G01 X14.239438 Y-46.371058 Z-3.110936
G01 X14.239438 Y-46.371058 Z-3.110936
G01 X14.386024 Y-46.371228 Z-2.378004
G01 X14.385996 Y-46.517870 Z-2.378004
G01 X14.385996 Y-46.517870 Z-2.378004
G01 X14.239438 Y-46.371312 Z-3.110936
G00 Z2.0

G00 Z2.0
G00 X14.239438 Y-43.827813

G01 Z-3.110936 F200.0(Penetrate)
G01 X14.092880 Y-43.974371 Z-2.378004 F100.000000
G01 X14.092880 Y-43.974371 Z-2.378004
G01 X14.239438 Y-43.827559 Z-3.110936
G01 X14.239438 Y-43.827559 Z-3.110936
G01 X14.047922 Y-43.827531 Z-2.153356
G01 X14.047865 Y-43.748141 Z-2.153356
G01 X14.047865 Y-43.748141 Z-2.153356
G01 X14.239438 Y-43.827305 Z-3.110653
G01 X14.160105 Y-43.635789 Z-2.153356
G01 X14.160105 Y-43.635789 Z-2.153356
G01 X14.239438 Y-43.827135 Z-3.110089
G01 X14.318770 Y-43.635789 Z-2.153356
G01 X14.318770 Y-43.635789 Z-2.153356
G01 X14.239438 Y-43.827305 Z-3.110653
G01 X14.431010 Y-43.748141 Z-2.153356
G01 X14.431010 Y-43.748141 Z-2.153356
G01 X14.239438 Y-43.827559 Z-3.110936
G01 X14.239438 Y-43.827559 Z-3.110936
G01 X14.386024 Y-43.827728 Z-2.378004
G01 X14.385996 Y-43.974371 Z-2.378004
G01 X14.385996 Y-43.974371 Z-2.378004
G01 X14.239438 Y-43.827813 Z-3.110936
G00 Z2.0

G00 Z2.0
G00 X11.699804 Y-43.828067

G01 Z-3.109666 F200.0(Penetrate)
G01 X11.619851 Y-44.019385 Z-2.153356 F100.000000
G01 X11.619851 Y-44.019385 Z-2.153356
G01 X11.699155 Y-43.827700 Z-3.111500
G01 X11.507526 Y-43.907145 Z-2.153356
G01 X11.507526 Y-43.907145 Z-2.153356
G01 X11.699296 Y-43.827559 Z-3.112206
G01 X11.699296 Y-43.827559 Z-3.112206
G01 X11.507526 Y-43.827531 Z-2.153356
G01 X11.507470 Y-43.748085 Z-2.153356
G01 X11.507470 Y-43.748085 Z-2.153356
G01 X11.699155 Y-43.827418 Z-3.111500
G01 X11.619823 Y-43.635761 Z-2.153356
G01 X11.619823 Y-43.635761 Z-2.153356
G01 X11.699804 Y-43.826515 Z-3.106984
G01 X11.699804 Y-43.826515 Z-3.106984
G01 X11.699466 Y-43.635789 Z-2.153356
G01 X11.778855 Y-43.635789 Z-2.153356
G01 X11.778855 Y-43.635789 Z-2.153356
G01 X11.699438 Y-43.827418 Z-3.111500
G01 X11.891123 Y-43.748141 Z-2.153356
G01 X11.891123 Y-43.748141 Z-2.153356
G01 X11.699296 Y-43.827559 Z-3.112206
G01 X11.699296 Y-43.827559 Z-3.112206
G01 X11.846137 Y-43.827728 Z-2.378004
G01 X11.846108 Y-43.974371 Z-2.378004
G01 X11.846108 Y-43.974371 Z-2.378004
G01 X11.699804 Y-43.828067 Z-3.109666
G00 Z2.0

G00 Z2.0
G00 X9.159917 Y-43.828067

G01 Z-3.109666 F200.0(Penetrate)
G01 X9.079964 Y-44.019385 Z-2.153356 F100.000000
G01 X9.079964 Y-44.019385 Z-2.153356
G01 X9.159240 Y-43.827700 Z-3.111500
G01 X8.967639 Y-43.907145 Z-2.153356
G01 X8.967639 Y-43.907145 Z-2.153356
G01 X9.159381 Y-43.827559 Z-3.112206
G01 X9.159381 Y-43.827559 Z-3.112206
G01 X8.967639 Y-43.827531 Z-2.153356
G01 X8.967583 Y-43.748085 Z-2.153356
G01 X8.967583 Y-43.748085 Z-2.153356
G01 X9.159240 Y-43.827418 Z-3.111500
G01 X9.079936 Y-43.635761 Z-2.153356
G01 X9.079936 Y-43.635761 Z-2.153356
G01 X9.159917 Y-43.826515 Z-3.106984
G01 X9.159917 Y-43.826515 Z-3.106984
G01 X9.159579 Y-43.635789 Z-2.153356
G01 X9.238968 Y-43.635789 Z-2.153356
G01 X9.238968 Y-43.635789 Z-2.153356
G01 X9.159522 Y-43.827418 Z-3.111500
G01 X9.351208 Y-43.748141 Z-2.153356
G01 X9.351208 Y-43.748141 Z-2.153356
G01 X9.159381 Y-43.827559 Z-3.112206
G01 X9.159381 Y-43.827559 Z-3.112206
G01 X9.306250 Y-43.827728 Z-2.378004
G01 X9.306221 Y-43.974371 Z-2.378004
G01 X9.306221 Y-43.974371 Z-2.378004
G01 X9.159917 Y-43.828067 Z-3.109666
G00 Z2.0


(Footer)
M5
