%
(Header)
(Generated by gcodetools from Inkscape.)
(Using default header. To add your own header create file "header" in the output dir.)
M3
(Header end.)
G21 (All units in mm)

(Pass at depth -1.0)
(Start cutting path id: path1901)
(Change tool to Isolate micro endmill)

G00 Z2.0
G00 X56.002922 Y74.335239

G01 Z-0.200000 F100.0(Penetrate)
G02 X55.752143 Y74.211040 Z-0.200000 I-0.868472 J1.438305 F400.000000
G02 X55.484228 Y74.130188 Z-0.200000 I-0.617694 J1.562504
G01 X56.610910 Y74.130188 Z-0.200000
G01 X56.610910 Y74.237122 Z-0.200000
G01 X56.561301 Y74.237122 Z-0.200000
G02 X56.277943 Y74.262459 Z-0.200000 I0.007423 J1.680152
G02 X56.002922 Y74.335239 Z-0.200000 I0.290781 J1.654814
G01 X56.002922 Y74.335239 Z-0.200000
G00 Z2.0

(Change tool to Isolate micro endmill)

G00 Z2.0
G00 X45.756381 Y46.407916

G01 Z-0.200000 F100.0(Penetrate)
G01 X45.762985 Y46.394680 Z-0.200000 F400.000000
G02 X45.761327 Y46.399363 Z-0.200000 I1.582988 J0.563127
G02 X45.759683 Y46.404050 Z-0.200000 I1.584646 J0.558445
G01 X45.758251 Y46.405761 Z-0.200000
G01 X45.756381 Y46.407916 Z-0.200000
G01 X45.756381 Y46.407916 Z-0.200000
G00 Z2.0

(Change tool to Isolate micro endmill)

G00 Z2.0
G00 X14.047170 Y36.608410

G01 Z-0.200000 F100.0(Penetrate)
G02 X13.870191 Y36.531592 Z-0.200000 I-0.756370 J1.500290 F400.000000
G02 X13.685573 Y36.475568 Z-0.200000 I-0.579391 J1.577108
G01 X13.890625 Y35.825687 Z-0.200000
G02 X13.942004 Y35.803111 Z-0.200000 I-0.650107 J-1.549298
G02 X13.992600 Y35.778832 Z-0.200000 I-0.701486 J-1.526723
G02 X14.102088 Y35.827163 Z-0.200000 I0.732814 J-1.511935
G02 X14.214740 Y35.867577 Z-0.200000 I0.623325 J-1.560266
G01 X14.406562 Y36.475018 Z-0.200000
G02 X14.223050 Y36.531431 Z-0.200000 I0.401128 J1.631582
G02 X14.047170 Y36.608410 Z-0.200000 I0.584641 J1.575170
G01 X14.047170 Y36.608410 Z-0.200000
G00 Z2.0

(Change tool to Isolate micro endmill)

G00 Z2.0
G00 X36.642587 Y36.456276

G01 Z-0.200000 F100.0(Penetrate)
G01 X36.642587 Y36.002076 Z-0.200000 F400.000000
G01 X37.076394 Y36.002076 Z-0.200000
G02 X37.363766 Y35.976308 Z-0.200000 I-0.005812 J-1.680158
G02 X37.642492 Y35.901754 Z-0.200000 I-0.293184 J-1.654390
G01 X37.642492 Y36.113971 Z-0.200000
G02 X37.650995 Y36.281278 Z-0.200000 I1.680167 J-0.001519
G02 X37.676116 Y36.446906 Z-0.200000 I1.671665 J-0.168826
G01 X36.642587 Y36.456276 Z-0.200000
G00 Z2.0

(Change tool to Isolate micro endmill)

G00 Z2.0
G00 X21.501254 Y36.424856

G01 Z-0.200000 F100.0(Penetrate)
G01 X21.501254 Y35.950813 Z-0.200000 F400.000000
G01 X22.154444 Y35.950813 Z-0.200000
G02 X22.200777 Y35.949250 Z-0.200000 I-0.033457 J-1.679835
G02 X22.247049 Y35.946410 Z-0.200000 I-0.079790 J-1.678272
G01 X22.247049 Y36.424864 Z-0.200000
G01 X21.501254 Y36.424856 Z-0.200000
G00 Z2.0

(Change tool to Isolate micro endmill)

G00 Z2.0
G00 X22.247049 Y31.323909

G01 Z-0.200000 F100.0(Penetrate)
G02 X22.200766 Y31.321860 Z-0.200000 I-0.097464 J1.677339 F400.000000
G02 X22.154444 Y31.321087 Z-0.200000 I-0.051181 J1.679388
G01 X21.019492 Y31.321087 Z-0.200000
G01 X21.135247 Y18.019711 Z-0.200000
G01 X22.247049 Y18.019711 Z-0.200000
G01 X22.247049 Y31.323909 Z-0.200000
G00 Z2.0

(Change tool to Isolate micro endmill)

G00 Z2.0
G00 X26.522826 Y16.265260

G01 Z-0.200000 F100.0(Penetrate)
G02 X26.507276 Y16.244468 Z-0.200000 I-1.353222 J0.995869 F400.000000
G02 X26.491406 Y16.223920 Z-0.200000 I-1.337672 J1.016660
G01 X26.546528 Y16.223920 Z-0.200000
G02 X26.534531 Y16.244506 Z-0.200000 I1.445608 J0.856261
G02 X26.522827 Y16.265260 Z-0.200000 I1.457605 J0.835675
G01 X26.522826 Y16.265260 Z-0.200000
G00 Z2.0

(Change tool to Isolate micro endmill)

G00 Z2.0
G00 X56.877147 Y13.616119

G01 Z-0.200000 F100.0(Penetrate)
G02 X56.862539 Y13.452127 Z-0.200000 I-1.678835 J0.066909 F400.000000
G02 X56.831949 Y13.290352 Z-0.200000 I-1.664226 J0.230900
G01 X57.782242 Y13.290352 Z-0.200000
G01 X57.782242 Y13.616119 Z-0.200000
G01 X56.877147 Y13.616119 Z-0.200000
G00 Z2.0

(Change tool to Isolate micro endmill)

G00 Z2.0
G00 X55.794563 Y3.760941

G01 Z-0.200000 F100.0(Penetrate)
G02 X55.442475 Y3.637906 Z-0.200000 I-0.726879 J1.514797 F400.000000
G02 X55.071919 Y3.595576 Z-0.200000 I-0.374791 J1.637833
G01 X55.012937 Y3.595576 Z-0.200000
G01 X55.012937 Y3.436826 Z-0.200000
G01 X56.610910 Y3.436826 Z-0.200000
G01 X56.610910 Y3.556440 Z-0.200000
G01 X56.597674 Y3.556440 Z-0.200000
G02 X56.183307 Y3.608396 Z-0.200000 I0.000230 J1.680168
G02 X55.794554 Y3.760941 Z-0.200000 I0.414597 J1.628212
G01 X55.794563 Y3.760941 Z-0.200000
G00 Z2.0

(End cutting path id: path1901)

(Start cutting path id: path1899)
(Change tool to Isolate micro endmill)

G00 Z2.0
G00 X56.323729 Y84.949439

G01 Z-0.200000 F100.0(Penetrate)
G02 X56.335185 Y84.861849 Z-0.200000 I-1.024663 J-0.178556 F400.000000
G02 X56.339167 Y84.773603 Z-0.200000 I-1.036118 J-0.090966
G01 X56.339167 Y83.504154 Z-0.200000
G02 X56.322960 Y83.325598 Z-0.200000 I-1.040095 J0.004392
G02 X56.276330 Y83.152479 Z-0.200000 I-1.023888 J0.182947
G02 X56.337110 Y83.158672 Z-0.200000 I0.135765 J-1.031205
G02 X56.398148 Y83.161285 Z-0.200000 I0.074986 J-1.037397
G01 X57.293874 Y83.161285 Z-0.200000
G02 X57.261838 Y83.306640 Z-0.200000 I0.997105 J0.295969
G02 X57.250877 Y83.455081 Z-0.200000 I1.029141 J0.150613
G01 X57.250877 Y84.949425 Z-0.200000
G01 X56.323729 Y84.949439 Z-0.200000
G00 Z2.0

(Change tool to Isolate micro endmill)

G00 Z2.0
G00 X55.925751 Y75.095915

G01 Z-0.200000 F100.0(Penetrate)
G02 X55.570474 Y74.827083 Z-0.200000 I-0.790680 J0.675752 F400.000000
G02 X55.135308 Y74.731564 Z-0.200000 I-0.435403 J0.944585
G01 X54.056579 Y74.731564 Z-0.200000
G02 X54.088615 Y74.586206 Z-0.200000 I-0.997105 J-0.295969
G02 X54.099576 Y74.437765 Z-0.200000 I-1.029142 J-0.150612
G01 X54.099576 Y73.490226 Z-0.200000
G01 X57.250872 Y73.490226 Z-0.200000
G01 X57.250872 Y74.583837 Z-0.200000
G02 X57.262143 Y74.732020 Z-0.200000 I1.040094 J-0.004597
G02 X57.294419 Y74.877083 Z-0.200000 I1.028822 J-0.152780
G01 X56.561301 Y74.877083 Z-0.200000
G02 X56.225361 Y74.933743 Z-0.200000 I0.002677 J1.040101
G02 X55.925751 Y75.095915 Z-0.200000 I0.338617 J0.983440
G01 X55.925751 Y75.095915 Z-0.200000
G00 Z2.0

(Change tool to Isolate micro endmill)

G00 Z2.0
G00 X31.528410 Y69.946463

G01 Z-0.200000 F100.0(Penetrate)
G02 X31.556394 Y69.823130 Z-0.200000 I-0.998454 J-0.291387 F400.000000
G02 X31.569203 Y69.697312 Z-0.200000 I-1.026438 J-0.168054
G01 X32.296255 Y69.946463 Z-0.200000
G01 X31.528410 Y69.946463 Z-0.200000
G00 Z2.0

(Change tool to Isolate micro endmill)

G00 Z2.0
G00 X20.706402 Y67.726167

G01 Z-0.200000 F100.0(Penetrate)
G01 X20.706402 Y60.738410 Z-0.200000 F400.000000
G02 X20.810285 Y60.755002 Z-0.200000 I0.215778 J-1.017475
G02 X20.915312 Y60.761016 Z-0.200000 I0.111895 J-1.034068
G01 X21.891515 Y60.761016 Z-0.200000
G02 X21.859479 Y60.906374 Z-0.200000 I0.997107 J0.295962
G02 X21.848520 Y61.054815 Z-0.200000 I1.029143 J0.150605
G01 X21.848520 Y67.726173 Z-0.200000
G01 X20.706402 Y67.726167 Z-0.200000
G00 Z2.0

(Change tool to Isolate micro endmill)

G00 Z2.0
G00 X25.974366 Y57.411275

G01 Z-0.200000 F100.0(Penetrate)
G02 X25.991939 Y57.326971 Z-0.200000 I-1.008558 J-0.254218 F400.000000
G02 X26.002478 Y57.241502 Z-0.200000 I-1.026131 J-0.169913
G02 X26.006712 Y57.326705 Z-0.200000 I1.040065 J-0.008968
G02 X26.017913 Y57.411275 Z-0.200000 I1.035832 J-0.094171
G01 X25.974366 Y57.411275 Z-0.200000
G00 Z2.0

(Change tool to Isolate micro endmill)

G00 Z2.0
G00 X50.036016 Y55.648490

G01 Z-0.200000 F100.0(Penetrate)
G01 X50.030512 Y55.645188 Z-0.200000 F400.000000
G01 X50.037116 Y55.645188 Z-0.200000
G02 X50.036551 Y55.646839 Z-0.200000 I0.983611 J0.338121
G02 X50.035988 Y55.648490 Z-0.200000 I0.984177 J0.336471
G01 X50.036016 Y55.648490 Z-0.200000
G00 Z2.0

(Change tool to Isolate micro endmill)

G00 Z2.0
G00 X26.002478 Y55.591162

G01 Z-0.200000 F100.0(Penetrate)
G02 X25.957871 Y55.361403 Z-0.200000 I-1.036859 J0.082093 F400.000000
G02 X25.863021 Y55.147436 Z-0.200000 I-0.992252 J0.311852
G02 X25.957631 Y54.934532 Z-0.200000 I-0.897196 J-0.526170
G02 X26.002478 Y54.705910 Z-0.200000 I-0.991807 J-0.313266
G01 X26.002478 Y55.591162 Z-0.200000
G00 Z2.0

(Change tool to Isolate micro endmill)

G00 Z2.0
G00 X26.002478 Y53.053920

G01 Z-0.200000 F100.0(Penetrate)
G02 X25.957872 Y52.824159 Z-0.200000 I-1.036859 J0.082090 F400.000000
G02 X25.863021 Y52.610190 Z-0.200000 I-0.992253 J0.311850
G02 X25.957631 Y52.397288 Z-0.200000 I-0.897196 J-0.526170
G02 X26.002478 Y52.168668 Z-0.200000 I-0.991806 J-0.313268
G01 X26.002478 Y53.053920 Z-0.200000
G00 Z2.0

(Change tool to Isolate micro endmill)

G00 Z2.0
G00 X51.073403 Y52.294897

G01 Z-0.200000 F100.0(Penetrate)
G01 X56.556340 Y45.572827 Z-0.200000 F400.000000
G02 X56.669212 Y45.710222 Z-0.200000 I0.857176 J-0.589122
G02 X56.803837 Y45.826383 Z-0.200000 I0.744304 J-0.726517
G01 X51.667063 Y52.294897 Z-0.200000
G01 X51.073403 Y52.294897 Z-0.200000
G00 Z2.0

(Change tool to Isolate micro endmill)

G00 Z2.0
G00 X26.002478 Y50.517227

G01 Z-0.200000 F100.0(Penetrate)
G02 X25.957872 Y50.287467 Z-0.200000 I-1.036859 J0.082090 F400.000000
G02 X25.863021 Y50.073498 Z-0.200000 I-0.992253 J0.311850
G02 X25.957691 Y49.860329 Z-0.200000 I-0.897248 J-0.526082
G02 X26.002478 Y49.631425 Z-0.200000 I-0.991918 J-0.312913
G01 X26.002478 Y50.517227 Z-0.200000
G00 Z2.0

(Change tool to Isolate micro endmill)

G00 Z2.0
G00 X26.002478 Y47.979982

G01 Z-0.200000 F100.0(Penetrate)
G02 X25.957871 Y47.750223 Z-0.200000 I-1.036859 J0.082093 F400.000000
G02 X25.863021 Y47.536255 Z-0.200000 I-0.992252 J0.311852
G02 X25.957691 Y47.323085 Z-0.200000 I-0.897248 J-0.526081
G02 X26.002478 Y47.094179 Z-0.200000 I-0.991919 J-0.312911
G01 X26.002478 Y47.979982 Z-0.200000
G00 Z2.0

(Change tool to Isolate micro endmill)

G00 Z2.0
G00 X26.002478 Y45.443289

G01 Z-0.200000 F100.0(Penetrate)
G02 X25.957871 Y45.213531 Z-0.200000 I-1.036859 J0.082093 F400.000000
G02 X25.863021 Y44.999563 Z-0.200000 I-0.992252 J0.311852
G02 X25.957631 Y44.786659 Z-0.200000 I-0.897196 J-0.526170
G02 X26.002478 Y44.558037 Z-0.200000 I-0.991807 J-0.313266
G01 X26.002478 Y45.443289 Z-0.200000
G00 Z2.0

(Change tool to Isolate micro endmill)

G00 Z2.0
G00 X26.002478 Y42.906597

G01 Z-0.200000 F100.0(Penetrate)
G02 X26.001481 Y42.891981 Z-0.200000 I-1.038162 J0.063532 F400.000000
G02 X26.000277 Y42.877381 Z-0.200000 I-1.037164 J0.078148
G02 X26.001378 Y42.877100 Z-0.200000 I-0.257235 J-1.007793
G02 X26.002478 Y42.876817 Z-0.200000 I-0.258336 J-1.007511
G01 X26.002478 Y42.906597 Z-0.200000
G00 Z2.0

(Change tool to Isolate micro endmill)

G00 Z2.0
G00 X20.818299 Y41.947482

G01 Z-0.200000 F100.0(Penetrate)
G02 X20.850334 Y41.802126 Z-0.200000 I-0.997107 J-0.295963 F400.000000
G02 X20.861293 Y41.653686 Z-0.200000 I-1.029142 J-0.150607
G01 X20.861293 Y40.708351 Z-0.200000
G02 X20.850295 Y40.560188 Z-0.200000 I-1.040100 J0.002719
G02 X20.818299 Y40.415103 Z-0.200000 I-1.029102 J0.150883
G01 X21.349119 Y40.415103 Z-0.200000
G02 X21.506692 Y40.453210 Z-0.200000 I0.322530 J-0.988833
G02 X21.668273 Y40.466368 Z-0.200000 I0.164957 J-1.026940
G01 X22.046957 Y40.466368 Z-0.200000
G02 X22.014644 Y40.611704 Z-0.200000 I0.996550 J0.297832
G02 X22.003411 Y40.760164 Z-0.200000 I1.028864 J0.152497
G01 X22.003411 Y41.653686 Z-0.200000
G02 X22.014644 Y41.802146 Z-0.200000 I1.040096 J-0.004036
G02 X22.046957 Y41.947482 Z-0.200000 I1.028864 J-0.152497
G01 X20.818299 Y41.947482 Z-0.200000
G00 Z2.0

(Change tool to Isolate micro endmill)

G00 Z2.0
G00 X14.044965 Y37.398853

G01 Z-0.200000 F100.0(Penetrate)
G02 X13.875065 Y37.250948 Z-0.200000 I-0.763863 J0.705925 F400.000000
G02 X13.677305 Y37.143092 Z-0.200000 I-0.593962 J0.853830
G01 X14.046068 Y35.971756 Z-0.200000
G01 X14.414831 Y37.142538 Z-0.200000
G02 X14.215870 Y37.250453 Z-0.200000 I0.393473 J0.962806
G02 X14.044965 Y37.398853 Z-0.200000 I0.592434 J0.854891
G01 X14.044965 Y37.398853 Z-0.200000
G00 Z2.0

(Change tool to Isolate micro endmill)

G00 Z2.0
G00 X36.002626 Y37.102852

G01 Z-0.200000 F100.0(Penetrate)
G01 X36.002626 Y35.577088 Z-0.200000 F400.000000
G02 X35.996923 Y35.469012 Z-0.200000 I-1.040104 J0.000698
G02 X35.980020 Y35.362114 Z-0.200000 I-1.034401 J0.108774
G01 X37.076388 Y35.362114 Z-0.200000
G02 X37.474440 Y35.282948 Z-0.200000 I0.000037 J-1.040104
G02 X37.811891 Y35.057474 Z-0.200000 I-0.398014 J-0.960938
G02 X38.037364 Y34.720022 Z-0.200000 I-0.735466 J-0.735464
G02 X38.116530 Y34.321970 Z-0.200000 I-0.960939 J-0.398011
G01 X38.116530 Y33.051970 Z-0.200000
G02 X38.077980 Y32.774155 Z-0.200000 I-1.040100 J0.002743
G02 X37.966599 Y32.516741 Z-0.200000 I-1.001550 J0.280559
G02 X38.186711 Y32.209408 Z-0.200000 I-0.721465 J-0.749202
G02 X38.282445 Y31.843706 Z-0.200000 I-0.941577 J-0.441869
G01 X38.282445 Y36.113971 Z-0.200000
G02 X38.459039 Y36.692758 Z-0.200000 I1.040103 J-0.001013
G02 X38.927918 Y37.075290 Z-0.200000 I0.863510 J-0.579799
G01 X36.009786 Y37.102299 Z-0.200000
G02 X36.006201 Y37.102575 Z-0.200000 I0.078061 J1.037171
G02 X36.002617 Y37.102864 Z-0.200000 I0.081645 J1.036895
G01 X36.002626 Y37.102852 Z-0.200000
G00 Z2.0

(Change tool to Isolate micro endmill)

G00 Z2.0
G00 X22.887009 Y37.081347

G01 Z-0.200000 F100.0(Penetrate)
G02 X22.794776 Y37.068931 Z-0.200000 I-0.184742 J1.023566 F400.000000
G02 X22.701801 Y37.064809 Z-0.200000 I-0.092508 J1.035982
G01 X20.818299 Y37.064809 Z-0.200000
G02 X20.850334 Y36.919453 Z-0.200000 I-0.997107 J-0.295963
G02 X20.861293 Y36.771013 Z-0.200000 I-1.029142 J-0.150607
G01 X20.861293 Y35.604639 Z-0.200000
G02 X20.850334 Y35.456199 Z-0.200000 I-1.040102 J0.002167
G02 X20.818299 Y35.310843 Z-0.200000 I-1.029142 J0.150607
G01 X22.154444 Y35.310843 Z-0.200000
G02 X22.550809 Y35.231541 Z-0.200000 I-0.001980 J-1.040102
G02 X22.887009 Y35.007124 Z-0.200000 I-0.398345 J-0.960801
G01 X22.887009 Y37.081347 Z-0.200000
G00 Z2.0

(Change tool to Isolate micro endmill)

G00 Z2.0
G00 X41.821255 Y37.062607

G01 Z-0.200000 F100.0(Penetrate)
G02 X41.738540 Y37.053217 Z-0.200000 I-0.158588 J1.027943 F400.000000
G02 X41.655339 Y37.050472 Z-0.200000 I-0.075874 J1.037333
G01 X41.030260 Y37.055975 Z-0.200000
G02 X41.468862 Y36.672813 Z-0.200000 I-0.437623 J-0.943558
G02 X41.632739 Y36.113948 Z-0.200000 I-0.876226 J-0.560396
G01 X41.632739 Y17.294908 Z-0.200000
G01 X41.821255 Y17.049067 Z-0.200000
G01 X41.821255 Y37.062607 Z-0.200000
G00 Z2.0

(Change tool to Isolate micro endmill)

G00 Z2.0
G00 X13.993151 Y32.267584

G01 Z-0.200000 F100.0(Penetrate)
G02 X13.655740 Y32.041053 Z-0.200000 I-0.737295 J0.733629 F400.000000
G02 X13.257278 Y31.961111 Z-0.200000 I-0.399884 J0.960161
G01 X9.131984 Y31.961111 Z-0.200000
G01 X9.123431 Y31.962742 Z-0.200000
G01 X9.114895 Y31.964413 Z-0.200000
G02 X9.100931 Y31.856450 Z-0.200000 I-1.037080 J0.079256
G02 X9.075759 Y31.750539 Z-0.200000 I-1.023116 J0.187218
G01 X17.025937 Y31.750539 Z-0.200000
G01 X17.024271 Y31.961105 Z-0.200000
G01 X14.730113 Y31.961105 Z-0.200000
G02 X14.331058 Y32.040836 Z-0.200000 I0.000319 J1.040104
G02 X13.993139 Y32.267579 Z-0.200000 I0.399375 J0.960373
G01 X13.993151 Y32.267584 Z-0.200000
G00 Z2.0

(Change tool to Isolate micro endmill)

G00 Z2.0
G00 X22.887009 Y32.263718

G01 Z-0.200000 F100.0(Penetrate)
G02 X22.550681 Y32.039901 Z-0.200000 I-0.733421 J0.737502 F400.000000
G02 X22.154444 Y31.961116 Z-0.200000 I-0.397093 J0.961319
G01 X20.374019 Y31.961116 Z-0.200000
G01 X20.500799 Y17.379817 Z-0.200000
G01 X22.887009 Y17.379817 Z-0.200000
G01 X22.887009 Y32.263718 Z-0.200000
G00 Z2.0

(Change tool to Isolate micro endmill)

G00 Z2.0
G00 X34.966893 Y30.668502

G01 Z-0.200000 F100.0(Penetrate)
G01 X32.803372 Y28.360562 Z-0.200000 F400.000000
G01 X34.971301 Y30.517468 Z-0.200000
G01 X34.966893 Y30.668502 Z-0.200000
G00 Z2.0

(Change tool to Isolate micro endmill)

G00 Z2.0
G00 X38.282451 Y29.558906

G01 Z-0.200000 F100.0(Penetrate)
G03 X38.269288 Y29.470850 Z-0.200000 I1.702295 J-0.299483 F400.000000
G02 X38.251584 Y29.384171 Z-0.200000 I-0.557436 J0.068703
G02 X38.267052 Y29.379887 Z-0.200000 I-0.269861 J-1.004486
G02 X38.282451 Y29.375365 Z-0.200000 I-0.285328 J-1.000202
G01 X38.282451 Y29.558906 Z-0.200000
G00 Z2.0

(Change tool to Isolate micro endmill)

G00 Z2.0
G00 X26.237296 Y25.874032

G01 Z-0.200000 F100.0(Penetrate)
G01 X26.237296 Y17.293813 Z-0.200000 F400.000000
G02 X25.932656 Y16.558861 Z-0.200000 I-1.040104 J0.000513
G02 X25.197704 Y16.254222 Z-0.200000 I-0.735464 J0.735465
G01 X25.097934 Y16.254222 Z-0.200000
G01 X25.097934 Y15.566856 Z-0.200000
G02 X25.189606 Y15.579506 Z-0.200000 I0.187879 J-1.022994
G02 X25.282040 Y15.583958 Z-0.200000 I0.096207 J-1.035645
G01 X31.094604 Y15.583958 Z-0.200000
G01 X31.094604 Y15.757040 Z-0.200000
G02 X31.104401 Y15.895843 Z-0.200000 I1.040098 J-0.003668
G02 X31.132639 Y16.032096 Z-0.200000 I1.030300 J-0.142471
G01 X30.653631 Y16.032096 Z-0.200000
G02 X30.253069 Y16.112676 Z-0.200000 I0.000848 J1.040104
G02 X29.914452 Y16.341327 Z-0.200000 I0.401410 J0.959524
G02 X29.600752 Y16.154911 Z-0.200000 I-0.679953 J0.787071
G02 X29.241970 Y16.088320 Z-0.200000 I-0.366253 J0.973486
G01 X27.971970 Y16.081152 Z-0.200000
G02 X27.235042 Y16.381694 Z-0.200000 I-0.005569 J1.040089
G02 X26.926315 Y17.115231 Z-0.200000 I0.731360 J0.739547
G01 X26.876706 Y25.850892 Z-0.200000
G02 X26.777703 Y25.835895 Z-0.200000 I-0.205101 J1.019681
G02 X26.677717 Y25.830488 Z-0.200000 I-0.106098 J1.034678
G01 X26.531094 Y25.830488 Z-0.200000
G02 X26.382632 Y25.841720 Z-0.200000 I0.004038 J1.040096
G02 X26.237296 Y25.874034 Z-0.200000 I0.152499 J1.028864
G01 X26.237296 Y25.874032 Z-0.200000
G00 Z2.0

(Change tool to Isolate micro endmill)

G00 Z2.0
G00 X47.174105 Y20.212499

G01 Z-0.200000 F100.0(Penetrate)
G01 X47.174105 Y19.537259 Z-0.200000 F400.000000
G01 X52.471286 Y12.701640 Z-0.200000
G01 X53.030216 Y12.701640 Z-0.200000
G01 X47.174105 Y20.212499 Z-0.200000
G00 Z2.0

(Change tool to Isolate micro endmill)

G00 Z2.0
G00 X58.422204 Y14.299613

G01 Z-0.200000 F100.0(Penetrate)
G02 X58.276868 Y14.267299 Z-0.200000 I-0.297835 J0.996549 F400.000000
G02 X58.128408 Y14.256066 Z-0.200000 I-0.152500 J1.028864
G01 X56.061900 Y14.256066 Z-0.200000
G02 X56.224272 Y13.513475 Z-0.200000 I-0.864644 J-0.578107
G02 X55.838107 Y12.858736 Z-0.200000 I-1.027016 J0.164485
G01 X55.529979 Y12.618407 Z-0.200000
G02 X55.707443 Y12.521924 Z-0.200000 I-0.405722 J-0.957709
G02 X55.862911 Y12.392959 Z-0.200000 I-0.583186 J-0.861226
G02 X56.180811 Y12.583443 Z-0.200000 I0.684999 J-0.782683
G02 X56.545316 Y12.650377 Z-0.200000 I0.367099 J-0.973167
G01 X58.422204 Y12.650377 Z-0.200000
G01 X58.422204 Y14.299613 Z-0.200000
G00 Z2.0

(Change tool to Isolate micro endmill)

G00 Z2.0
G00 X55.817160 Y4.550819

G01 Z-0.200000 F100.0(Penetrate)
G02 X55.476459 Y4.317726 Z-0.200000 I-0.745969 J0.724808 F400.000000
G02 X55.071919 Y4.235523 Z-0.200000 I-0.405268 J0.957901
G01 X54.329982 Y4.235523 Z-0.200000
G02 X54.362018 Y4.090167 Z-0.200000 I-0.997105 J-0.295969
G02 X54.372978 Y3.941727 Z-0.200000 I-1.029141 J-0.150613
G01 X54.372978 Y2.796853 Z-0.200000
G01 X57.250872 Y2.796853 Z-0.200000
G01 X57.250872 Y3.902589 Z-0.200000
G02 X57.262104 Y4.051051 Z-0.200000 I1.040096 J-0.004036
G02 X57.294419 Y4.196388 Z-0.200000 I1.028864 J-0.152498
G01 X56.597682 Y4.196388 Z-0.200000
G02 X56.169210 Y4.289454 Z-0.200000 I0.001572 J1.040103
G02 X55.817160 Y4.550819 Z-0.200000 I0.430045 J0.947036
G01 X55.817160 Y4.550819 Z-0.200000
G00 Z2.0

(End cutting path id: path1899)

(Start cutting path id: path1897)
(Change tool to Isolate micro endmill)

G00 Z2.0
G00 X37.796281 Y85.707361

G01 Z-0.200000 F100.0(Penetrate)
G03 X36.849626 Y85.388784 Z-0.200000 I0.001348 J-1.569790 F400.000000
G03 X36.287052 Y84.563590 Z-0.200000 I0.947139 J-1.250074
G02 X36.287052 Y84.563308 Z-0.200000 I-0.400040 J-0.000282
G02 X36.287052 Y84.563026 Z-0.200000 I-0.400040 J-0.000001
G01 X33.158907 Y73.481395 Z-0.200000
G02 X33.015341 Y73.271352 Z-0.200000 I-0.384904 J0.108998
G02 X32.774159 Y73.190354 Z-0.200000 I-0.241339 J0.319042
G01 X9.131984 Y73.190354 Z-0.200000
G03 X8.022344 Y72.730962 Z-0.200000 I-0.000096 J-1.569605
G03 X7.562674 Y71.621593 Z-0.200000 I1.108601 J-1.109270
G01 X7.562674 Y62.998934 Z-0.200000
G02 X7.445700 Y62.716115 Z-0.200000 I-0.400040 J-0.000143
G02 X7.163042 Y62.598751 Z-0.200000 I-0.283066 J0.282676
G01 X5.993915 Y62.598751 Z-0.200000
G01 X5.993350 Y62.598751 Z-0.200000
G01 X5.992786 Y62.598751 Z-0.200000
G03 X4.884551 Y62.138520 Z-0.200000 I0.002250 J-1.569844
G03 X4.425681 Y61.029994 Z-0.200000 I1.109298 J-1.108427
G01 X4.425681 Y30.075948 Z-0.200000
G02 X4.425681 Y30.075666 Z-0.200000 I-0.400040 J-0.000282
G02 X4.425681 Y30.075384 Z-0.200000 I-0.400040 J0.000000
G03 X4.884552 Y28.966756 Z-0.200000 I1.568397 J-0.000106
G03 X5.992786 Y28.506623 Z-0.200000 I1.110151 J1.109147
G01 X5.993887 Y28.506623 Z-0.200000
G01 X16.763531 Y28.506623 Z-0.200000
G02 X17.044832 Y28.390628 Z-0.200000 I-0.000392 J-0.400040
G02 X17.163162 Y28.110301 Z-0.200000 I-0.281693 J-0.284045
G01 X17.271200 Y15.690870 Z-0.200000
G02 X17.271200 Y15.690587 Z-0.200000 I-0.400040 J-0.000282
G02 X17.271200 Y15.690305 Z-0.200000 I-0.400040 J0.000000
G03 X17.735563 Y14.589904 Z-0.200000 I1.569063 J0.013955
G03 X18.839959 Y14.135329 Z-0.200000 I1.104232 J1.113885
G01 X24.057763 Y14.135329 Z-0.200000
G03 X24.570366 Y14.289508 Z-0.200000 I-0.000000 J0.929220
G03 X24.914351 Y14.701427 Z-0.200000 I-0.516461 J0.780874
G02 X25.061797 Y14.877848 Z-0.200000 I0.367728 J-0.157507
G02 X25.282012 Y14.943960 Z-0.200000 I0.220281 J-0.333928
G01 X31.734537 Y14.943960 Z-0.200000
G01 X31.734537 Y15.757003 Z-0.200000
G02 X31.829886 Y16.016525 Z-0.200000 I0.400040 J0.000301
G02 X32.070779 Y16.152224 Z-0.200000 I0.304690 J-0.259221
G03 X32.633173 Y16.467935 Z-0.200000 I-0.148161 J0.922695
G03 X32.856813 Y17.072754 Z-0.200000 I-0.709546 J0.606122
G01 X32.856813 Y23.670802 Z-0.200000
G02 X32.887542 Y23.824225 Z-0.200000 I0.400040 J-0.000335
G02 X32.974771 Y23.954125 Z-0.200000 I0.369311 J-0.153758
G01 X37.706955 Y28.662607 Z-0.200000
G02 X37.911676 Y28.771225 Z-0.200000 I0.281815 J-0.283923
G02 X38.142271 Y28.748102 Z-0.200000 I0.077094 J-0.392541
G02 X38.321349 Y28.600997 Z-0.200000 I-0.153501 J-0.369418
G02 X38.388809 Y28.379282 Z-0.200000 I-0.332579 J-0.222313
G01 X38.388809 Y16.726038 Z-0.200000
G01 X38.388809 Y16.724909 Z-0.200000
G03 X38.472073 Y16.222562 Z-0.200000 I1.562830 J0.000965
G03 X38.711821 Y15.773510 Z-0.200000 I1.489387 J0.506653
G01 X38.711841 Y15.773324 Z-0.200000
G01 X38.711821 Y15.772946 Z-0.200000
G02 X38.712103 Y15.772663 Z-0.200000 I-0.282589 J-0.283153
G02 X38.712385 Y15.772381 Z-0.200000 I-0.282871 J-0.282871
G01 X47.005420 Y4.956435 Z-0.200000
G03 X47.556510 Y4.503745 Z-0.200000 I1.245506 J0.954455
G03 X48.250616 Y4.341831 Z-0.200000 I0.693974 J1.406249
G01 X53.333370 Y4.341831 Z-0.200000
G02 X53.616028 Y4.224467 Z-0.200000 I-0.000408 J-0.400040
G02 X53.733003 Y3.941648 Z-0.200000 I-0.283066 J-0.282676
G01 X53.733003 Y2.156813 Z-0.200000
G01 X57.890833 Y2.156813 Z-0.200000
G01 X57.890833 Y3.902510 Z-0.200000
G02 X58.008197 Y4.185168 Z-0.200000 I0.400040 J-0.000408
G02 X58.291016 Y4.302142 Z-0.200000 I0.282676 J-0.283066
G01 X64.698341 Y4.302142 Z-0.200000
G03 X65.807663 Y4.761605 Z-0.200000 I0.000079 J1.568708
G03 X66.267101 Y5.870900 Z-0.200000 I-1.109181 J1.109182
G02 X66.267101 Y5.871182 Z-0.200000 I0.400040 J0.000282
G02 X66.267101 Y5.871464 Z-0.200000 I0.400040 J0.000001
G01 X66.267101 Y32.936685 Z-0.200000
G02 X66.267101 Y32.936967 Z-0.200000 I0.400040 J0.000282
G02 X66.267101 Y32.937249 Z-0.200000 I0.400040 J-0.000000
G03 X66.176970 Y33.464106 Z-0.200000 I-1.570311 J0.002500
G03 X65.914874 Y33.930539 Z-0.200000 I-1.477648 J-0.523460
G02 X65.914591 Y33.930821 Z-0.200000 I0.282589 J0.283153
G02 X65.914309 Y33.931104 Z-0.200000 I0.282871 J0.282871
G01 X57.103684 Y44.732716 Z-0.200000
G02 X57.014081 Y44.965558 Z-0.200000 I0.309932 J0.252931
G02 X57.079876 Y45.206214 Z-0.200000 I0.399535 J0.020089
G02 X57.275479 Y45.361081 Z-0.200000 I0.333740 J-0.220567
G02 X57.524811 Y45.369923 Z-0.200000 I0.138137 J-0.375433
G03 X57.964314 Y45.350881 Z-0.200000 I0.258999 J0.896333
G03 X58.363761 Y45.535285 Z-0.200000 I-0.180661 J0.916171
G01 X58.363761 Y45.534721 Z-0.200000
G01 X59.357604 Y46.325163 Z-0.200000
G03 X59.704476 Y46.950022 Z-0.200000 I-0.581514 J0.731517
G03 X59.508085 Y47.637056 Z-0.200000 I-0.927254 J0.106529
G01 X53.704891 Y54.944518 Z-0.200000
G02 X53.704608 Y54.944518 Z-0.200000 I-0.000282 J0.400040
G02 X53.704326 Y54.944518 Z-0.200000 I-0.000000 J0.400040
G03 X53.158113 Y55.382149 Z-0.200000 I-1.231326 J-0.977152
G03 X52.476216 Y55.538728 Z-0.200000 I-0.682603 J-1.409601
G01 X52.475652 Y55.538728 Z-0.200000
G01 X51.034224 Y55.538728 Z-0.200000
G02 X50.794396 Y55.618690 Z-0.200000 I0.000134 J0.400040
G02 X50.650400 Y55.826481 Z-0.200000 I0.239963 J0.320078
G02 X50.659746 Y56.079116 Z-0.200000 I0.383958 J0.112287
G02 X50.818700 Y56.275701 Z-0.200000 I0.374612 J-0.140348
G01 X66.226269 Y66.136393 Z-0.200000
G01 X66.196503 Y66.106076 Z-0.200000
G02 X66.228399 Y66.134879 Z-0.200000 I0.283668 J-0.282072
G02 X66.263201 Y66.160094 Z-0.200000 I0.251772 J-0.310874
G03 X66.793445 Y66.728249 Z-0.200000 I-0.846824 J1.321827
G03 X66.985842 Y67.480806 Z-0.200000 I-1.374528 J0.752282
G01 X66.985842 Y81.486084 Z-0.200000
G03 X66.526392 Y82.595391 Z-0.200000 I-1.568676 J0.000090
G03 X65.417085 Y83.054842 Z-0.200000 I-1.109206 J-1.109198
G01 X58.290973 Y83.054842 Z-0.200000
G02 X58.137808 Y83.085266 Z-0.200000 I-0.000143 J0.400040
G02 X58.007960 Y83.172011 Z-0.200000 I0.153023 J0.369616
G02 X57.921215 Y83.301859 Z-0.200000 I0.282871 J0.282871
G02 X57.890791 Y83.455024 Z-0.200000 I0.369616 J0.153023
G01 X57.890791 Y85.589330 Z-0.200000
G01 X55.842476 Y85.589330 Z-0.200000
G02 X55.758472 Y85.598248 Z-0.200000 I-0.000004 J0.400040
G02 X55.678214 Y85.624608 Z-0.200000 I0.083999 J0.391122
G03 X55.492115 Y85.686027 Z-0.200000 I-0.385301 J-0.854806
G03 X55.297324 Y85.707290 Z-0.200000 I-0.197937 J-0.910403
G01 X37.807262 Y85.707290 Z-0.200000
G01 X37.806698 Y85.707290 Z-0.200000
G02 X37.801462 Y85.707256 Z-0.200000 I-0.005235 J0.400006
G02 X37.796227 Y85.707290 Z-0.200000 I-0.000000 J0.400040
G01 X37.796281 Y85.707361 Z-0.200000
G00 Z2.0

(Change tool to Isolate micro endmill)

G00 Z2.0
G00 X37.796281 Y85.173786

G01 Z-0.200000 F100.0(Penetrate)
G02 X37.796563 Y85.173786 Z-0.200000 I0.000282 J-0.400040 F400.000000
G02 X37.796845 Y85.173786 Z-0.200000 I0.000000 J-0.400040
G01 X55.299034 Y85.173786 Z-0.200000
G02 X55.452199 Y85.143362 Z-0.200000 I0.000143 J-0.400040
G02 X55.582048 Y85.056617 Z-0.200000 I-0.153023 J-0.369616
G02 X55.668793 Y84.926769 Z-0.200000 I-0.282871 J-0.282871
G02 X55.699217 Y84.773603 Z-0.200000 I-0.369616 J-0.153023
G01 X55.699217 Y83.504154 Z-0.200000
G02 X55.668793 Y83.350988 Z-0.200000 I-0.400040 J-0.000143
G02 X55.582048 Y83.221140 Z-0.200000 I-0.369616 J0.153023
G02 X55.452199 Y83.134395 Z-0.200000 I-0.282871 J0.282871
G02 X55.299034 Y83.103971 Z-0.200000 I-0.153023 J0.369616
G01 X38.580122 Y83.103971 Z-0.200000
G01 X35.260703 Y71.340486 Z-0.200000
G02 X35.260703 Y71.340204 Z-0.200000 I-0.400040 J-0.000282
G02 X35.260703 Y71.339921 Z-0.200000 I-0.400040 J-0.000000
G02 X34.889199 Y70.795932 Z-0.200000 I-0.995678 J0.281125
G02 X34.264659 Y70.586411 Z-0.200000 I-0.624268 J0.825238
G01 X10.166615 Y70.586411 Z-0.200000
G01 X10.166615 Y60.030636 Z-0.200000
G02 X10.049641 Y59.747818 Z-0.200000 I-0.400040 J-0.000143
G02 X9.766984 Y59.630454 Z-0.200000 I-0.283066 J0.282676
G01 X8.496432 Y59.630454 Z-0.200000
G02 X8.226768 Y59.735433 Z-0.200000 I0.000468 J0.400040
G02 X8.098455 Y59.994808 Z-0.200000 I0.270132 J0.295060
G01 X7.029097 Y59.994808 Z-0.200000
G01 X7.029097 Y31.110577 Z-0.200000
G01 X17.671410 Y31.110577 Z-0.200000
G01 X17.658733 Y32.601061 Z-0.200000
G01 X14.730126 Y32.601061 Z-0.200000
G02 X14.576960 Y32.631485 Z-0.200000 I-0.000142 J0.400040
G02 X14.447112 Y32.718230 Z-0.200000 I0.153023 J0.369616
G02 X14.360367 Y32.848078 Z-0.200000 I0.282871 J0.282871
G02 X14.329944 Y33.001243 Z-0.200000 I0.369616 J0.153023
G01 X14.329944 Y34.270693 Z-0.200000
G02 X14.360367 Y34.423858 Z-0.200000 I0.400040 J0.000143
G02 X14.447112 Y34.553707 Z-0.200000 I0.369616 J-0.153023
G02 X14.576960 Y34.640452 Z-0.200000 I0.282871 J-0.282871
G02 X14.730126 Y34.670876 Z-0.200000 I0.153023 J-0.369616
G01 X22.154444 Y34.670876 Z-0.200000
G02 X22.437102 Y34.553512 Z-0.200000 I-0.000409 J-0.400040
G02 X22.554076 Y34.270693 Z-0.200000 I-0.283066 J-0.282676
G01 X22.554076 Y33.001243 Z-0.200000
G02 X22.437097 Y32.718434 Z-0.200000 I-0.400040 J-0.000129
G02 X22.154444 Y32.601075 Z-0.200000 I-0.283061 J0.282681
G01 X19.727995 Y32.601075 Z-0.200000
G01 X19.866350 Y16.739305 Z-0.200000
G01 X24.057791 Y16.739305 Z-0.200000
G02 X24.340610 Y16.622331 Z-0.200000 I0.000142 J-0.400040
G02 X24.457973 Y16.339673 Z-0.200000 I-0.282676 J-0.283065
G01 X24.457973 Y15.069123 Z-0.200000
G02 X24.340609 Y14.786467 Z-0.200000 I-0.400040 J0.000410
G02 X24.057791 Y14.669493 Z-0.200000 I-0.282675 J0.283066
G01 X18.839987 Y14.669493 Z-0.200000
G02 X18.111584 Y14.969404 Z-0.200000 I-0.000109 J1.034240
G02 X17.805356 Y15.695303 Z-0.200000 I0.729063 J0.735105
G01 X17.689049 Y29.040777 Z-0.200000
G01 X5.993915 Y29.040777 Z-0.200000
G02 X5.262267 Y29.344159 Z-0.200000 I0.000516 J1.035170
G02 X4.959284 Y30.075959 Z-0.200000 I0.732106 J0.731730
G01 X4.959284 Y61.030005 Z-0.200000
G02 X5.262280 Y61.761740 Z-0.200000 I1.034912 J0.000065
G02 X5.993915 Y62.065188 Z-0.200000 I0.732414 J-0.732168
G01 X8.096801 Y62.065188 Z-0.200000
G01 X8.096801 Y71.621605 Z-0.200000
G02 X8.399982 Y72.353609 Z-0.200000 I1.035116 J0.000065
G02 X9.131984 Y72.656787 Z-0.200000 I0.731940 J-0.731945
G01 X33.480815 Y72.656787 Z-0.200000
G01 X36.800784 Y84.419172 Z-0.200000
G02 X37.171854 Y84.963594 Z-0.200000 I0.996298 J-0.280392
G02 X37.796281 Y85.173786 Z-0.200000 I0.625243 J-0.824835
G01 X37.796281 Y85.173786 Z-0.200000
G00 Z2.0

(Change tool to Isolate micro endmill)

G00 Z2.0
G00 X56.398143 Y82.521337

G01 Z-0.200000 F100.0(Penetrate)
G01 X65.417127 Y82.521337 Z-0.200000 F400.000000
G02 X66.149129 Y82.218158 Z-0.200000 I0.000057 J-1.035133
G02 X66.452309 Y81.486155 Z-0.200000 I-0.731928 J-0.731936
G01 X66.452309 Y67.481427 Z-0.200000
G02 X66.325378 Y66.984462 Z-0.200000 I-1.035588 J-0.000191
G02 X65.975506 Y66.609406 Z-0.200000 I-0.908267 J0.496562
G01 X49.203680 Y55.875591 Z-0.200000
G02 X49.203398 Y55.875591 Z-0.200000 I-0.000282 J0.400040
G02 X49.203116 Y55.875591 Z-0.200000 I-0.000000 J0.400040
G02 X48.935843 Y55.754359 Z-0.200000 I-0.556962 J0.872657
G02 X48.645284 Y55.712981 Z-0.200000 I-0.289834 J0.994386
G01 X36.336111 Y55.712981 Z-0.200000
G02 X36.053292 Y55.829955 Z-0.200000 I-0.000143 J0.400040
G02 X35.935928 Y56.112613 Z-0.200000 I0.282676 J0.283066
G01 X35.935928 Y57.383163 Z-0.200000
G02 X36.053292 Y57.665821 Z-0.200000 I0.400040 J-0.000408
G02 X36.336111 Y57.782796 Z-0.200000 I0.282676 J-0.283066
G01 X48.342682 Y57.782796 Z-0.200000
G01 X64.382495 Y68.047525 Z-0.200000
G01 X64.382495 Y80.450972 Z-0.200000
G01 X56.398143 Y80.450972 Z-0.200000
G02 X56.244977 Y80.481396 Z-0.200000 I-0.000143 J0.400040
G02 X56.115129 Y80.568141 Z-0.200000 I0.153023 J0.369616
G02 X56.028384 Y80.697989 Z-0.200000 I0.282871 J0.282871
G02 X55.997960 Y80.851155 Z-0.200000 I0.369616 J0.153023
G01 X55.997960 Y82.121155 Z-0.200000
G02 X56.028384 Y82.274320 Z-0.200000 I0.400040 J0.000143
G02 X56.115129 Y82.404168 Z-0.200000 I0.369616 J-0.153023
G02 X56.244977 Y82.490913 Z-0.200000 I0.282871 J-0.282871
G02 X56.398143 Y82.521337 Z-0.200000 I0.153023 J-0.369616
G01 X56.398143 Y82.521337 Z-0.200000
G00 Z2.0

(Change tool to Isolate micro endmill)

G00 Z2.0
G00 X39.716162 Y82.507565

G01 Z-0.200000 F100.0(Penetrate)
G01 X55.135308 Y82.507565 Z-0.200000 F400.000000
G02 X55.418128 Y82.390590 Z-0.200000 I0.000143 J-0.400040
G02 X55.535491 Y82.107932 Z-0.200000 I-0.282676 J-0.283066
G01 X55.535491 Y80.837382 Z-0.200000
G02 X55.505067 Y80.684217 Z-0.200000 I-0.400040 J-0.000143
G02 X55.418322 Y80.554368 Z-0.200000 I-0.369616 J0.153023
G02 X55.288474 Y80.467623 Z-0.200000 I-0.282871 J0.282871
G02 X55.135308 Y80.437199 Z-0.200000 I-0.153023 J0.369616
G01 X40.506605 Y80.437199 Z-0.200000
G01 X37.480435 Y69.337377 Z-0.200000
G02 X37.236681 Y68.901690 Z-0.200000 I-0.997989 J0.272314
G02 X36.817322 Y68.630721 Z-0.200000 I-0.755411 J0.709105
G01 X30.427634 Y66.441845 Z-0.200000
G01 X30.427634 Y59.086428 Z-0.200000
G02 X30.124453 Y58.354425 Z-0.200000 I-1.035108 J-0.000067
G02 X29.392451 Y58.051245 Z-0.200000 I-0.731946 J0.731954
G01 X20.915312 Y58.051245 Z-0.200000
G02 X20.632655 Y58.168609 Z-0.200000 I0.000409 J0.400040
G02 X20.515681 Y58.451428 Z-0.200000 I0.283066 J0.282676
G01 X20.515681 Y59.720878 Z-0.200000
G02 X20.632656 Y60.003695 Z-0.200000 I0.400040 J0.000140
G02 X20.915312 Y60.121058 Z-0.200000 I0.283065 J-0.282677
G01 X28.357821 Y60.121058 Z-0.200000
G01 X28.357821 Y67.181575 Z-0.200000
G02 X28.550990 Y67.783225 Z-0.200000 I1.035424 J-0.000603
G02 X29.057865 Y68.160533 Z-0.200000 I0.842081 J-0.602129
G01 X35.627248 Y70.411145 Z-0.200000
G01 X38.717361 Y81.744681 Z-0.200000
G02 X39.087682 Y82.295102 Z-0.200000 I0.998298 J-0.271865
G02 X39.716162 Y82.507565 Z-0.200000 I0.628255 J-0.822649
G01 X39.716162 Y82.507565 Z-0.200000
G00 Z2.0

(Change tool to Isolate micro endmill)

G00 Z2.0
G00 X56.415782 Y80.072295

G01 Z-0.200000 F100.0(Penetrate)
G01 X63.095409 Y80.072295 Z-0.200000 F400.000000
G02 X63.095691 Y80.072295 Z-0.200000 I0.000282 J-0.400040
G02 X63.095973 Y80.072295 Z-0.200000 I0.000000 J-0.400040
G02 X63.827022 Y79.769037 Z-0.200000 I-0.000515 J-1.034023
G02 X64.130052 Y79.037665 Z-0.200000 I-0.732946 J-0.732146
G01 X64.130052 Y68.690803 Z-0.200000
G02 X63.998645 Y68.186715 Z-0.200000 I-1.035694 J0.000816
G02 X63.638368 Y67.810512 Z-0.200000 I-0.903062 J0.504220
G01 X48.060474 Y58.205584 Z-0.200000
G02 X47.799432 Y58.090630 Z-0.200000 I-0.544624 J0.882883
G02 X47.516976 Y58.051245 Z-0.200000 I-0.282654 J0.994571
G01 X36.171863 Y58.051245 Z-0.200000
G02 X35.889205 Y58.168609 Z-0.200000 I0.000408 J0.400040
G02 X35.772231 Y58.451428 Z-0.200000 I0.283066 J0.282676
G01 X35.772231 Y59.720878 Z-0.200000
G02 X35.889206 Y60.003695 Z-0.200000 I0.400040 J0.000140
G02 X36.171863 Y60.121058 Z-0.200000 I0.283065 J-0.282677
G01 X47.223728 Y60.121058 Z-0.200000
G01 X62.060240 Y69.268475 Z-0.200000
G01 X62.060240 Y78.002482 Z-0.200000
G01 X56.415796 Y78.002482 Z-0.200000
G02 X56.262630 Y78.032906 Z-0.200000 I-0.000143 J0.400040
G02 X56.132782 Y78.119651 Z-0.200000 I0.153023 J0.369616
G02 X56.046037 Y78.249500 Z-0.200000 I0.282871 J0.282871
G02 X56.015613 Y78.402665 Z-0.200000 I0.369616 J0.153023
G01 X56.015613 Y79.672112 Z-0.200000
G02 X56.046037 Y79.825277 Z-0.200000 I0.400040 J0.000143
G02 X56.132782 Y79.955126 Z-0.200000 I0.369616 J-0.153023
G02 X56.262630 Y80.041871 Z-0.200000 I0.282871 J-0.282871
G02 X56.415796 Y80.072295 Z-0.200000 I0.153023 J-0.369616
G01 X56.415782 Y80.072295 Z-0.200000
G00 Z2.0

(Change tool to Isolate micro endmill)

G00 Z2.0
G00 X41.948585 Y79.969219

G01 Z-0.200000 F100.0(Penetrate)
G01 X54.915923 Y79.969219 Z-0.200000 F400.000000
G02 X55.198742 Y79.852244 Z-0.200000 I0.000143 J-0.400040
G02 X55.316106 Y79.569586 Z-0.200000 I-0.282676 J-0.283066
G01 X55.316106 Y78.299036 Z-0.200000
G02 X55.285682 Y78.145871 Z-0.200000 I-0.400040 J-0.000143
G02 X55.198937 Y78.016022 Z-0.200000 I-0.369616 J0.153023
G02 X55.069088 Y77.929277 Z-0.200000 I-0.282871 J0.282871
G02 X54.915923 Y77.898853 Z-0.200000 I-0.153023 J0.369616
G01 X42.745090 Y77.898853 Z-0.200000
G01 X42.428143 Y76.700512 Z-0.200000
G02 X42.796826 Y77.233199 Z-0.200000 I1.011936 J-0.306451
G02 X43.410409 Y77.441346 Z-0.200000 I0.613664 J-0.800539
G01 X55.135308 Y77.441346 Z-0.200000
G02 X55.288474 Y77.410922 Z-0.200000 I0.000143 J-0.400040
G02 X55.418322 Y77.324177 Z-0.200000 I-0.153023 J-0.369616
G02 X55.505067 Y77.194328 Z-0.200000 I-0.282871 J-0.282871
G02 X55.535491 Y77.041163 Z-0.200000 I-0.369616 J-0.153023
G01 X55.535491 Y75.771713 Z-0.200000
G02 X55.505067 Y75.618548 Z-0.200000 I-0.400040 J-0.000143
G02 X55.418322 Y75.488700 Z-0.200000 I-0.369616 J0.153023
G02 X55.288474 Y75.401955 Z-0.200000 I-0.282871 J0.282871
G02 X55.135308 Y75.371531 Z-0.200000 I-0.153023 J0.369616
G01 X44.204709 Y75.371531 Z-0.200000
G01 X41.100815 Y63.788293 Z-0.200000
G02 X40.730899 Y63.234713 Z-0.200000 I-0.999940 J0.267802
G02 X40.100360 Y63.021001 Z-0.200000 I-0.629770 J0.821050
G01 X36.171849 Y63.021001 Z-0.200000
G02 X36.018686 Y63.051424 Z-0.200000 I-0.000143 J0.400040
G02 X35.888839 Y63.138167 Z-0.200000 I0.153021 J0.369617
G02 X35.802093 Y63.268012 Z-0.200000 I0.282868 J0.282874
G02 X35.771667 Y63.421175 Z-0.200000 I0.369614 J0.153029
G01 X35.771667 Y64.691175 Z-0.200000
G02 X35.802090 Y64.844341 Z-0.200000 I0.400040 J0.000143
G02 X35.888836 Y64.974189 Z-0.200000 I0.369616 J-0.153023
G02 X36.018684 Y65.060934 Z-0.200000 I0.282871 J-0.282871
G02 X36.171849 Y65.091358 Z-0.200000 I0.153023 J-0.369616
G01 X39.306610 Y65.091358 Z-0.200000
G01 X39.671515 Y66.453410 Z-0.200000
G02 X39.308789 Y65.986589 Z-0.200000 I-1.052784 J0.443695
G02 X38.747677 Y65.798017 Z-0.200000 I-0.561018 J0.740250
G01 X36.336111 Y65.798017 Z-0.200000
G02 X36.182946 Y65.828441 Z-0.200000 I-0.000143 J0.400040
G02 X36.053097 Y65.915186 Z-0.200000 I0.153023 J0.369616
G02 X35.966352 Y66.045034 Z-0.200000 I0.282871 J0.282871
G02 X35.935928 Y66.198199 Z-0.200000 I0.369616 J0.153023
G01 X35.935928 Y67.467646 Z-0.200000
G02 X35.966352 Y67.620812 Z-0.200000 I0.400040 J0.000143
G02 X36.053097 Y67.750660 Z-0.200000 I0.369616 J-0.153023
G02 X36.182946 Y67.837405 Z-0.200000 I0.282871 J-0.282871
G02 X36.336111 Y67.867829 Z-0.200000 I0.153023 J-0.369616
G01 X37.950620 Y67.867829 Z-0.200000
G01 X40.947577 Y79.198611 Z-0.200000
G02 X41.316890 Y79.754250 Z-0.200000 I1.000248 J-0.264275
G02 X41.948585 Y79.969210 Z-0.200000 I0.631826 J-0.821073
G01 X41.948585 Y79.969219 Z-0.200000
G00 Z2.0

(Change tool to Isolate micro endmill)

G00 Z2.0
G00 X56.561301 Y77.587418

G01 Z-0.200000 F100.0(Penetrate)
G01 X60.784161 Y77.587418 Z-0.200000 F400.000000
G02 X61.516162 Y77.284235 Z-0.200000 I0.000057 J-1.035122
G02 X61.819344 Y76.552236 Z-0.200000 I-0.731953 J-0.731948
G01 X61.819344 Y70.741322 Z-0.200000
G02 X61.692730 Y70.245548 Z-0.200000 I-1.035638 J0.000433
G02 X61.344197 Y69.870955 Z-0.200000 I-0.908669 J0.496013
G02 X61.343915 Y69.870955 Z-0.200000 I-0.000282 J0.400040
G02 X61.343633 Y69.870955 Z-0.200000 I-0.000000 J0.400040
G01 X46.889114 Y60.585183 Z-0.200000
G02 X46.621503 Y60.462320 Z-0.200000 I-0.562979 J0.873357
G02 X46.330181 Y60.419818 Z-0.200000 I-0.292876 J0.987814
G02 X46.329899 Y60.419818 Z-0.200000 I-0.000282 J0.400040
G02 X46.329617 Y60.419818 Z-0.200000 I-0.000000 J0.400040
G01 X36.020787 Y60.419818 Z-0.200000
G02 X35.867621 Y60.450242 Z-0.200000 I-0.000143 J0.400040
G02 X35.737773 Y60.536987 Z-0.200000 I0.153023 J0.369616
G02 X35.651028 Y60.666835 Z-0.200000 I0.282871 J0.282871
G02 X35.620604 Y60.820001 Z-0.200000 I0.369616 J0.153023
G01 X35.620604 Y62.090551 Z-0.200000
G02 X35.737968 Y62.373209 Z-0.200000 I0.400040 J-0.000408
G02 X36.020787 Y62.490183 Z-0.200000 I0.282676 J-0.283066
G01 X46.025345 Y62.490183 Z-0.200000
G01 X59.748950 Y71.306870 Z-0.200000
G01 X59.748950 Y75.517603 Z-0.200000
G01 X56.561273 Y75.517603 Z-0.200000
G02 X56.278811 Y75.634773 Z-0.200000 I0.000410 J0.400040
G02 X56.161643 Y75.917236 Z-0.200000 I0.282872 J0.282870
G01 X56.161643 Y77.187777 Z-0.200000
G02 X56.278811 Y77.470240 Z-0.200000 I0.400040 J-0.000407
G02 X56.561273 Y77.587410 Z-0.200000 I0.282872 J-0.282870
G01 X56.561301 Y77.587418 Z-0.200000
G00 Z2.0

(Change tool to Isolate micro endmill)

G00 Z2.0
G00 X58.291016 Y74.983475

G01 Z-0.200000 F100.0(Penetrate)
G01 X58.815221 Y74.983475 Z-0.200000 F400.000000
G02 X59.097683 Y74.866307 Z-0.200000 I-0.000407 J-0.400040
G02 X59.214853 Y74.583846 Z-0.200000 I-0.282870 J-0.282872
G01 X59.214853 Y71.816744 Z-0.200000
G02 X59.165941 Y71.625223 Z-0.200000 I-0.400040 J0.000159
G02 X59.031299 Y71.480502 Z-0.200000 I-0.351128 J0.191680
G01 X45.967495 Y63.087698 Z-0.200000
G02 X45.864009 Y63.040486 Z-0.200000 I-0.216099 J0.336650
G02 X45.751420 Y63.024309 Z-0.200000 I-0.112614 J0.383862
G01 X41.945278 Y63.024309 Z-0.200000
G02 X41.761560 Y63.068938 Z-0.200000 I-0.000100 J0.400040
G02 X41.618855 Y63.192950 Z-0.200000 I0.183618 J0.355410
G02 X41.549035 Y63.368646 Z-0.200000 I0.326323 J0.231399
G02 X41.567695 Y63.556783 Z-0.200000 I0.396143 J0.055703
G02 X41.610322 Y63.652297 Z-0.200000 I0.604127 J-0.212346
G01 X41.616201 Y63.649939 Z-0.200000
G01 X44.534336 Y74.541402 Z-0.200000
G02 X44.677201 Y74.755266 Z-0.200000 I0.386423 J-0.103487
G02 X44.920738 Y74.837956 Z-0.200000 I0.243558 J-0.317350
G01 X53.059431 Y74.837956 Z-0.200000
G02 X53.212597 Y74.807532 Z-0.200000 I0.000143 J-0.400040
G02 X53.342445 Y74.720787 Z-0.200000 I-0.153023 J-0.369616
G02 X53.429190 Y74.590939 Z-0.200000 I-0.282871 J-0.282871
G02 X53.459614 Y74.437773 Z-0.200000 I-0.369616 J-0.153023
G01 X53.459614 Y72.850273 Z-0.200000
G01 X57.890833 Y72.850273 Z-0.200000
G01 X57.891398 Y74.583846 Z-0.200000
G02 X58.008567 Y74.866307 Z-0.200000 I0.400040 J-0.000410
G02 X58.291030 Y74.983475 Z-0.200000 I0.282870 J-0.282872
G01 X58.291016 Y74.983475 Z-0.200000
G00 Z2.0

(Change tool to Isolate micro endmill)

G00 Z2.0
G00 X11.100373 Y70.052855

G01 Z-0.200000 F100.0(Penetrate)
G01 X30.531813 Y70.052855 Z-0.200000 F400.000000
G02 X30.791064 Y69.958336 Z-0.200000 I0.001007 J-0.400039
G02 X30.927439 Y69.718448 Z-0.200000 I-0.258244 J-0.305519
G02 X30.876051 Y69.447331 Z-0.200000 I-0.394620 J-0.065631
G02 X30.661350 Y69.273987 Z-0.200000 I-0.343231 J0.205485
G01 X28.884231 Y68.665445 Z-0.200000
G03 X28.116724 Y68.093704 Z-0.200000 I0.507916 J-1.482850
G03 X27.824245 Y67.182128 Z-0.200000 I1.277506 J-0.912597
G01 X27.824245 Y67.181563 Z-0.200000
G01 X27.824245 Y61.054807 Z-0.200000
G02 X27.793821 Y60.901641 Z-0.200000 I-0.400040 J-0.000143
G02 X27.707076 Y60.771793 Z-0.200000 I-0.369616 J0.153023
G02 X27.577228 Y60.685048 Z-0.200000 I-0.282871 J0.282871
G02 X27.424062 Y60.654624 Z-0.200000 I-0.153023 J0.369616
G01 X22.888663 Y60.654624 Z-0.200000
G02 X22.735498 Y60.685048 Z-0.200000 I-0.000142 J0.400040
G02 X22.605650 Y60.771793 Z-0.200000 I0.153023 J0.369616
G02 X22.518905 Y60.901641 Z-0.200000 I0.282871 J0.282871
G02 X22.488481 Y61.054807 Z-0.200000 I0.369616 J0.153023
G01 X22.488481 Y68.366126 Z-0.200000
G01 X20.066441 Y68.366126 Z-0.200000
G01 X20.066441 Y60.187193 Z-0.200000
G02 X20.060087 Y60.115772 Z-0.200000 I-0.400040 J-0.000407
G02 X20.041086 Y60.046633 Z-0.200000 I-0.393686 J0.071015
G03 X19.996716 Y59.886133 Z-0.200000 I0.880428 J-0.329778
G03 X19.981555 Y59.720313 Z-0.200000 I0.912578 J-0.167041
G01 X19.981555 Y58.493310 Z-0.200000
G02 X19.864386 Y58.210847 Z-0.200000 I-0.400040 J0.000407
G02 X19.581924 Y58.093678 Z-0.200000 I-0.282872 J0.282871
G01 X13.574228 Y58.093678 Z-0.200000
G01 X13.572563 Y58.093678 Z-0.200000
G03 X13.417989 Y58.079958 Z-0.200000 I0.005082 J-0.934908
G03 X13.268843 Y58.041311 Z-0.200000 I0.160737 J-0.927423
G02 X13.054277 Y58.027794 Z-0.200000 I-0.131509 J0.377806
G02 X12.863700 Y58.127301 Z-0.200000 I0.083057 J0.391323
G03 X12.568847 Y58.314210 Z-0.200000 I-0.638377 J-0.681033
G03 X12.225944 Y58.379758 Z-0.200000 I-0.343725 J-0.868452
G01 X10.956495 Y58.379758 Z-0.200000
G03 X10.682251 Y58.338391 Z-0.200000 I0.000662 J-0.934137
G03 X10.432290 Y58.218253 Z-0.200000 I0.274317 J-0.890857
G02 X10.258403 Y58.152214 Z-0.200000 I-0.225083 J0.330711
G02 X10.073448 Y58.171949 Z-0.200000 I-0.051196 J0.396751
G03 X9.922447 Y58.211542 Z-0.200000 I-0.311030 J-0.878468
G03 X9.766973 Y58.225419 Z-0.200000 I-0.160576 J-0.921205
G01 X8.496973 Y58.225419 Z-0.200000
G01 X8.496408 Y58.225419 Z-0.200000
G03 X8.306362 Y58.205326 Z-0.200000 I0.001897 J-0.926757
G03 X8.123787 Y58.146594 Z-0.200000 I0.193903 J-0.915920
G02 X7.930024 Y58.114059 Z-0.200000 I-0.161097 J0.366169
G02 X7.744141 Y58.177698 Z-0.200000 I0.032665 J0.398704
G02 X7.610976 Y58.322161 Z-0.200000 I0.218548 J0.335065
G02 X7.562650 Y58.512600 Z-0.200000 I0.351714 J0.190603
G01 X7.562650 Y58.809706 Z-0.200000
G02 X7.610976 Y59.000145 Z-0.200000 I0.400040 J-0.000163
G02 X7.744141 Y59.144608 Z-0.200000 I0.351714 J-0.190603
G02 X7.930024 Y59.208247 Z-0.200000 I0.218548 J-0.335065
G02 X8.123787 Y59.175712 Z-0.200000 I0.032665 J-0.398704
G03 X8.306824 Y59.116963 Z-0.200000 I0.372050 J0.844652
G03 X8.498062 Y59.096890 Z-0.200000 I0.194000 J0.927239
G01 X9.766960 Y59.096890 Z-0.200000
G03 X10.427203 Y59.370408 Z-0.200000 I-0.000086 J0.933847
G03 X10.700718 Y60.030648 Z-0.200000 I-0.660325 J0.660324
G01 X10.700718 Y69.652661 Z-0.200000
G02 X10.817692 Y69.935480 Z-0.200000 I0.400040 J0.000143
G02 X11.100349 Y70.052844 Z-0.200000 I0.283066 J-0.282676
G01 X11.100373 Y70.052855 Z-0.200000
G00 Z2.0

(Change tool to Isolate micro endmill)

G00 Z2.0
G00 X34.990044 Y67.421353

G01 Z-0.200000 F100.0(Penetrate)
G02 X35.146637 Y67.394369 Z-0.200000 I0.011717 J-0.399868 F400.000000
G02 X35.280372 Y67.308552 Z-0.200000 I-0.144877 J-0.372884
G02 X35.370148 Y67.177441 Z-0.200000 I-0.278612 J-0.287067
G02 X35.401800 Y67.021724 Z-0.200000 I-0.368388 J-0.155956
G01 X35.401800 Y66.198208 Z-0.200000
G03 X35.430749 Y65.968436 Z-0.200000 I0.929275 J0.000371
G03 X35.515352 Y65.752825 Z-0.200000 I0.909627 J0.232520
G02 X35.561465 Y65.518893 Z-0.200000 I-0.351598 J-0.190817
G02 X35.466294 Y65.300278 Z-0.200000 I-0.397710 J0.043114
G03 X35.297354 Y65.015953 Z-0.200000 I0.707587 J-0.612784
G03 X35.238092 Y64.690633 Z-0.200000 I0.872755 J-0.327046
G01 X35.238092 Y63.421184 Z-0.200000
G03 X35.258362 Y63.229664 Z-0.200000 I0.931830 J0.001794
G03 X35.317464 Y63.046359 Z-0.200000 I0.916890 J0.194444
G02 X35.348896 Y62.840165 Z-0.200000 I-0.366081 J-0.161297
G02 X35.272266 Y62.646176 Z-0.200000 I-0.397513 J0.044896
G03 X35.134542 Y62.382745 Z-0.200000 I0.752363 J-0.561061
G03 X35.086507 Y62.089447 Z-0.200000 I0.882613 J-0.295131
G01 X35.086507 Y60.820001 Z-0.200000
G03 X35.124352 Y60.560242 Z-0.200000 I0.930790 J0.002972
G03 X35.233130 Y60.321150 Z-0.200000 I0.897690 J0.264126
G02 X35.292410 Y60.160254 Z-0.200000 I-0.337011 J-0.215535
G02 X35.278881 Y59.989319 Z-0.200000 I-0.396291 J-0.054638
G03 X35.248600 Y59.856043 Z-0.200000 I0.905748 J-0.275870
G03 X35.238092 Y59.719774 Z-0.200000 I0.911145 J-0.138803
G01 X35.238092 Y58.451428 Z-0.200000
G03 X35.276363 Y58.190184 Z-0.200000 I0.930940 J0.002955
G03 X35.386368 Y57.949820 Z-0.200000 I0.898942 J0.266057
G02 X35.445131 Y57.794083 Z-0.200000 I-0.336711 J-0.216004
G02 X35.435424 Y57.627912 Z-0.200000 I-0.395474 J-0.060267
G03 X35.410436 Y57.506362 Z-0.200000 I0.922042 J-0.252899
G03 X35.401800 Y57.382621 Z-0.200000 I0.902222 J-0.125135
G01 X35.401800 Y56.112621 Z-0.200000
G03 X35.419700 Y55.933118 Z-0.200000 I0.926560 J0.001751
G03 X35.471805 Y55.760394 Z-0.200000 I0.921990 J0.183913
G02 X35.491036 Y55.516686 Z-0.200000 I-0.370113 J-0.151818
G02 X35.364869 Y55.307295 Z-0.200000 I-0.389343 J0.091890
G03 X35.129008 Y54.990497 Z-0.200000 I0.613434 J-0.702911
G03 X35.045164 Y54.604496 Z-0.200000 I0.851263 J-0.387009
G01 X35.045164 Y53.334496 Z-0.200000
G03 X35.073432 Y53.107722 Z-0.200000 I0.936617 J0.001600
G03 X35.155959 Y52.894628 Z-0.200000 I0.901841 J0.226738
G02 X35.203103 Y52.723303 Z-0.200000 I-0.352499 J-0.189147
G02 X35.171397 Y52.548462 Z-0.200000 I-0.399643 J-0.017822
G03 X35.115654 Y52.370319 Z-0.200000 I0.860298 J-0.366989
G03 X35.096430 Y52.184661 Z-0.200000 I0.914384 J-0.188504
G01 X35.096430 Y50.916315 Z-0.200000
G03 X35.128592 Y50.676024 Z-0.200000 I0.938001 J0.003249
G03 X35.221006 Y50.452742 Z-0.200000 I0.901620 J0.242405
G02 X35.274324 Y50.253203 Z-0.200000 I-0.346722 J-0.199540
G02 X35.221006 Y50.053663 Z-0.200000 I-0.400040 J-0.000000
G03 X35.128487 Y49.830268 Z-0.200000 I0.811107 J-0.466775
G03 X35.096430 Y49.590641 Z-0.200000 I0.899659 J-0.242312
G01 X35.096430 Y48.322295 Z-0.200000
G03 X35.137828 Y48.048071 Z-0.200000 I0.932209 J0.000492
G03 X35.257937 Y47.798090 Z-0.200000 I0.894005 J0.275701
G02 X35.325769 Y47.604571 Z-0.200000 I-0.330994 J-0.224666
G02 X35.288804 Y47.402868 Z-0.200000 I-0.398826 J-0.031148
G03 X35.222732 Y47.210135 Z-0.200000 I0.840538 J-0.395842
G03 X35.200059 Y47.007647 Z-0.200000 I0.914808 J-0.204945
G01 X35.200059 Y45.738198 Z-0.200000
G03 X35.226930 Y45.518055 Z-0.200000 I0.929046 J0.001690
G03 X35.305342 Y45.309906 Z-0.200000 I0.908432 J0.223371
G02 X35.347916 Y45.081421 Z-0.200000 I-0.355025 J-0.184362
G02 X35.256284 Y44.867830 Z-0.200000 I-0.397599 J0.044123
G03 X35.092398 Y44.582855 Z-0.200000 I0.714747 J-0.600653
G03 X35.037451 Y44.258738 Z-0.200000 I0.878586 J-0.315661
G01 X35.051788 Y42.989288 Z-0.200000
G03 X35.069724 Y42.820719 Z-0.200000 I0.931787 J0.013902
G03 X35.117933 Y42.658007 Z-0.200000 I0.916018 J0.182904
G02 X35.145703 Y42.489057 Z-0.200000 I-0.371714 J-0.147855
G02 X35.100294 Y42.323972 Z-0.200000 I-0.399483 J0.021095
G03 X35.020633 Y42.114103 Z-0.200000 I0.824378 J-0.432965
G03 X34.993360 Y41.891266 Z-0.200000 I0.909168 J-0.224362
G01 X34.993360 Y40.622369 Z-0.200000
G03 X35.030122 Y40.365789 Z-0.200000 I0.934903 J0.003025
G03 X35.136125 Y40.129031 Z-0.200000 I0.895574 J0.258864
G02 X35.195906 Y39.950656 Z-0.200000 I-0.338779 J-0.212745
G02 X35.167544 Y39.764679 Z-0.200000 I-0.398561 J-0.034370
G03 X35.116146 Y39.595479 Z-0.200000 I0.867638 J-0.355972
G03 X35.097539 Y39.419617 Z-0.200000 I0.912679 J-0.185480
G01 X35.085968 Y38.152375 Z-0.200000
G03 X35.134596 Y37.847162 Z-0.200000 I0.942214 J-0.006362
G03 X35.279446 Y37.575250 Z-0.200000 I0.880311 J0.294411
G02 X35.341286 Y37.460050 Z-0.200000 I-0.316807 J-0.244265
G02 X35.362679 Y37.331063 Z-0.200000 I-0.378648 J-0.129065
G01 X35.362679 Y35.577097 Z-0.200000
G02 X35.282175 Y35.336648 Z-0.200000 I-0.400040 J0.000235
G02 X35.073291 Y35.192899 Z-0.200000 I-0.319536 J0.240683
G03 X34.680187 Y35.021772 Z-0.200000 I0.456784 J-1.586367
G03 X34.355608 Y34.759643 Z-0.200000 I0.777624 J-1.294905
G01 X27.404784 Y27.344144 Z-0.200000
G02 X27.404502 Y27.343862 Z-0.200000 I-0.283153 J0.282589
G02 X27.404220 Y27.343580 Z-0.200000 I-0.282871 J0.282871
G01 X27.403960 Y27.343350 Z-0.200000
G01 X27.403655 Y27.343015 Z-0.200000
G02 X27.403373 Y27.342451 Z-0.200000 I-0.358088 J0.178339
G02 X27.403091 Y27.341886 Z-0.200000 I-0.357807 J0.178903
G01 X27.402526 Y27.341322 Z-0.200000
G03 X27.200668 Y27.068571 Z-0.200000 I1.093421 J-1.020292
G03 X27.058568 Y26.748212 Z-0.200000 I1.435261 J-0.828328
G02 X26.913395 Y26.547238 Z-0.200000 I-0.380910 J0.122229
G02 X26.677678 Y26.470401 Z-0.200000 I-0.235736 J0.323203
G01 X26.531055 Y26.470401 Z-0.200000
G02 X26.377890 Y26.500825 Z-0.200000 I-0.000142 J0.400040
G02 X26.248042 Y26.587570 Z-0.200000 I0.153023 J0.369616
G02 X26.161297 Y26.717418 Z-0.200000 I0.282871 J0.282871
G02 X26.130873 Y26.870584 Z-0.200000 I0.369616 J0.153023
G01 X26.130873 Y36.770962 Z-0.200000
G02 X26.248237 Y37.053618 Z-0.200000 I0.400040 J-0.000410
G02 X26.531055 Y37.170591 Z-0.200000 I0.282675 J-0.283066
G01 X27.677583 Y37.170591 Z-0.200000
G03 X28.786947 Y37.630259 Z-0.200000 I0.000095 J1.568275
G03 X29.246342 Y38.739902 Z-0.200000 I-1.110209 J1.109547
G01 X29.246342 Y57.173091 Z-0.200000
G02 X29.342768 Y57.433906 Z-0.200000 I0.400040 J0.000335
G02 X29.585890 Y57.568866 Z-0.200000 I0.303615 J-0.260481
G03 X30.568289 Y58.088072 Z-0.200000 I-0.255336 J1.672135
G03 X30.961173 Y59.086360 Z-0.200000 I-1.071627 J0.998202
G01 X30.961173 Y65.774807 Z-0.200000
G02 X31.035911 Y66.007236 Z-0.200000 I0.400040 J-0.000403
G02 X31.231818 Y66.152939 Z-0.200000 I0.325302 J-0.232832
G01 X34.872595 Y67.400339 Z-0.200000
G02 X34.930515 Y67.415209 Z-0.200000 I0.128162 J-0.378955
G02 X34.990005 Y67.421280 Z-0.200000 I0.070241 J-0.393825
G01 X34.990044 Y67.421353 Z-0.200000
G00 Z2.0

(Change tool to Isolate micro endmill)

G00 Z2.0
G00 X10.956506 Y57.846186

G01 Z-0.200000 F100.0(Penetrate)
G01 X12.225955 Y57.846186 Z-0.200000 F400.000000
G02 X12.379120 Y57.815762 Z-0.200000 I0.000142 J-0.400040
G02 X12.508968 Y57.729016 Z-0.200000 I-0.153023 J-0.369616
G02 X12.595713 Y57.599168 Z-0.200000 I-0.282871 J-0.282871
G02 X12.626137 Y57.446003 Z-0.200000 I-0.369616 J-0.153023
G01 X12.626137 Y39.774591 Z-0.200000
G01 X13.283186 Y39.774591 Z-0.200000
G02 X13.565647 Y39.657423 Z-0.200000 I-0.000409 J-0.400040
G02 X13.682817 Y39.374961 Z-0.200000 I-0.282870 J-0.282872
G01 X13.682817 Y38.104408 Z-0.200000
G02 X13.565647 Y37.821947 Z-0.200000 I-0.400040 J0.000410
G02 X13.283186 Y37.704779 Z-0.200000 I-0.282870 J0.282872
G01 X11.590955 Y37.704779 Z-0.200000
G02 X10.859331 Y38.008289 Z-0.200000 I0.001032 J1.036046
G02 X10.556324 Y38.739961 Z-0.200000 I0.731729 J0.731609
G01 X10.556324 Y57.446003 Z-0.200000
G02 X10.586748 Y57.599168 Z-0.200000 I0.400040 J0.000143
G02 X10.673493 Y57.729016 Z-0.200000 I0.369616 J-0.153023
G02 X10.803341 Y57.815762 Z-0.200000 I0.282871 J-0.282871
G02 X10.956506 Y57.846186 Z-0.200000 I0.153023 J-0.369616
G01 X10.956506 Y57.846186 Z-0.200000
G00 Z2.0

(Change tool to Isolate micro endmill)

G00 Z2.0
G00 X8.496432 Y57.691844

G01 Z-0.200000 F100.0(Penetrate)
G01 X9.766984 Y57.691844 Z-0.200000 F400.000000
G02 X10.049641 Y57.574480 Z-0.200000 I-0.000409 J-0.400040
G02 X10.166615 Y57.291661 Z-0.200000 I-0.283066 J-0.282676
G01 X10.166615 Y34.670890 Z-0.200000
G01 X13.257278 Y34.670890 Z-0.200000
G02 X13.539936 Y34.553526 Z-0.200000 I-0.000409 J-0.400040
G02 X13.656910 Y34.270707 Z-0.200000 I-0.283066 J-0.282676
G01 X13.656910 Y33.001257 Z-0.200000
G02 X13.539936 Y32.718439 Z-0.200000 I-0.400040 J-0.000143
G02 X13.257278 Y32.601075 Z-0.200000 I-0.283066 J0.282676
G01 X9.131984 Y32.601075 Z-0.200000
G02 X8.399979 Y32.904253 Z-0.200000 I-0.000072 J1.035105
G02 X8.096801 Y33.636257 Z-0.200000 I0.731945 J0.731940
G01 X8.096801 Y57.291661 Z-0.200000
G02 X8.213775 Y57.574480 Z-0.200000 I0.400040 J0.000143
G02 X8.496432 Y57.691844 Z-0.200000 I0.283066 J-0.282676
G01 X8.496432 Y57.691844 Z-0.200000
G00 Z2.0

(Change tool to Isolate micro endmill)

G00 Z2.0
G00 X27.042070 Y57.639480

G01 Z-0.200000 F100.0(Penetrate)
G01 X28.312621 Y57.639480 Z-0.200000 F400.000000
G02 X28.595279 Y57.522117 Z-0.200000 I-0.000408 J-0.400040
G02 X28.712253 Y57.239298 Z-0.200000 I-0.283066 J-0.282676
G01 X28.712253 Y38.739961 Z-0.200000
G02 X28.409290 Y38.008015 Z-0.200000 I-1.035495 J-0.000067
G02 X27.677621 Y37.704779 Z-0.200000 I-0.731617 J0.730966
G01 X25.597335 Y37.704779 Z-0.200000
G01 X25.597335 Y17.293827 Z-0.200000
G02 X25.480166 Y17.011366 Z-0.200000 I-0.400040 J0.000410
G02 X25.197704 Y16.894198 Z-0.200000 I-0.282870 J0.282872
G01 X23.927153 Y16.894198 Z-0.200000
G02 X23.644335 Y17.011171 Z-0.200000 I-0.000143 J0.400040
G02 X23.526970 Y17.293827 Z-0.200000 I0.282675 J0.283066
G01 X23.526970 Y37.756592 Z-0.200000
G01 X22.897482 Y37.756592 Z-0.200000
G02 X22.802973 Y37.718103 Z-0.200000 I-0.196905 J0.348225
G02 X22.701801 Y37.704779 Z-0.200000 I-0.102395 J0.386713
G01 X14.807296 Y37.704779 Z-0.200000
G02 X14.524478 Y37.821752 Z-0.200000 I-0.000143 J0.400040
G02 X14.407114 Y38.104408 Z-0.200000 I0.282675 J0.283066
G01 X14.407114 Y39.374961 Z-0.200000
G02 X14.524478 Y39.657617 Z-0.200000 I0.400040 J-0.000410
G02 X14.807296 Y39.774591 Z-0.200000 I0.282675 J-0.283066
G01 X21.472591 Y39.774591 Z-0.200000
G02 X21.567100 Y39.813081 Z-0.200000 I0.196910 J-0.348222
G02 X21.668273 Y39.826407 Z-0.200000 I0.102400 J-0.386712
G01 X24.562153 Y39.826407 Z-0.200000
G02 X24.562985 Y39.826408 Z-0.200000 I0.000833 J-0.400039
G02 X24.563818 Y39.826407 Z-0.200000 I0.000000 J-0.400040
G02 X24.689828 Y39.808278 Z-0.200000 I-0.001411 J-0.456799
G03 X24.812967 Y39.774591 Z-0.200000 I1.137069 J3.914555
G01 X26.642451 Y39.774591 Z-0.200000
G01 X26.642451 Y57.239298 Z-0.200000
G02 X26.759425 Y57.522116 Z-0.200000 I0.400040 J0.000143
G02 X27.042082 Y57.639480 Z-0.200000 I0.283066 J-0.282676
G01 X27.042070 Y57.639480 Z-0.200000
G00 Z2.0

(Change tool to Isolate micro endmill)

G00 Z2.0
G00 X13.572574 Y57.559552

G01 Z-0.200000 F100.0(Penetrate)
G01 X24.966194 Y57.559552 Z-0.200000 F400.000000
G02 X25.249011 Y57.442579 Z-0.200000 I0.000142 J-0.400040
G02 X25.366376 Y57.159923 Z-0.200000 I-0.282675 J-0.283066
G01 X25.366376 Y55.672191 Z-0.200000
G02 X25.335952 Y55.519026 Z-0.200000 I-0.400040 J-0.000143
G02 X25.249207 Y55.389178 Z-0.200000 I-0.369616 J0.153023
G02 X25.119359 Y55.302433 Z-0.200000 I-0.282871 J0.282871
G02 X24.966194 Y55.272008 Z-0.200000 I-0.153023 J0.369616
G01 X13.572574 Y55.272008 Z-0.200000
G02 X13.289917 Y55.389372 Z-0.200000 I0.000409 J0.400040
G02 X13.172943 Y55.672191 Z-0.200000 I0.283066 J0.282676
G01 X13.172943 Y57.159923 Z-0.200000
G02 X13.290112 Y57.442384 Z-0.200000 I0.400040 J-0.000410
G02 X13.572574 Y57.559552 Z-0.200000 I0.282870 J-0.282872
G01 X13.572574 Y57.559552 Z-0.200000
G00 Z2.0

(Change tool to Isolate micro endmill)

G00 Z2.0
G00 X13.572574 Y55.022860

G01 Z-0.200000 F100.0(Penetrate)
G01 X24.966194 Y55.022860 Z-0.200000 F400.000000
G02 X25.249011 Y54.905886 Z-0.200000 I0.000142 J-0.400040
G02 X25.366376 Y54.623230 Z-0.200000 I-0.282675 J-0.283066
G01 X25.366376 Y53.134948 Z-0.200000
G02 X25.335952 Y52.981783 Z-0.200000 I-0.400040 J-0.000143
G02 X25.249207 Y52.851935 Z-0.200000 I-0.369616 J0.153023
G02 X25.119359 Y52.765190 Z-0.200000 I-0.282871 J0.282871
G02 X24.966194 Y52.734766 Z-0.200000 I-0.153023 J0.369616
G01 X13.572574 Y52.734766 Z-0.200000
G02 X13.289917 Y52.852130 Z-0.200000 I0.000409 J0.400040
G02 X13.172943 Y53.134948 Z-0.200000 I0.283066 J0.282676
G01 X13.172943 Y54.623230 Z-0.200000
G02 X13.290112 Y54.905692 Z-0.200000 I0.400040 J-0.000410
G02 X13.572574 Y55.022860 Z-0.200000 I0.282870 J-0.282872
G01 X13.572574 Y55.022860 Z-0.200000
G00 Z2.0

(Change tool to Isolate micro endmill)

G00 Z2.0
G00 X35.978925 Y55.004685

G01 Z-0.200000 F100.0(Penetrate)
G01 X52.475694 Y55.004685 Z-0.200000 F400.000000
G02 X52.475976 Y55.004685 Z-0.200000 I0.000282 J-0.400040
G02 X52.476259 Y55.004685 Z-0.200000 I0.000000 J-0.400040
G02 X52.925854 Y54.901570 Z-0.200000 I-0.000546 J-1.034091
G02 X53.285994 Y54.613322 Z-0.200000 I-0.450798 J-0.932335
G01 X59.090292 Y47.305310 Z-0.200000
G02 X59.174270 Y47.011120 Z-0.200000 I-0.313451 J-0.248557
G02 X59.025798 Y46.743620 Z-0.200000 I-0.397429 J0.045633
G01 X58.031408 Y45.953177 Z-0.200000
G02 X57.892549 Y45.881751 Z-0.200000 I-0.248895 J0.313183
G02 X57.736925 Y45.868927 Z-0.200000 I-0.110036 J0.384609
G02 X57.588246 Y45.916657 Z-0.200000 I0.045589 J0.397434
G02 X57.469168 Y46.017671 Z-0.200000 I0.194267 J0.349703
G01 X51.975757 Y52.934870 Z-0.200000
G01 X35.978939 Y52.934870 Z-0.200000
G02 X35.696120 Y53.051844 Z-0.200000 I-0.000143 J0.400040
G02 X35.578756 Y53.334502 Z-0.200000 I0.282676 J0.283066
G01 X35.578756 Y54.605052 Z-0.200000
G02 X35.696120 Y54.887710 Z-0.200000 I0.400040 J-0.000408
G02 X35.978939 Y55.004685 Z-0.200000 I0.282676 J-0.283066
G01 X35.978925 Y55.004685 Z-0.200000
G00 Z2.0

(Change tool to Isolate micro endmill)

G00 Z2.0
G00 X36.030188 Y52.585950

G01 Z-0.200000 F100.0(Penetrate)
G01 X49.517322 Y52.585950 Z-0.200000 F400.000000
G02 X49.961094 Y52.486381 Z-0.200000 I0.000828 J-1.035029
G02 X50.319341 Y52.206164 Z-0.200000 I-0.442869 J-0.935301
G02 X50.319624 Y52.205881 Z-0.200000 I-0.282589 J-0.283153
G02 X50.319906 Y52.205599 Z-0.200000 I-0.282871 J-0.282871
G01 X65.500924 Y33.593814 Z-0.200000
G02 X65.673910 Y33.286228 Z-0.200000 I-0.803466 J-0.654305
G02 X65.733537 Y32.938421 Z-0.200000 I-0.974797 J-0.346131
G01 X65.733537 Y5.871546 Z-0.200000
G02 X65.430367 Y5.139546 Z-0.200000 I-1.035098 J-0.000077
G02 X64.698355 Y4.836363 Z-0.200000 I-0.731945 J0.731940
G01 X56.597697 Y4.836363 Z-0.200000
G02 X56.444531 Y4.866787 Z-0.200000 I-0.000143 J0.400040
G02 X56.314683 Y4.953532 Z-0.200000 I0.153023 J0.369616
G02 X56.227938 Y5.083380 Z-0.200000 I0.282871 J0.282871
G02 X56.197514 Y5.236546 Z-0.200000 I0.369616 J0.153023
G01 X56.197514 Y6.505993 Z-0.200000
G02 X56.227938 Y6.659158 Z-0.200000 I0.400040 J0.000143
G02 X56.314683 Y6.789006 Z-0.200000 I0.369616 J-0.153023
G02 X56.444531 Y6.875751 Z-0.200000 I0.282871 J-0.282871
G02 X56.597697 Y6.906175 Z-0.200000 I0.153023 J-0.369616
G01 X63.663725 Y6.906175 Z-0.200000
G01 X63.663725 Y32.570759 Z-0.200000
G01 X49.026188 Y50.516124 Z-0.200000
G01 X36.030188 Y50.516124 Z-0.200000
G02 X35.747530 Y50.633487 Z-0.200000 I0.000408 J0.400040
G02 X35.630555 Y50.916306 Z-0.200000 I0.283066 J0.282676
G01 X35.630555 Y52.185756 Z-0.200000
G02 X35.747531 Y52.468573 Z-0.200000 I0.400040 J0.000140
G02 X36.030188 Y52.585936 Z-0.200000 I0.283065 J-0.282677
G01 X36.030188 Y52.585950 Z-0.200000
G00 Z2.0

(Change tool to Isolate micro endmill)

G00 Z2.0
G00 X13.572574 Y52.485631

G01 Z-0.200000 F100.0(Penetrate)
G01 X24.966194 Y52.485631 Z-0.200000 F400.000000
G02 X25.119359 Y52.455207 Z-0.200000 I0.000142 J-0.400040
G02 X25.249207 Y52.368462 Z-0.200000 I-0.153023 J-0.369616
G02 X25.335952 Y52.238614 Z-0.200000 I-0.282871 J-0.282871
G02 X25.366376 Y52.085449 Z-0.200000 I-0.369616 J-0.153023
G01 X25.366376 Y50.597717 Z-0.200000
G02 X25.249011 Y50.315061 Z-0.200000 I-0.400040 J0.000410
G02 X24.966194 Y50.198088 Z-0.200000 I-0.282675 J0.283066
G01 X13.572574 Y50.198088 Z-0.200000
G02 X13.290112 Y50.315256 Z-0.200000 I0.000409 J0.400040
G02 X13.172943 Y50.597717 Z-0.200000 I0.282870 J0.282872
G01 X13.172943 Y52.085449 Z-0.200000
G02 X13.289917 Y52.368267 Z-0.200000 I0.400040 J0.000143
G02 X13.572574 Y52.485631 Z-0.200000 I0.283066 J-0.282676
G01 X13.572574 Y52.485631 Z-0.200000
G00 Z2.0

(Change tool to Isolate micro endmill)

G00 Z2.0
G00 X36.030188 Y49.991933

G01 Z-0.200000 F100.0(Penetrate)
G01 X48.599547 Y49.991933 Z-0.200000 F400.000000
G02 X49.043324 Y49.892361 Z-0.200000 I0.000828 J-1.035024
G02 X49.401566 Y49.612146 Z-0.200000 I-0.442883 J-0.935311
G02 X49.401848 Y49.611864 Z-0.200000 I-0.282589 J-0.283153
G02 X49.402131 Y49.611582 Z-0.200000 I-0.282871 J-0.282871
G01 X63.158810 Y32.767546 Z-0.200000
G02 X63.158810 Y32.767264 Z-0.200000 I-0.400040 J-0.000282
G02 X63.158810 Y32.766982 Z-0.200000 I-0.400040 J0.000000
G02 X63.332042 Y32.459733 Z-0.200000 I-0.801433 J-0.654320
G02 X63.391974 Y32.112136 Z-0.200000 I-0.974355 J-0.346961
G01 X63.391974 Y8.546030 Z-0.200000
G02 X63.088752 Y7.814367 Z-0.200000 I-1.034188 J-0.000067
G02 X62.356791 Y7.511398 Z-0.200000 I-0.731878 J0.732510
G01 X56.649507 Y7.511398 Z-0.200000
G02 X56.366688 Y7.628372 Z-0.200000 I-0.000143 J0.400040
G02 X56.249324 Y7.911030 Z-0.200000 I0.282676 J0.283066
G01 X56.249324 Y9.181581 Z-0.200000
G02 X56.366688 Y9.464239 Z-0.200000 I0.400040 J-0.000408
G02 X56.649507 Y9.581213 Z-0.200000 I0.282676 J-0.283066
G01 X61.321608 Y9.581213 Z-0.200000
G01 X61.321608 Y31.743926 Z-0.200000
G01 X48.108966 Y47.922104 Z-0.200000
G01 X36.030188 Y47.922104 Z-0.200000
G02 X35.747530 Y48.039467 Z-0.200000 I0.000408 J0.400040
G02 X35.630555 Y48.322286 Z-0.200000 I0.283066 J0.282676
G01 X35.630555 Y49.591736 Z-0.200000
G02 X35.747530 Y49.874555 Z-0.200000 I0.400040 J0.000143
G02 X36.030188 Y49.991919 Z-0.200000 I0.283066 J-0.282676
G01 X36.030188 Y49.991933 Z-0.200000
G00 Z2.0

(Change tool to Isolate micro endmill)

G00 Z2.0
G00 X13.572574 Y49.948939

G01 Z-0.200000 F100.0(Penetrate)
G01 X24.966194 Y49.948939 Z-0.200000 F400.000000
G02 X25.119359 Y49.918515 Z-0.200000 I0.000142 J-0.400040
G02 X25.249207 Y49.831770 Z-0.200000 I-0.153023 J-0.369616
G02 X25.335952 Y49.701922 Z-0.200000 I-0.282871 J-0.282871
G02 X25.366376 Y49.548756 Z-0.200000 I-0.369616 J-0.153023
G01 X25.366376 Y48.060474 Z-0.200000
G02 X25.249012 Y47.777817 Z-0.200000 I-0.400040 J0.000408
G02 X24.966194 Y47.660842 Z-0.200000 I-0.282676 J0.283065
G01 X13.572574 Y47.660842 Z-0.200000
G02 X13.290111 Y47.778011 Z-0.200000 I0.000409 J0.400040
G02 X13.172943 Y48.060474 Z-0.200000 I0.282871 J0.282871
G01 X13.172943 Y49.548756 Z-0.200000
G02 X13.289917 Y49.831575 Z-0.200000 I0.400040 J0.000143
G02 X13.572574 Y49.948939 Z-0.200000 I0.283066 J-0.282676
G01 X13.572574 Y49.948939 Z-0.200000
G00 Z2.0

(Change tool to Isolate micro endmill)

G00 Z2.0
G00 X13.572574 Y47.411693

G01 Z-0.200000 F100.0(Penetrate)
G01 X24.966194 Y47.411693 Z-0.200000 F400.000000
G02 X25.119359 Y47.381269 Z-0.200000 I0.000142 J-0.400040
G02 X25.249207 Y47.294524 Z-0.200000 I-0.153023 J-0.369616
G02 X25.335952 Y47.164676 Z-0.200000 I-0.282871 J-0.282871
G02 X25.366376 Y47.011511 Z-0.200000 I-0.369616 J-0.153023
G01 X25.366376 Y45.523782 Z-0.200000
G02 X25.335952 Y45.370617 Z-0.200000 I-0.400040 J-0.000143
G02 X25.249207 Y45.240769 Z-0.200000 I-0.369616 J0.153023
G02 X25.119359 Y45.154023 Z-0.200000 I-0.282871 J0.282871
G02 X24.966194 Y45.123599 Z-0.200000 I-0.153023 J0.369616
G01 X13.572574 Y45.123599 Z-0.200000
G02 X13.289917 Y45.240963 Z-0.200000 I0.000409 J0.400040
G02 X13.172943 Y45.523782 Z-0.200000 I0.283066 J0.282676
G01 X13.172943 Y47.011511 Z-0.200000
G02 X13.289917 Y47.294330 Z-0.200000 I0.400040 J0.000143
G02 X13.572574 Y47.411693 Z-0.200000 I0.283066 J-0.282676
G01 X13.572574 Y47.411693 Z-0.200000
G00 Z2.0

(Change tool to Isolate micro endmill)

G00 Z2.0
G00 X36.133814 Y47.408391

G01 Z-0.200000 F100.0(Penetrate)
G01 X45.498963 Y47.408391 Z-0.200000 F400.000000
G02 X46.230967 Y47.105214 Z-0.200000 I0.000077 J-1.035091
G02 X46.534146 Y46.373209 Z-0.200000 I-0.731961 J-0.731948
G01 X46.534146 Y19.317911 Z-0.200000
G01 X52.157644 Y12.061712 Z-0.200000
G01 X55.123181 Y12.061712 Z-0.200000
G02 X55.406000 Y11.944739 Z-0.200000 I0.000143 J-0.400040
G02 X55.523364 Y11.662083 Z-0.200000 I-0.282675 J-0.283067
G01 X55.523364 Y10.391529 Z-0.200000
G02 X55.406000 Y10.108873 Z-0.200000 I-0.400040 J0.000410
G02 X55.123181 Y9.991900 Z-0.200000 I-0.282675 J0.283067
G01 X51.650524 Y9.991900 Z-0.200000
G02 X51.195058 Y10.097477 Z-0.200000 I0.000293 J1.036512
G02 X50.832520 Y10.392633 Z-0.200000 I0.454652 J0.928673
G01 X44.681510 Y18.330133 Z-0.200000
G02 X44.582011 Y18.539071 Z-0.200000 I0.427659 J0.331815
G02 X44.531579 Y18.767797 Z-0.200000 I9.516273 J2.218183
G01 X44.531579 Y16.991781 Z-0.200000
G01 X50.332569 Y9.480372 Z-0.200000
G01 X55.157909 Y9.480372 Z-0.200000
G02 X55.440728 Y9.363398 Z-0.200000 I0.000143 J-0.400040
G02 X55.558091 Y9.080740 Z-0.200000 I-0.282676 J-0.283066
G01 X55.558091 Y7.810190 Z-0.200000
G02 X55.440728 Y7.527532 Z-0.200000 I-0.400040 J0.000408
G02 X55.157909 Y7.410557 Z-0.200000 I-0.282676 J0.283066
G01 X49.823799 Y7.410557 Z-0.200000
G02 X49.367467 Y7.516670 Z-0.200000 I0.000704 J1.037297
G02 X49.004691 Y7.812944 Z-0.200000 I0.455411 J0.927871
G01 X42.677292 Y16.006208 Z-0.200000
G02 X42.516769 Y16.304715 Z-0.200000 I0.822497 J0.634713
G02 X42.461214 Y16.639004 Z-0.200000 I0.976894 J0.334110
G01 X42.461214 Y40.222198 Z-0.200000
G01 X35.927109 Y40.222198 Z-0.200000
G02 X35.773943 Y40.252622 Z-0.200000 I-0.000143 J0.400040
G02 X35.644095 Y40.339367 Z-0.200000 I0.153023 J0.369616
G02 X35.557350 Y40.469215 Z-0.200000 I0.282871 J0.282871
G02 X35.526926 Y40.622381 Z-0.200000 I0.369616 J0.153023
G01 X35.526926 Y41.891830 Z-0.200000
G02 X35.557350 Y42.044996 Z-0.200000 I0.400040 J0.000143
G02 X35.644095 Y42.174844 Z-0.200000 I0.369616 J-0.153023
G02 X35.773943 Y42.261589 Z-0.200000 I0.282871 J-0.282871
G02 X35.927109 Y42.292013 Z-0.200000 I0.153023 J-0.369616
G01 X43.496396 Y42.292013 Z-0.200000
G02 X44.103239 Y42.086127 Z-0.200000 I0.000056 J-0.997101
G02 X44.464331 Y41.584804 Z-0.200000 I-0.652267 J-0.850518
G01 X44.464331 Y45.338006 Z-0.200000
G01 X36.133814 Y45.338006 Z-0.200000
G02 X35.980649 Y45.368430 Z-0.200000 I-0.000143 J0.400040
G02 X35.850800 Y45.455175 Z-0.200000 I0.153023 J0.369616
G02 X35.764055 Y45.585024 Z-0.200000 I0.282871 J0.282871
G02 X35.733631 Y45.738189 Z-0.200000 I0.369616 J0.153023
G01 X35.733631 Y47.008742 Z-0.200000
G02 X35.850996 Y47.291398 Z-0.200000 I0.400040 J-0.000410
G02 X36.133814 Y47.408372 Z-0.200000 I0.282675 J-0.283067
G01 X36.133814 Y47.408391 Z-0.200000
G00 Z2.0

(Change tool to Isolate micro endmill)

G00 Z2.0
G00 X47.332855 Y47.388551

G01 Z-0.200000 F100.0(Penetrate)
G01 X47.666340 Y47.388551 Z-0.200000 F400.000000
G02 X47.837804 Y47.349845 Z-0.200000 I-0.000203 J-0.400040
G02 X47.976124 Y47.241375 Z-0.200000 I-0.171667 J-0.361334
G01 X59.561566 Y33.055851 Z-0.200000
G02 X59.648842 Y32.851735 Z-0.200000 I-0.309746 J-0.253158
G02 X59.613859 Y32.632518 Z-0.200000 I-0.397022 J-0.049043
G02 X59.467391 Y32.465704 Z-0.200000 I-0.362040 J0.170174
G02 X59.254539 Y32.402661 Z-0.200000 I-0.215571 J0.336988
G01 X57.290561 Y32.388324 Z-0.200000
G03 X56.632134 Y32.109862 Z-0.200000 I0.006939 J-0.934066
G03 X56.363415 Y31.447398 Z-0.200000 I0.665408 J-0.655645
G01 X56.372785 Y30.177398 Z-0.200000
G03 X56.651247 Y29.518974 Z-0.200000 I0.934062 J0.006939
G03 X57.313711 Y29.250256 Z-0.200000 I0.655646 J0.665410
G01 X58.125100 Y29.256860 Z-0.200000
G02 X58.279112 Y29.227231 Z-0.200000 I0.002897 J-0.400030
G02 X58.409896 Y29.140670 Z-0.200000 I-0.151114 J-0.370400
G02 X58.497352 Y29.010482 Z-0.200000 I-0.281899 J-0.283840
G02 X58.528037 Y28.856677 Z-0.200000 I-0.369355 J-0.153652
G01 X58.528037 Y15.296230 Z-0.200000
G02 X58.411064 Y15.013412 Z-0.200000 I-0.400040 J-0.000143
G02 X58.128408 Y14.896047 Z-0.200000 I-0.283067 J0.282675
G01 X55.628094 Y14.896047 Z-0.200000
G02 X55.452612 Y14.936785 Z-0.200000 I0.000399 J0.400040
G02 X55.312798 Y15.050386 Z-0.200000 I0.175880 J0.359302
G01 X49.748832 Y22.185319 Z-0.200000
G02 X49.685852 Y22.301149 Z-0.200000 I0.315153 J0.246395
G02 X49.663945 Y22.431160 Z-0.200000 I0.378133 J0.130566
G01 X49.663945 Y38.892102 Z-0.200000
G03 X49.390429 Y39.552346 Z-0.200000 I-0.933839 J-0.000081
G03 X48.730188 Y39.825859 Z-0.200000 I-0.660322 J-0.660325
G01 X47.467904 Y39.825859 Z-0.200000
G02 X47.314738 Y39.856283 Z-0.200000 I-0.000143 J0.400040
G02 X47.184890 Y39.943028 Z-0.200000 I0.153023 J0.369616
G02 X47.098145 Y40.072876 Z-0.200000 I0.282871 J0.282871
G02 X47.067721 Y40.226042 Z-0.200000 I0.369616 J0.153023
G01 X47.067721 Y46.373195 Z-0.200000
G03 X47.043124 Y46.572424 Z-0.200000 I-0.818873 J0.000034
G03 X46.957479 Y46.849998 Z-0.200000 I-2.631661 J-0.659991
G01 X46.960302 Y46.844495 Z-0.200000
G02 X46.936177 Y47.034857 Z-0.200000 I0.373220 J0.144009
G02 X47.003473 Y47.214555 Z-0.200000 I0.397345 J-0.046354
G02 X47.146706 Y47.342243 Z-0.200000 I0.330049 J-0.226052
G02 X47.332922 Y47.388543 Z-0.200000 I0.186816 J-0.353740
G01 X47.332855 Y47.388551 Z-0.200000
G00 Z2.0

(Change tool to Isolate micro endmill)

G00 Z2.0
G00 X13.572574 Y44.875560

G01 Z-0.200000 F100.0(Penetrate)
G01 X24.966194 Y44.875560 Z-0.200000 F400.000000
G02 X25.119359 Y44.845136 Z-0.200000 I0.000142 J-0.400040
G02 X25.249207 Y44.758391 Z-0.200000 I-0.153023 J-0.369616
G02 X25.335952 Y44.628543 Z-0.200000 I-0.282871 J-0.282871
G02 X25.366376 Y44.475377 Z-0.200000 I-0.369616 J-0.153023
G01 X25.366376 Y42.987648 Z-0.200000
G02 X25.335952 Y42.834483 Z-0.200000 I-0.400040 J-0.000143
G02 X25.249207 Y42.704635 Z-0.200000 I-0.369616 J0.153023
G02 X25.119359 Y42.617890 Z-0.200000 I-0.282871 J0.282871
G02 X24.966194 Y42.587466 Z-0.200000 I-0.153023 J0.369616
G01 X13.572574 Y42.587466 Z-0.200000
G02 X13.289917 Y42.704830 Z-0.200000 I0.000409 J0.400040
G02 X13.172943 Y42.987648 Z-0.200000 I0.283066 J0.282676
G01 X13.172943 Y44.475377 Z-0.200000
G02 X13.289917 Y44.758196 Z-0.200000 I0.400040 J0.000143
G02 X13.572574 Y44.875560 Z-0.200000 I0.283066 J-0.282676
G01 X13.572574 Y44.875560 Z-0.200000
G00 Z2.0

(Change tool to Isolate micro endmill)

G00 Z2.0
G00 X42.080327 Y44.804454

G01 Z-0.200000 F100.0(Penetrate)
G01 X43.530573 Y44.804454 Z-0.200000 F400.000000
G02 X43.683739 Y44.774030 Z-0.200000 I0.000143 J-0.400040
G02 X43.813587 Y44.687285 Z-0.200000 I-0.153023 J-0.369616
G02 X43.900332 Y44.557437 Z-0.200000 I-0.282871 J-0.282871
G02 X43.930756 Y44.404271 Z-0.200000 I-0.369616 J-0.153023
G01 X43.930756 Y43.218608 Z-0.200000
G02 X43.899512 Y43.063376 Z-0.200000 I-0.400040 J-0.000243
G02 X43.810487 Y42.932428 Z-0.200000 I-0.368796 J0.154988
G02 X43.677630 Y42.846278 Z-0.200000 I-0.279771 J0.285937
G02 X43.521754 Y42.818425 Z-0.200000 I-0.146913 J0.372087
G02 X43.495954 Y42.822366 Z-0.200000 I0.002258 J0.101219
G01 X43.496410 Y42.825594 Z-0.200000
G01 X42.096876 Y42.825594 Z-0.200000
G02 X41.815412 Y42.941199 Z-0.200000 I-0.000165 J0.400040
G02 X41.696693 Y43.221365 Z-0.200000 I0.281299 J0.284434
G01 X41.684022 Y44.329861 Z-0.200000
G03 X41.682871 Y44.353013 Z-0.200000 I-1.055172 J-0.040819
G03 X41.681764 Y44.367343 Z-0.200000 I-0.434309 J-0.026359
G02 X41.701468 Y44.531494 Z-0.200000 I0.398468 J0.035427
G02 X41.785867 Y44.673659 Z-0.200000 I0.378764 J-0.128725
G02 X41.920544 Y44.769555 Z-0.200000 I0.294365 J-0.270890
G02 X42.082497 Y44.802803 Z-0.200000 I0.159688 J-0.366786
G01 X42.080327 Y44.804454 Z-0.200000
G00 Z2.0

(Change tool to Isolate micro endmill)

G00 Z2.0
G00 X40.746384 Y44.721221

G01 Z-0.200000 F100.0(Penetrate)
G02 X41.030146 Y44.607176 Z-0.200000 I0.004029 J-0.400020 F400.000000
G02 X41.150424 Y44.326000 Z-0.200000 I-0.279733 J-0.285975
G01 X41.164197 Y43.055447 Z-0.200000
G02 X41.050152 Y42.771685 Z-0.200000 I-0.400020 J-0.004029
G02 X40.768975 Y42.651406 Z-0.200000 I-0.285975 J0.279733
G01 X35.989940 Y42.599593 Z-0.200000
G02 X35.705821 Y42.713440 Z-0.200000 I-0.004582 J0.400014
G02 X35.585346 Y42.994814 Z-0.200000 I0.279537 J0.286166
G01 X35.571574 Y44.265364 Z-0.200000
G02 X35.685813 Y44.549319 Z-0.200000 I0.400020 J0.004023
G02 X35.967345 Y44.669405 Z-0.200000 I0.285780 J-0.279931
G01 X40.746384 Y44.721221 Z-0.200000
G00 Z2.0

(Change tool to Isolate micro endmill)

G00 Z2.0
G00 X25.711988 Y42.279889

G01 Z-0.200000 F100.0(Penetrate)
G02 X25.992316 Y42.161559 Z-0.200000 I-0.003716 J-0.400023 F400.000000
G02 X26.108312 Y41.880256 Z-0.200000 I-0.284044 J-0.281693
G01 X26.108312 Y40.708924 Z-0.200000
G02 X25.991338 Y40.426105 Z-0.200000 I-0.400040 J-0.000143
G02 X25.708680 Y40.308742 Z-0.200000 I-0.283066 J0.282676
G01 X24.816263 Y40.308742 Z-0.200000
G02 X24.789474 Y40.309497 Z-0.200000 I-0.002131 J0.400034
G02 X24.762795 Y40.312044 Z-0.200000 I0.024658 J0.399279
G02 X24.565089 Y40.354231 Z-0.200000 I0.176646 J1.312166
G01 X24.566011 Y40.360552 Z-0.200000
G03 X24.564911 Y40.360554 Z-0.200000 I-0.001101 J-0.330200
G03 X24.563810 Y40.360552 Z-0.200000 I-0.000000 J-0.330202
G02 X24.562977 Y40.360551 Z-0.200000 I-0.000833 J0.400039
G02 X24.562145 Y40.360552 Z-0.200000 I0.000000 J0.400040
G01 X23.043547 Y40.360552 Z-0.200000
G02 X22.760729 Y40.477525 Z-0.200000 I-0.000143 J0.400040
G02 X22.643364 Y40.760181 Z-0.200000 I0.282675 J0.283066
G01 X22.643364 Y41.653703 Z-0.200000
G02 X22.673788 Y41.806868 Z-0.200000 I0.400040 J0.000143
G02 X22.760533 Y41.936716 Z-0.200000 I0.369616 J-0.153023
G02 X22.890381 Y42.023461 Z-0.200000 I0.282871 J-0.282871
G02 X23.043547 Y42.053885 Z-0.200000 I0.153023 J-0.369616
G01 X24.966186 Y42.053885 Z-0.200000
G03 X25.237573 Y42.094400 Z-0.200000 I-0.000898 J0.935211
G03 X25.485430 Y42.212082 Z-0.200000 I-0.271130 J0.890899
G02 X25.593581 Y42.263105 Z-0.200000 I0.222847 J-0.332222
G02 X25.711980 Y42.279883 Z-0.200000 I0.114696 J-0.383245
G01 X25.711988 Y42.279889 Z-0.200000
G00 Z2.0

(Change tool to Isolate micro endmill)

G00 Z2.0
G00 X13.571471 Y42.053891

G01 Z-0.200000 F100.0(Penetrate)
G02 X13.574502 Y42.053902 Z-0.200000 I0.003031 J-0.400029 F400.000000
G02 X13.577534 Y42.053891 Z-0.200000 I0.000000 J-0.400040
G01 X19.821700 Y42.053891 Z-0.200000
G02 X20.104357 Y41.936527 Z-0.200000 I-0.000409 J-0.400040
G02 X20.221331 Y41.653708 Z-0.200000 I-0.283066 J-0.282676
G01 X20.221331 Y40.708374 Z-0.200000
G02 X20.104163 Y40.425911 Z-0.200000 I-0.400040 J0.000407
G02 X19.821700 Y40.308742 Z-0.200000 I-0.282871 J0.282871
G01 X14.807846 Y40.308742 Z-0.200000
G01 X14.807282 Y40.308742 Z-0.200000
G03 X14.527287 Y40.265375 Z-0.200000 I0.001381 J-0.934480
G03 X14.273154 Y40.140071 Z-0.200000 I0.281301 J-0.890878
G02 X14.044488 Y40.067931 Z-0.200000 I-0.229159 J0.327899
G02 X13.815645 Y40.139507 Z-0.200000 I-0.000494 J0.400040
G03 X13.653479 Y40.229748 Z-0.200000 I-0.529813 J-0.761266
G03 X13.476648 Y40.286130 Z-0.200000 I-0.372462 J-0.862660
G02 X13.248861 Y40.425678 Z-0.200000 I0.083091 J0.391316
G02 X13.159699 Y40.677493 Z-0.200000 I0.310878 J0.251767
G01 X13.159699 Y41.654247 Z-0.200000
G02 X13.191350 Y41.809966 Z-0.200000 I0.400040 J-0.000236
G02 X13.281126 Y41.941077 Z-0.200000 I0.368389 J-0.155954
G02 X13.414862 Y42.026896 Z-0.200000 I0.278613 J-0.287066
G02 X13.571457 Y42.053880 Z-0.200000 I0.144877 J-0.372884
G01 X13.571471 Y42.053891 Z-0.200000
G00 Z2.0

(Change tool to Isolate micro endmill)

G00 Z2.0
G00 X36.035146 Y39.811545

G01 Z-0.200000 F100.0(Penetrate)
G01 X41.680144 Y39.760282 Z-0.200000 F400.000000
G02 X41.961836 Y39.640584 Z-0.200000 I-0.003703 J-0.400023
G02 X42.076466 Y39.356792 Z-0.200000 I-0.285395 J-0.280324
G01 X42.064895 Y38.086792 Z-0.200000
G02 X41.945196 Y37.805100 Z-0.200000 I-0.400023 J0.003703
G02 X41.661404 Y37.690470 Z-0.200000 I-0.280324 J0.285395
G01 X36.015856 Y37.742283 Z-0.200000
G02 X35.862982 Y37.774180 Z-0.200000 I0.003698 J0.400023
G02 X35.733969 Y37.862176 Z-0.200000 I0.156572 J0.368127
G02 X35.648477 Y37.992863 Z-0.200000 I0.285586 J0.280130
G02 X35.619535 Y38.146324 Z-0.200000 I0.371078 J0.149443
G01 X35.631670 Y39.415223 Z-0.200000
G02 X35.751368 Y39.696914 Z-0.200000 I0.400023 J-0.003703
G02 X36.035158 Y39.811545 Z-0.200000 I0.280325 J-0.285394
G01 X36.035146 Y39.811545 Z-0.200000
G00 Z2.0

(Change tool to Isolate micro endmill)

G00 Z2.0
G00 X47.460738 Y39.292301

G01 Z-0.200000 F100.0(Penetrate)
G01 X48.730188 Y39.292301 Z-0.200000 F400.000000
G02 X48.883352 Y39.261877 Z-0.200000 I0.000140 J-0.400040
G02 X49.013200 Y39.175131 Z-0.200000 I-0.153025 J-0.369615
G02 X49.099944 Y39.045283 Z-0.200000 I-0.282872 J-0.282870
G02 X49.130368 Y38.892119 Z-0.200000 I-0.369616 J-0.153022
G01 X49.130368 Y22.110370 Z-0.200000
G01 X55.513441 Y13.924822 Z-0.200000
G02 X55.583653 Y13.785331 Z-0.200000 I-0.315349 J-0.246145
G02 X55.595109 Y13.629586 Z-0.200000 I-0.385561 J-0.106654
G02 X55.546063 Y13.481323 Z-0.200000 I-0.397017 J0.049091
G02 X55.443989 Y13.363135 Z-0.200000 I-0.347970 J0.197354
G01 X54.442981 Y12.582062 Z-0.200000
G02 X54.303489 Y12.511850 Z-0.200000 I-0.246145 J0.315349
G02 X54.147745 Y12.500394 Z-0.200000 I-0.106654 J0.385561
G02 X53.999482 Y12.549440 Z-0.200000 I0.049091 J0.397017
G02 X53.881294 Y12.651514 Z-0.200000 I0.197354 J0.347970
G01 X47.279388 Y21.118181 Z-0.200000
G02 X47.116756 Y21.418216 Z-0.200000 I0.815104 J0.635915
G02 X47.060555 Y21.754835 Z-0.200000 I0.979776 J0.336580
G01 X47.060555 Y38.892119 Z-0.200000
G02 X47.090979 Y39.045284 Z-0.200000 I0.400040 J0.000143
G02 X47.177724 Y39.175132 Z-0.200000 I0.369616 J-0.153023
G02 X47.307573 Y39.261877 Z-0.200000 I0.282871 J-0.282871
G02 X47.460738 Y39.292301 Z-0.200000 I0.153023 J-0.369616
G01 X47.460738 Y39.292301 Z-0.200000
G00 Z2.0

(Change tool to Isolate micro endmill)

G00 Z2.0
G00 X13.816762 Y37.339346

G01 Z-0.200000 F100.0(Penetrate)
G01 X14.046068 Y36.611740 Z-0.200000 F400.000000
G01 X14.275373 Y37.339346 Z-0.200000
G03 X14.528463 Y37.214353 Z-0.200000 I0.535675 J0.765924
G03 X14.807296 Y37.170673 Z-0.200000 I0.282224 J0.889776
G01 X19.821701 Y37.170673 Z-0.200000
G02 X20.104163 Y37.053505 Z-0.200000 I-0.000409 J-0.400040
G02 X20.221332 Y36.771044 Z-0.200000 I-0.282870 J-0.282872
G01 X20.221332 Y35.604670 Z-0.200000
G02 X20.104358 Y35.321851 Z-0.200000 I-0.400040 J-0.000143
G02 X19.821701 Y35.204487 Z-0.200000 I-0.283066 J0.282676
G01 X14.730126 Y35.204487 Z-0.200000
G03 X14.461033 Y35.164495 Z-0.200000 I0.000932 J-0.931578
G03 X14.214740 Y35.048495 Z-0.200000 I0.271042 J-0.894946
G02 X13.993427 Y34.981700 Z-0.200000 I-0.221313 J0.333245
G02 X13.772114 Y35.048495 Z-0.200000 I0.000000 J0.400040
G03 X13.526168 Y35.164378 Z-0.200000 I-0.517202 J-0.778750
G03 X13.257278 Y35.204487 Z-0.200000 I-0.270527 J-0.892226
G01 X11.100373 Y35.204487 Z-0.200000
G02 X10.817716 Y35.321851 Z-0.200000 I0.000409 J0.400040
G02 X10.700742 Y35.604670 Z-0.200000 I0.283066 J0.282676
G01 X10.700742 Y36.878531 Z-0.200000
G02 X10.743118 Y37.057495 Z-0.200000 I0.400040 J-0.000225
G02 X10.861089 Y37.198586 Z-0.200000 I0.357664 J-0.179189
G02 X11.029721 Y37.271984 Z-0.200000 I0.239693 J-0.320280
G02 X11.213372 Y37.262175 Z-0.200000 I0.071061 J-0.393678
G03 X11.480197 Y37.185797 Z-0.200000 I5.753391 J19.595093
G03 X11.589852 Y37.170673 Z-0.200000 I0.110529 J0.396291
G01 X11.590953 Y37.170673 Z-0.200000
G01 X13.282633 Y37.170673 Z-0.200000
G03 X13.562640 Y37.214002 Z-0.200000 I-0.000853 J0.931931
G03 X13.816760 Y37.339346 Z-0.200000 I-0.281810 J0.891609
G01 X13.816762 Y37.339346 Z-0.200000
G00 Z2.0

(Change tool to Isolate micro endmill)

G00 Z2.0
G00 X39.322595 Y36.514176

G01 Z-0.200000 F100.0(Penetrate)
G01 X40.593145 Y36.514176 Z-0.200000 F400.000000
G02 X40.875803 Y36.396813 Z-0.200000 I-0.000408 J-0.400040
G02 X40.992778 Y36.113994 Z-0.200000 I-0.283066 J-0.282676
G01 X40.992778 Y17.077775 Z-0.200000
G01 X48.761054 Y6.945336 Z-0.200000
G01 X55.071919 Y6.945336 Z-0.200000
G02 X55.225084 Y6.914913 Z-0.200000 I0.000143 J-0.400040
G02 X55.354932 Y6.828167 Z-0.200000 I-0.153023 J-0.369616
G02 X55.441677 Y6.698319 Z-0.200000 I-0.282871 J-0.282871
G02 X55.472101 Y6.545154 Z-0.200000 I-0.369616 J-0.153023
G01 X55.472101 Y5.275704 Z-0.200000
G02 X55.441677 Y5.122539 Z-0.200000 I-0.400040 J-0.000143
G02 X55.354932 Y4.992690 Z-0.200000 I-0.369616 J0.153023
G02 X55.225084 Y4.905945 Z-0.200000 I-0.282871 J0.282871
G02 X55.071919 Y4.875522 Z-0.200000 I-0.153023 J0.369616
G01 X48.250630 Y4.875522 Z-0.200000
G02 X47.792265 Y4.982684 Z-0.200000 I-0.000136 J1.033274
G02 X47.428768 Y5.281766 Z-0.200000 I0.459773 J0.929232
G01 X39.135733 Y16.097162 Z-0.200000
G02 X39.135733 Y16.097445 Z-0.200000 I0.400040 J0.000282
G02 X39.135733 Y16.097727 Z-0.200000 I0.400040 J0.000000
G02 X38.977346 Y16.394393 Z-0.200000 I0.823498 J0.630269
G02 X38.922412 Y16.726112 Z-0.200000 I0.978493 J0.332451
G01 X38.922412 Y36.114008 Z-0.200000
G02 X38.952836 Y36.267173 Z-0.200000 I0.400040 J0.000143
G02 X39.039581 Y36.397021 Z-0.200000 I0.369616 J-0.153023
G02 X39.169430 Y36.483766 Z-0.200000 I0.282871 J-0.282871
G02 X39.322595 Y36.514190 Z-0.200000 I0.153023 J-0.369616
G01 X39.322595 Y36.514176 Z-0.200000
G00 Z2.0

(Change tool to Isolate micro endmill)

G00 Z2.0
G00 X35.499918 Y34.722175

G01 Z-0.200000 F100.0(Penetrate)
G01 X37.076394 Y34.722175 Z-0.200000 F400.000000
G02 X37.359050 Y34.604811 Z-0.200000 I-0.000410 J-0.400040
G02 X37.476023 Y34.321993 Z-0.200000 I-0.283067 J-0.282675
G01 X37.476023 Y33.051993 Z-0.200000
G02 X37.359050 Y32.769174 Z-0.200000 I-0.400040 J-0.000143
G02 X37.076394 Y32.651810 Z-0.200000 I-0.283067 J0.282675
G01 X35.948606 Y32.651810 Z-0.200000
G01 X29.586479 Y25.864696 Z-0.200000
G01 X29.636091 Y17.130691 Z-0.200000
G02 X29.606512 Y16.977357 Z-0.200000 I-0.400033 J-0.002352
G02 X29.520482 Y16.847030 Z-0.200000 I-0.370454 J0.150982
G02 X29.391111 Y16.759570 Z-0.200000 I-0.284425 J0.281309
G02 X29.238112 Y16.728304 Z-0.200000 I-0.155053 J0.368769
G01 X27.968663 Y16.721136 Z-0.200000
G02 X27.685197 Y16.836549 Z-0.200000 I-0.002356 J0.400033
G02 X27.566276 Y17.118561 Z-0.200000 I0.281111 J0.284620
G01 X27.514462 Y26.264876 Z-0.200000
G02 X27.585950 Y26.648635 Z-0.200000 I1.033266 J0.006057
G02 X27.794479 Y26.978700 Z-0.200000 I0.965854 J-0.379304
G01 X34.744753 Y34.394199 Z-0.200000
G02 X35.088357 Y34.636538 Z-0.200000 I0.757387 J-0.709114
G02 X35.499918 Y34.722172 Z-0.200000 I0.411632 J-0.946505
G01 X35.499918 Y34.722175 Z-0.200000
G00 Z2.0

(Change tool to Isolate micro endmill)

G00 Z2.0
G00 X7.974431 Y32.525030

G01 Z-0.200000 F100.0(Penetrate)
G02 X8.099945 Y32.500937 Z-0.200000 I-0.011688 J-0.399869 F400.000000
G02 X8.211454 Y32.438489 Z-0.200000 I-0.137202 J-0.375776
G03 X8.226425 Y32.427737 Z-0.200000 I0.118098 J0.148632
G02 X8.306814 Y32.373999 Z-0.200000 I-1.755461 J-2.713079
G02 X8.457703 Y32.175302 Z-0.200000 I-0.227259 J-0.329219
G02 X8.461504 Y31.925836 Z-0.200000 I-0.378148 J-0.130523
G02 X8.316737 Y31.722635 Z-0.200000 I-0.381948 J0.118944
G02 X8.079713 Y31.644739 Z-0.200000 I-0.237182 J0.322144
G01 X7.962856 Y31.644739 Z-0.200000
G02 X7.680037 Y31.761714 Z-0.200000 I-0.000143 J0.400040
G02 X7.562674 Y32.044372 Z-0.200000 I0.282676 J0.283065
G01 X7.562674 Y32.125401 Z-0.200000
G02 X7.594326 Y32.281118 Z-0.200000 I0.400040 J-0.000239
G02 X7.684102 Y32.412229 Z-0.200000 I0.368388 J-0.155956
G02 X7.817837 Y32.498046 Z-0.200000 I0.278612 J-0.287067
G02 X7.974431 Y32.525030 Z-0.200000 I0.144876 J-0.372885
G01 X7.974431 Y32.525030 Z-0.200000
G00 Z2.0

(Change tool to Isolate micro endmill)

G00 Z2.0
G00 X37.234040 Y32.167294

G01 Z-0.200000 F100.0(Penetrate)
G02 X37.387986 Y32.141399 Z-0.200000 I0.011891 J-0.399863 F400.000000
G02 X37.520300 Y32.058556 Z-0.200000 I-0.142055 J-0.373969
G02 X37.610832 Y31.931380 Z-0.200000 I-0.274368 J-0.291126
G02 X37.645797 Y31.779238 Z-0.200000 I-0.364901 J-0.163950
G01 X37.701471 Y29.871481 Z-0.200000
G02 X37.628333 Y29.457560 Z-0.200000 I-1.034013 J-0.030716
G02 X37.396648 Y29.106946 Z-0.200000 I-0.961320 J0.383382
G01 X32.323264 Y24.058917 Z-0.200000
G01 X32.323264 Y17.072263 Z-0.200000
G02 X32.205900 Y16.789605 Z-0.200000 I-0.400040 J0.000408
G02 X31.923081 Y16.672630 Z-0.200000 I-0.282676 J0.283066
G01 X30.653631 Y16.672630 Z-0.200000
G02 X30.370814 Y16.789606 Z-0.200000 I-0.000140 J0.400040
G02 X30.253452 Y17.072263 Z-0.200000 I0.282677 J0.283065
G01 X30.253452 Y24.488312 Z-0.200000
G01 X30.253452 Y24.488877 Z-0.200000
G02 X30.332384 Y24.886013 Z-0.200000 I1.033200 J0.001060
G02 X30.557721 Y25.222544 Z-0.200000 I0.957482 J-0.397411
G02 X30.557721 Y25.222826 Z-0.200000 I0.400040 J0.000283
G02 X30.557721 Y25.223109 Z-0.200000 I0.400040 J-0.000000
G01 X35.618979 Y30.259011 Z-0.200000
G01 X35.576535 Y31.718628 Z-0.200000
G02 X35.602483 Y31.872699 Z-0.200000 I0.399864 J0.011878
G02 X35.685468 Y32.005080 Z-0.200000 I0.373916 J-0.142193
G02 X35.812830 Y32.095578 Z-0.200000 I0.290931 J-0.274574
G02 X35.965144 Y32.130387 Z-0.200000 I0.163568 J-0.365072
G01 X37.234040 Y32.167294 Z-0.200000
G00 Z2.0

(Change tool to Isolate micro endmill)

G00 Z2.0
G00 X60.088529 Y31.875149

G01 Z-0.200000 F100.0(Penetrate)
G01 X60.089093 Y31.875149 Z-0.200000 F400.000000
G02 X60.826057 Y31.574783 Z-0.200000 I0.007893 J-1.034909
G02 X61.131994 Y30.839966 Z-0.200000 I-0.729236 J-0.734710
G01 X61.131994 Y10.975269 Z-0.200000
G02 X60.829047 Y10.243328 Z-0.200000 I-1.035507 J-0.000072
G02 X60.097362 Y9.940087 Z-0.200000 I-0.731602 J0.730912
G01 X56.545330 Y9.940087 Z-0.200000
G02 X56.262511 Y10.057061 Z-0.200000 I-0.000143 J0.400040
G02 X56.145148 Y10.339719 Z-0.200000 I0.282676 J0.283066
G01 X56.145148 Y11.610269 Z-0.200000
G02 X56.262511 Y11.892927 Z-0.200000 I0.400040 J-0.000408
G02 X56.545330 Y12.009902 Z-0.200000 I0.282676 J-0.283066
G01 X59.062180 Y12.009902 Z-0.200000
G01 X59.062180 Y29.797618 Z-0.200000
G01 X57.309314 Y29.784381 Z-0.200000
G02 X57.025686 Y29.899404 Z-0.200000 I-0.002910 J0.400029
G02 X56.906377 Y30.181256 Z-0.200000 I0.280719 J0.285007
G01 X56.897572 Y31.451256 Z-0.200000
G02 X57.012594 Y31.734885 Z-0.200000 I0.400029 J0.002910
G02 X57.294447 Y31.854194 Z-0.200000 I0.285007 J-0.280719
G01 X60.088529 Y31.875149 Z-0.200000
G00 Z2.0

(End cutting path id: path1897)


(Fixup bottom right)
G00 Z2.000000
G00 X44.77 Y18.21

G01 Z-0.200000 F100.0(Penetrate)
G01 X44.77 Y41.89 F400.000000
G00 Z2.000000

(Fixup top right)
G00 Z2.000000
G00 X39.7 Y66.4

G01 Z-0.200000 F100.0(Penetrate)
G01 X42.4  Y76.7
G00 Z2.000000



(Footer)
M5
G00 X0.0000 Y0.0000
M2
(Using default footer. To add your own footer create file "footer" in the output dir.)
(end)
%
