%
(Header)
(Generated by gcodetools from Inkscape.)
(Using default header. To add your own header create file "header" in the output dir.)
M3
(Header end.)
G21 (All units in mm)

(Pass at depth -1.0)
(Start cutting path id: path12694)
(Change tool to Eigth Inch Cone)

G00 Z2.0
G00 X35.346679 Y87.696147

G01 Z-1.000000 F200.0(Penetrate)
G03 X34.433399 Y87.386211 Z-1.000000 I-0.000131 J-1.500150 F100.000000
G03 X33.897536 Y86.584344 Z-1.000000 I0.913149 J-1.190214
G01 X30.999244 Y75.767847 Z-1.000000
G01 X2.029575 Y75.767847 Z-1.000000
G03 X0.969102 Y75.328464 Z-1.000000 I0.000293 J-1.500150
G03 X0.529718 Y74.267991 Z-1.000000 I1.060766 J-1.060767
G01 X0.529718 Y8.068138 Z-1.000000
G01 X0.515386 Y6.421106 Z-1.000000
G03 X0.625816 Y5.843118 Z-1.000000 I1.500094 J-0.012937
G03 X0.950067 Y5.352071 Z-1.000000 I1.389664 J0.565052
G03 X1.438247 Y5.023521 Z-1.000000 I1.065414 J1.056098
G03 X2.015243 Y4.908019 Z-1.000000 I0.577234 J1.384648
G01 X35.448655 Y4.908019 Z-1.000000
G01 X40.022088 Y0.334589 Z-1.000000
G03 X40.508674 Y0.009476 Z-1.000000 I1.060701 J1.060832
G03 X41.082626 Y-0.104730 Z-1.000000 I0.574115 J1.385944
G01 X67.125895 Y-0.104730 Z-1.000000
G03 X68.186367 Y0.334654 Z-1.000000 I-0.000294 J1.500150
G03 X68.625751 Y1.395126 Z-1.000000 I-1.060766 J1.060766
G01 X68.625751 Y62.322052 Z-1.000000
G01 X68.625751 Y86.196288 Z-1.000000
G03 X68.186368 Y87.256762 Z-1.000000 I-1.500150 J-0.000291
G03 X67.125895 Y87.696147 Z-1.000000 I-1.060767 J-1.060765
G01 X35.346679 Y87.696147 Z-1.000000
G00 Z2.0

(Change tool to Eigth Inch Cone)

G00 Z2.0
G00 X32.232312 Y43.226301

G01 Z-1.000000 F200.0(Penetrate)
G01 X32.229714 Y43.218242 Z-1.000000 F100.000000
G02 X32.828176 Y42.535077 Z-1.000000 I-1.175588 J-1.633545
G02 X33.242211 Y41.434542 Z-1.000000 I-3.938098 J-2.109713
G02 X33.444987 Y39.662145 Z-1.000000 I-7.642541 J-1.772162
G02 X33.242162 Y37.890035 Z-1.000000 I-7.844554 J0.000176
G02 X32.828176 Y36.789761 Z-1.000000 I-4.351122 J1.009122
G02 X32.229712 Y36.106603 Z-1.000000 I-1.774265 J0.950589
G01 X32.232312 Y36.098536 Z-1.000000
G01 X32.233263 Y36.101434 Z-1.000000
G02 X31.636451 Y36.789761 Z-1.000000 I1.222526 J1.662885
G02 X31.236752 Y37.837864 Z-1.000000 I3.889892 J2.083693
G02 X31.019640 Y39.662145 Z-1.000000 I7.557257 J1.824467
G02 X31.236735 Y41.486383 Z-1.000000 I7.771000 J0.000241
G02 X31.636451 Y42.534527 Z-1.000000 I4.291099 J-1.036146
G02 X32.233264 Y43.223403 Z-1.000000 I1.823051 J-0.976448
G01 X32.232312 Y43.226301 Z-1.000000
G01 X32.232312 Y43.226301 Z-1.000000
G00 Z2.0

(End cutting path id: path12694)


(Pass at depth -2.0)
(Start cutting path id: path12694)
(Change tool to Eigth Inch Cone)

G00 Z2.0
G00 X35.346679 Y87.696147

G01 Z-2.000000 F200.0(Penetrate)
G03 X34.433399 Y87.386211 Z-2.000000 I-0.000131 J-1.500150 F100.000000
G03 X33.897536 Y86.584344 Z-2.000000 I0.913149 J-1.190214
G01 X30.999244 Y75.767847 Z-2.000000
G01 X2.029575 Y75.767847 Z-2.000000
G03 X0.969102 Y75.328464 Z-2.000000 I0.000293 J-1.500150
G03 X0.529718 Y74.267991 Z-2.000000 I1.060766 J-1.060767
G01 X0.529718 Y8.068138 Z-2.000000
G01 X0.515386 Y6.421106 Z-2.000000
G03 X0.625816 Y5.843118 Z-2.000000 I1.500094 J-0.012937
G03 X0.950067 Y5.352071 Z-2.000000 I1.389664 J0.565052
G03 X1.438247 Y5.023521 Z-2.000000 I1.065414 J1.056098
G03 X2.015243 Y4.908019 Z-2.000000 I0.577234 J1.384648
G01 X35.448655 Y4.908019 Z-2.000000
G01 X40.022088 Y0.334589 Z-2.000000
G03 X40.508674 Y0.009476 Z-2.000000 I1.060701 J1.060832
G03 X41.082626 Y-0.104730 Z-2.000000 I0.574115 J1.385944
G01 X67.125895 Y-0.104730 Z-2.000000
G03 X68.186367 Y0.334654 Z-2.000000 I-0.000294 J1.500150
G03 X68.625751 Y1.395126 Z-2.000000 I-1.060766 J1.060766
G01 X68.625751 Y62.322052 Z-2.000000
G01 X68.625751 Y86.196288 Z-2.000000
G03 X68.186368 Y87.256762 Z-2.000000 I-1.500150 J-0.000291
G03 X67.125895 Y87.696147 Z-2.000000 I-1.060767 J-1.060765
G01 X35.346679 Y87.696147 Z-2.000000
G00 Z2.0

(Change tool to Eigth Inch Cone)

G00 Z2.0
G00 X32.232312 Y43.226301

G01 Z-2.000000 F200.0(Penetrate)
G01 X32.229714 Y43.218242 Z-2.000000 F100.000000
G02 X32.828176 Y42.535077 Z-2.000000 I-1.175588 J-1.633545
G02 X33.242211 Y41.434542 Z-2.000000 I-3.938098 J-2.109713
G02 X33.444987 Y39.662145 Z-2.000000 I-7.642541 J-1.772162
G02 X33.242162 Y37.890035 Z-2.000000 I-7.844554 J0.000176
G02 X32.828176 Y36.789761 Z-2.000000 I-4.351122 J1.009122
G02 X32.229712 Y36.106603 Z-2.000000 I-1.774265 J0.950589
G01 X32.232312 Y36.098536 Z-2.000000
G01 X32.233263 Y36.101434 Z-2.000000
G02 X31.636451 Y36.789761 Z-2.000000 I1.222526 J1.662885
G02 X31.236752 Y37.837864 Z-2.000000 I3.889892 J2.083693
G02 X31.019640 Y39.662145 Z-2.000000 I7.557257 J1.824467
G02 X31.236735 Y41.486383 Z-2.000000 I7.771000 J0.000241
G02 X31.636451 Y42.534527 Z-2.000000 I4.291099 J-1.036146
G02 X32.233264 Y43.223403 Z-2.000000 I1.823051 J-0.976448
G01 X32.232312 Y43.226301 Z-2.000000
G01 X32.232312 Y43.226301 Z-2.000000
G00 Z2.0

(End cutting path id: path12694)


(Footer)
M5
G00 X0.0000 Y0.0000
M2
(Using default footer. To add your own footer create file "footer" in the output dir.)
(end)
%
